;FLAVOR:Marlin
;TIME:3189
;Filament used: 2.58375m
;Layer height: 0.2
;MINX:98.255
;MINY:94.785
;MINZ:0.2
;MAXX:121.749
;MAXY:125.756
;MAXZ:13.6
;Generated with Cura_SteamEngine 4.13.1
M140 S60
M105
M190 S60
M104 S195
M105
M109 S195
M82 ;absolute extrusion mode
G28 ;Home
G92 E0 ;Reset Extruder
G1 Z2.0 F3000 ;Move bed down
G1 X10.1 Y20 Z0.28 F5000.0 ;Move to start position
G1 X10.1 Y200.0 Z0.28 F1500.0 E15 ;Draw the first line
G1 X10.4 Y200.0 Z0.28 F5000.0 ;Move to side a little
G1 X10.4 Y20 Z0.28 F1500.0 E30 ;Draw the second line
G92 E0 ;Reset Extruder
G1 Z2.0 F3000 ;Move Bed up
G92 E0
G92 E0
G1 F2400 E-7
;LAYER_COUNT:68
;LAYER:0
M107
;MESH:CamShaft.stl
G0 F6000 X108.908 Y111.055 Z0.2
;TYPE:WALL-INNER
G1 F2400 E0
G1 F1200 X110.008 Y111.163 E0.03309
G1 X111.101 Y111.053 E0.06597
G1 X112.15 Y110.733 E0.0988
G1 X113.119 Y110.214 E0.1317
G1 X113.966 Y109.517 E0.16454
G1 X114.658 Y108.672 E0.19723
G1 X115.178 Y107.697 E0.23031
G1 X115.495 Y106.652 E0.263
G1 X115.603 Y105.552 E0.29608
G1 X115.493 Y104.459 E0.32897
G1 X115.173 Y103.41 E0.3618
G1 X114.654 Y102.442 E0.39468
G1 X113.962 Y101.598 E0.42735
G1 X113.113 Y100.902 E0.46021
G1 X112.144 Y100.384 E0.4931
G1 X111.092 Y100.065 E0.52601
G1 X110 Y99.957 E0.55885
G1 X108.908 Y100.065 E0.5917
G1 X107.856 Y100.384 E0.62461
G1 X106.887 Y100.902 E0.6575
G1 X106.038 Y101.598 E0.69036
G1 X105.342 Y102.447 E0.72322
G1 X104.824 Y103.416 E0.75611
G1 X104.505 Y104.468 E0.78902
G1 X104.397 Y105.56 E0.82187
G1 X104.505 Y106.652 E0.85471
G1 X104.824 Y107.704 E0.88762
G1 X105.342 Y108.673 E0.92051
G1 X106.043 Y109.526 E0.95356
G1 X106.888 Y110.218 E0.98626
G1 X107.863 Y110.738 E1.01933
G1 X108.908 Y111.055 E1.05202
G0 F6000 X108.986 Y110.661
;TYPE:WALL-OUTER
G1 F1200 X110.007 Y110.761 E1.08273
G1 X111.022 Y110.659 E1.11327
G1 X111.996 Y110.362 E1.14375
G1 X112.895 Y109.88 E1.17428
G1 X113.682 Y109.233 E1.20478
G1 X114.324 Y108.449 E1.23511
G1 X114.807 Y107.543 E1.26585
G1 X115.101 Y106.574 E1.29616
G1 X115.201 Y105.553 E1.32687
G1 X115.099 Y104.538 E1.3574
G1 X114.802 Y103.564 E1.38788
G1 X114.32 Y102.665 E1.41842
G1 X113.678 Y101.882 E1.44873
G1 X112.89 Y101.236 E1.47923
G1 X111.99 Y100.755 E1.50978
G1 X111.014 Y100.459 E1.54031
G1 X110 Y100.359 E1.57081
G1 X108.986 Y100.459 E1.60131
G1 X108.01 Y100.755 E1.63184
G1 X107.11 Y101.236 E1.66238
G1 X106.322 Y101.882 E1.69289
G1 X105.676 Y102.67 E1.72339
G1 X105.195 Y103.57 E1.75393
G1 X104.899 Y104.546 E1.78446
G1 X104.799 Y105.56 E1.81496
G1 X104.899 Y106.574 E1.84546
G1 X105.195 Y107.55 E1.87599
G1 X105.676 Y108.45 E1.90654
G1 X106.327 Y109.242 E1.93723
G1 X107.111 Y109.884 E1.96756
G1 X108.017 Y110.367 E1.9983
G1 X108.986 Y110.661 E2.02861
G0 F6000 X108.901 Y111.092
G1 F2400 E-4.97139
G0 F6000 X110.008 Y111.354
G0 X110.005 Y109.892
G0 X112.12 Y125.756
G0 X111.618 Y124.371
G0 X110.823 Y124.755
;TYPE:WALL-INNER
G1 F2400 E2.02861
G1 F1200 X109.995 Y124.814 E2.05346
G1 X109.156 Y124.753 E2.07864
G1 X108.328 Y124.574 E2.104
G1 X107.485 Y124.267 E2.13085
G1 X106.663 Y123.847 E2.15848
G1 X105.825 Y123.281 E2.18875
G1 X105.024 Y122.608 E2.22007
G1 X104.231 Y121.797 E2.25402
G1 X103.452 Y120.844 E2.29087
G1 X102.702 Y119.762 E2.33028
G1 X101.988 Y118.561 E2.3721
G1 X101.332 Y117.281 E2.41516
G1 X100.711 Y115.877 E2.46111
G1 X100.174 Y114.454 E2.50664
G1 X99.695 Y112.948 E2.55395
G1 X99.305 Y111.435 E2.60072
G1 X99 Y109.893 E2.64777
G1 X98.795 Y108.368 E2.69383
G1 X98.692 Y106.829 E2.74
G1 X98.702 Y105.355 E2.78413
G1 X98.829 Y103.953 E2.82627
G1 X99.086 Y102.594 E2.86767
G1 X99.473 Y101.328 E2.90729
G1 X99.989 Y100.184 E2.94486
G1 X100.653 Y99.143 E2.98182
G1 X101.463 Y98.227 E3.01842
G1 X102.409 Y97.431 E3.05543
G1 X103.474 Y96.755 E3.09319
G1 X104.663 Y96.189 E3.13261
G1 X105.928 Y95.751 E3.17268
G1 X107.256 Y95.436 E3.21354
G1 X108.607 Y95.251 E3.25436
G1 X110.009 Y95.186 E3.29637
G1 X111.409 Y95.251 E3.33832
G1 X112.763 Y95.439 E3.37924
G1 X114.096 Y95.757 E3.42026
G1 X115.359 Y96.197 E3.4603
G1 X116.525 Y96.756 E3.49901
G1 X117.604 Y97.442 E3.53728
G1 X118.545 Y98.236 E3.57414
G1 X119.353 Y99.15 E3.61065
G1 X120.018 Y100.199 E3.64783
G1 X120.536 Y101.353 E3.6857
G1 X120.917 Y102.605 E3.72487
G1 X121.174 Y103.975 E3.7666
G1 X121.299 Y105.376 E3.8087
G1 X121.308 Y106.845 E3.85268
G1 X121.205 Y108.375 E3.89858
G1 X120.997 Y109.908 E3.94489
G1 X120.692 Y111.446 E3.99182
G1 X120.299 Y112.97 E4.03894
G1 X119.823 Y114.464 E4.08587
G1 X119.281 Y115.898 E4.13176
G1 X118.666 Y117.285 E4.17718
G1 X118.005 Y118.574 E4.22054
G1 X117.287 Y119.781 E4.26258
G1 X116.549 Y120.843 E4.30129
G1 X115.769 Y121.796 E4.33816
G1 X114.966 Y122.617 E4.37253
G1 X114.162 Y123.292 E4.40396
G1 X113.33 Y123.851 E4.43396
G1 X112.502 Y124.273 E4.46178
G1 X111.676 Y124.573 E4.48809
G1 X110.823 Y124.755 E4.5142
G0 F6000 X110.879 Y125.152
;TYPE:WALL-OUTER
G1 F1200 X109.994 Y125.215 E4.54075
G1 X109.1 Y125.15 E4.56759
G1 X108.215 Y124.959 E4.59469
G1 X107.327 Y124.636 E4.62297
G1 X106.454 Y124.189 E4.65233
G1 X105.59 Y123.606 E4.68353
G1 X104.747 Y122.897 E4.71651
G1 X103.933 Y122.065 E4.75135
G1 X103.131 Y121.084 E4.78928
G1 X102.368 Y119.983 E4.82938
G1 X101.639 Y118.756 E4.8721
G1 X100.968 Y117.447 E4.91613
G1 X100.345 Y116.039 E4.96222
G1 X99.796 Y114.584 E5.00877
G1 X99.311 Y113.059 E5.05667
G1 X98.915 Y111.524 E5.10413
G1 X98.606 Y109.961 E5.15182
G1 X98.396 Y108.402 E5.19891
G1 X98.292 Y106.845 E5.24562
G1 X98.302 Y105.34 E5.29067
G1 X98.433 Y103.896 E5.33407
G1 X98.698 Y102.493 E5.37681
G1 X99.096 Y101.191 E5.41757
G1 X99.635 Y99.996 E5.45681
G1 X100.335 Y98.899 E5.49576
G1 X101.18 Y97.943 E5.53396
G1 X102.175 Y97.106 E5.57288
G1 X103.279 Y96.405 E5.61202
G1 X104.513 Y95.818 E5.65293
G1 X105.811 Y95.368 E5.69405
G1 X107.182 Y95.043 E5.73623
G1 X108.579 Y94.851 E5.77844
G1 X110.01 Y94.785 E5.82132
G1 X111.439 Y94.852 E5.86414
G1 X112.839 Y95.046 E5.90645
G1 X114.209 Y95.373 E5.94861
G1 X115.514 Y95.827 E5.98997
G1 X116.722 Y96.406 E6.03007
G1 X117.84 Y97.117 E6.06974
G1 X118.826 Y97.949 E6.10835
G1 X119.673 Y98.908 E6.14665
G1 X120.372 Y100.009 E6.18569
G1 X120.912 Y101.212 E6.22517
G1 X121.306 Y102.507 E6.26568
G1 X121.57 Y103.917 E6.30862
G1 X121.699 Y105.362 E6.35205
G1 X121.708 Y106.856 E6.39677
G1 X121.603 Y108.413 E6.44349
G1 X121.391 Y109.978 E6.49076
G1 X121.082 Y111.535 E6.53828
G1 X120.683 Y113.081 E6.58607
G1 X120.197 Y114.606 E6.63398
G1 X119.647 Y116.06 E6.68052
G1 X119.023 Y117.467 E6.72659
G1 X118.356 Y118.766 E6.7703
G1 X117.627 Y119.992 E6.813
G1 X116.863 Y121.091 E6.85307
G1 X116.067 Y122.064 E6.8907
G1 X115.241 Y122.908 E6.92605
G1 X114.4 Y123.614 E6.95892
G1 X113.534 Y124.196 E6.99015
G1 X112.661 Y124.641 E7.01948
G1 X111.786 Y124.958 E7.04734
G1 X110.879 Y125.152 E7.0751
G0 F6000 X110.818 Y124.717
G0 X110.763 Y124.368
;TYPE:SKIN
G1 F1200 X109.996 Y124.423 E7.09812
G1 X109.209 Y124.366 E7.12174
G1 X108.435 Y124.199 E7.14544
G1 X107.642 Y123.909 E7.17072
G1 X106.861 Y123.511 E7.19696
G1 X106.066 Y122.973 E7.22569
G1 X105.289 Y122.321 E7.25606
G1 X104.518 Y121.533 E7.28906
G1 X103.759 Y120.603 E7.32499
G1 X103.028 Y119.549 E7.36339
G1 X102.329 Y118.372 E7.40436
G1 X101.684 Y117.113 E7.44671
G1 X101.068 Y115.719 E7.49233
G1 X100.543 Y114.326 E7.53689
G1 X100.067 Y112.829 E7.58391
G1 X99.683 Y111.338 E7.63
G1 X99.382 Y109.817 E7.67641
G1 X99.185 Y108.342 E7.72096
G1 X99.082 Y106.803 E7.76713
G1 X99.092 Y105.363 E7.81024
G1 X99.213 Y104.025 E7.85045
G1 X99.468 Y102.677 E7.89152
G1 X99.84 Y101.461 E7.92958
G1 X100.33 Y100.374 E7.96527
G1 X100.968 Y99.375 E8.00076
G1 X101.736 Y98.506 E8.03547
G1 X102.639 Y97.746 E8.0708
G1 X103.654 Y97.102 E8.10679
G1 X104.817 Y96.549 E8.14533
G1 X106.034 Y96.127 E8.18389
G1 X107.337 Y95.818 E8.22398
G1 X108.634 Y95.641 E8.26316
G1 X110.009 Y95.576 E8.30437
G1 X111.38 Y95.641 E8.34545
G1 X112.683 Y95.821 E8.38483
G1 X113.995 Y96.134 E8.4252
G1 X115.215 Y96.559 E8.46388
G1 X116.331 Y97.095 E8.50094
G1 X117.37 Y97.755 E8.53778
G1 X118.274 Y98.519 E8.57321
G1 X119.04 Y99.384 E8.6078
G1 X119.675 Y100.386 E8.64331
G1 X120.17 Y101.487 E8.67944
G1 X120.535 Y102.686 E8.71696
G1 X120.79 Y104.047 E8.75841
G1 X120.909 Y105.384 E8.79859
G1 X120.918 Y106.819 E8.84155
G1 X120.815 Y108.349 E8.88745
G1 X120.615 Y109.832 E8.93224
G1 X120.314 Y111.349 E8.97854
G1 X119.927 Y112.851 E9.02497
G1 X119.454 Y114.336 E9.07162
G1 X118.924 Y115.74 E9.11654
G1 X118.314 Y117.117 E9.16163
G1 X117.664 Y118.385 E9.20428
G1 X116.961 Y119.568 E9.24547
G1 X116.246 Y120.597 E9.28298
G1 X115.482 Y121.532 E9.31912
G1 X114.703 Y122.328 E9.35246
G1 X113.927 Y122.979 E9.38278
G1 X113.125 Y123.519 E9.41172
G1 X112.352 Y123.912 E9.43768
G1 X111.57 Y124.196 E9.46259
G1 X110.763 Y124.368 E9.48729
G1 F2400 E2.48729
G0 F6000 X110.781 Y124.648
G0 X111.618 Y124.371
G0 X112.12 Y125.756
G0 X110.162 Y109.877
G0 X110.31 Y111.343
G0 X110.008 Y111.274
G1 F2400 E9.48729
G0 F6000 X110.008 Y111.555
G1 F1200 X111.179 Y111.437 E9.52252
G1 X112.3 Y111.095 E9.5576
G1 X113.337 Y110.54 E9.59281
G1 X114.243 Y109.794 E9.62794
G1 X114.984 Y108.889 E9.66295
G1 X115.54 Y107.847 E9.69831
G1 X115.879 Y106.728 E9.7333
G1 X115.995 Y105.552 E9.76868
G1 X115.877 Y104.381 E9.80391
G1 X115.535 Y103.26 E9.83899
G1 X114.98 Y102.224 E9.87417
G1 X114.239 Y101.321 E9.90914
G1 X113.331 Y100.576 E9.9443
G1 X112.294 Y100.022 E9.97949
G1 X111.168 Y99.681 E10.01471
G1 X110 Y99.565 E10.04984
G1 X108.832 Y99.681 E10.08498
G1 X107.706 Y100.022 E10.1202
G1 X106.669 Y100.576 E10.15539
G1 X105.761 Y101.321 E10.19055
G1 X105.016 Y102.229 E10.22571
G1 X104.462 Y103.266 E10.2609
G1 X104.121 Y104.392 E10.29612
G1 X104.005 Y105.56 E10.33125
G1 X104.121 Y106.728 E10.36639
G1 X104.462 Y107.854 E10.40161
G1 X105.016 Y108.891 E10.4368
G1 X105.766 Y109.803 E10.47214
G1 X106.671 Y110.544 E10.50716
G1 X107.713 Y111.1 E10.54251
G1 X108.832 Y111.439 E10.57751
G1 X110.008 Y111.555 E10.61288
G1 F2400 E3.61288
G0 F6000 X110.008 Y111.274
G0 X108.87 Y111.243
G0 X109.152 Y109.809
G0 X105.002 Y124.241
G0 X105.951 Y123.112
G0 X106.902 Y123.845
G1 F2400 E10.61288
G0 F6000 X107.084 Y123.489
G1 F1200 X103.242 Y119.647 E10.77553
G0 F6000 X102.914 Y119.874
G0 X102.034 Y118.41
G0 X102.39 Y118.229
G1 F1200 X108.113 Y123.952 E11.0178
G0 F6000 X108.902 Y124.175
G1 F1200 X101.797 Y117.07 E11.31858
G0 F6000 X101.441 Y117.251
G0 X100.982 Y116.217
G0 X101.348 Y116.056
G1 F1200 X109.562 Y124.27 E11.66631
G0 F6000 X110.148 Y124.29
G1 F1200 X100.966 Y115.108 E12.05501
G0 F6000 X100.631 Y114.208
G1 F1200 X110.677 Y124.253 E12.48027
G0 F6000 X111.15 Y124.16
G1 F1200 X100.368 Y113.379 E12.93668
G0 F6000 X100.124 Y112.569
G1 F1200 X111.607 Y124.052 E13.4228
G0 F6000 X112.023 Y123.902
G1 F1200 X99.928 Y111.807 E13.93482
G0 F6000 X99.75 Y111.064
G1 F1200 X112.425 Y123.739 E14.47139
G0 F6000 X112.8 Y123.548
G1 F1200 X99.611 Y110.359 E15.02972
G0 F6000 X99.482 Y109.664
G1 F1200 X113.163 Y123.346 E15.60891
G0 F6000 X113.501 Y123.118
G1 F1200 X99.395 Y109.011 E16.20608
G0 F6000 X99.308 Y108.359
G1 F1200 X113.839 Y122.89 E16.82122
G0 F6000 X114.148 Y122.634
G1 F1200 X99.265 Y107.751 E17.45127
G0 F6000 X99.225 Y107.145
G1 F1200 X114.457 Y122.376 E18.09607
G0 F6000 X114.752 Y122.106
G1 F1200 X99.203 Y106.557 E18.75431
G0 F6000 X99.207 Y105.995
G1 F1200 X115.032 Y121.82 E19.42423
G0 F6000 X115.312 Y121.534
G1 F1200 X99.211 Y105.433 E20.10584
G0 F6000 X99.253 Y104.909
G1 F1200 X115.573 Y121.23 E20.79674
G0 F6000 X115.827 Y120.918
G1 F1200 X99.299 Y104.39 E21.49642
G0 F6000 X99.361 Y103.886
G1 F1200 X116.082 Y120.607 E22.20428
G0 F6000 X116.32 Y120.28
G1 F1200 X106.773 Y110.733 E22.60843
G0 F6000 X106.961 Y110.382
G0 X107.997 Y110.895
G0 X107.881 Y111.275
G1 F1200 X116.552 Y119.946 E22.9755
G0 F6000 X116.784 Y119.612
G1 F1200 X108.693 Y111.522 E23.318
G0 F6000 X109.346 Y111.609
G1 F1200 X117.001 Y119.264 E23.64206
G0 F6000 X117.212 Y118.909
G1 F1200 X109.974 Y111.671 E23.94847
G0 F6000 X110.493 Y111.625
G1 F1200 X117.423 Y118.554 E24.24182
G0 F6000 X117.627 Y118.193
G1 F1200 X111.007 Y111.573 E24.52206
G0 F6000 X111.472 Y111.472
G1 F1200 X117.819 Y117.819 E24.79075
G0 F6000 X118.01 Y117.444
G1 F1200 X111.906 Y111.341 E25.04913
G0 F6000 X112.34 Y111.208
G1 F1200 X118.202 Y117.07 E25.29729
G0 F6000 X118.376 Y116.678
G1 F1200 X112.709 Y111.012 E25.53717
G0 F6000 X113.077 Y110.814
G1 F1200 X118.549 Y116.287 E25.76884
G0 F6000 X118.723 Y115.895
G1 F1200 X113.439 Y110.611 E25.99253
G0 F6000 X113.75 Y110.356
G1 F1200 X118.888 Y115.494 E26.21004
G0 F6000 X119.043 Y115.083
G1 F1200 X114.059 Y110.1 E26.42101
G0 F6000 X114.361 Y109.836
G1 F1200 X119.198 Y114.672 E26.62575
G0 F6000 X119.351 Y114.26
G1 F1200 X114.616 Y109.525 E26.8262
G0 F6000 X114.87 Y109.214
G1 F1200 X119.488 Y113.831 E27.02167
G0 F6000 X119.624 Y113.402
G1 F1200 X115.115 Y108.893 E27.21255
G0 F6000 X115.312 Y108.524
G1 F1200 X119.761 Y112.973 E27.40089
G0 F6000 X119.885 Y112.531
G1 F1200 X115.509 Y108.155 E27.58614
G0 F6000 X115.688 Y107.768
G1 F1200 X120 Y112.081 E27.76871
G0 F6000 X120.116 Y111.63
G1 F1200 X115.819 Y107.333 E27.95061
G0 F6000 X115.95 Y106.899
G1 F1200 X120.225 Y111.174 E28.13159
G0 F6000 X120.319 Y110.702
G1 F1200 X116.029 Y106.412 E28.3132
G0 F6000 X116.08 Y105.897
G1 F1200 X120.413 Y110.23 E28.49663
G0 F6000 X120.504 Y109.756
G1 F1200 X116.093 Y105.345 E28.68336
G0 F6000 X116.029 Y104.716
G1 F1200 X120.571 Y109.257 E28.87561
G0 F6000 X120.638 Y108.759
G1 F1200 X115.887 Y104.008 E29.07674
G0 F6000 X115.628 Y103.183
G1 F1200 X120.701 Y108.255 E29.29147
G0 F6000 X120.736 Y107.725
G1 F1200 X114.67 Y101.66 E29.54825
G0 F6000 X114.362 Y101.912
G0 X113.642 Y101.193
G0 X113.895 Y100.885
G1 F1200 X108.766 Y95.755 E29.7654
G0 F6000 X108.258 Y95.813
G1 F1200 X112.374 Y99.929 E29.93964
G0 F6000 X111.551 Y99.671
G1 F1200 X107.76 Y95.881 E30.1001
G0 F6000 X107.271 Y95.957
G1 F1200 X110.841 Y99.528 E30.25125
G0 F6000 X110.213 Y99.465
G1 F1200 X106.814 Y96.066 E30.39514
G0 F6000 X106.356 Y96.174
G1 F1200 X109.66 Y99.477 E30.53499
G0 F6000 X109.146 Y99.529
G1 F1200 X105.913 Y96.296 E30.67186
G0 F6000 X105.493 Y96.442
G1 F1200 X108.658 Y99.608 E30.80586
G0 F6000 X108.224 Y99.738
G1 F1200 X105.073 Y96.587 E30.93925
G0 F6000 X104.671 Y96.752
G1 F1200 X107.789 Y99.87 E31.07125
G0 F6000 X107.401 Y100.047
G1 F1200 X104.288 Y96.934 E31.20303
G0 F6000 X103.904 Y97.116
G1 F1200 X107.033 Y100.245 E31.33549
G0 F6000 X106.664 Y100.442
G1 F1200 X103.539 Y97.316 E31.46781
G0 F6000 X103.193 Y97.536
G1 F1200 X106.343 Y100.687 E31.60118
G0 F6000 X106.032 Y100.941
G1 F1200 X102.847 Y97.756 E31.73601
G0 F6000 X102.524 Y97.999
G1 F1200 X105.722 Y101.196 E31.87137
G0 F6000 X105.459 Y101.499
G1 F1200 X102.217 Y98.258 E32.00859
G0 F6000 X101.911 Y98.516
G1 F1200 X105.204 Y101.81 E32.14802
G0 F6000 X104.949 Y102.121
G1 F1200 X101.632 Y98.804 E32.28844
G0 F6000 X101.366 Y99.103
G1 F1200 X104.745 Y102.482 E32.43148
G0 F6000 X104.547 Y102.85
G1 F1200 X101.1 Y99.403 E32.5774
G0 F6000 X100.874 Y99.743
G1 F1200 X104.35 Y103.219 E32.72455
G0 F6000 X104.219 Y103.653
G1 F1200 X100.653 Y100.088 E32.87549
G0 F6000 X100.433 Y100.433
G1 F1200 X104.088 Y104.088 E33.03022
G0 F6000 X103.985 Y104.551
G1 F1200 X100.257 Y100.822 E33.18806
G0 F6000 X100.081 Y101.213
G1 F1200 X103.934 Y105.065 E33.35115
G0 F6000 X103.887 Y105.584
G1 F1200 X99.917 Y101.614 E33.51921
G0 F6000 X99.784 Y102.047
G1 F1200 X103.949 Y106.212 E33.69553
G0 F6000 X104.038 Y106.866
G1 F1200 X99.652 Y102.48 E33.8812
G0 F6000 X99.541 Y102.935
G1 F1200 X104.283 Y107.677 E34.08195
G0 F6000 X104.665 Y107.562
G0 X105.175 Y108.594
G0 X104.822 Y108.782
G1 F1200 X99.451 Y103.41 E34.30934
G0 F6000 X99.058 Y103.336
G0 X99.634 Y101.384
G0 X100.137 Y100.268
G0 X100.791 Y99.244
G0 X101.581 Y98.352
G0 X102.511 Y97.568
G0 X103.555 Y96.905
G0 X104.732 Y96.345
G0 X105.977 Y95.914
G0 X107.035 Y95.663
G0 X109.288 Y95.33
G0 X109.306 Y95.73
G1 F1200 X120.771 Y107.195 E34.79469
G0 F6000 X120.796 Y106.654
G1 F1200 X109.846 Y95.704 E35.25824
G0 F6000 X110.423 Y95.716
G1 F1200 X120.792 Y106.085 E35.69719
G0 F6000 X120.789 Y105.515
G1 F1200 X111.017 Y95.744 E36.11085
G0 F6000 X111.636 Y95.797
G1 F1200 X120.745 Y104.906 E36.49647
G0 F6000 X120.69 Y104.285
