;FLAVOR:Marlin
;TIME:10185
;Filament used: 9.42644m
;Layer height: 0.2
;MINX:61.835
;MINY:59.334
;MINZ:0.2
;MAXX:158.165
;MAXY:160.665
;MAXZ:23
;Generated with Cura_SteamEngine 4.13.1
M140 S60
M105
M190 S60
M104 S195
M105
M109 S195
M82 ;absolute extrusion mode
G28 ;Home
G92 E0 ;Reset Extruder
G1 Z2.0 F3000 ;Move bed down
G1 X10.1 Y20 Z0.28 F5000.0 ;Move to start position
G1 X10.1 Y200.0 Z0.28 F1500.0 E15 ;Draw the first line
G1 X10.4 Y200.0 Z0.28 F5000.0 ;Move to side a little
G1 X10.4 Y20 Z0.28 F1500.0 E30 ;Draw the second line
G92 E0 ;Reset Extruder
G1 Z2.0 F3000 ;Move Bed up
G92 E0
G92 E0
G1 F2400 E-7
;LAYER_COUNT:115
;LAYER:0
M107
G0 F6000 X72.1 Y83.8 Z0.2
;TYPE:SKIRT
G1 F2400 E0
G1 F1200 X72.485 Y83.8 E0.01152
G1 X72.485 Y136.2 E1.58007
G1 X72.1 Y136.2 E1.5916
G1 X72.1 Y83.8 E3.16015
G0 F6000 X71.7 Y83.4
G1 F1200 X72.885 Y83.4 E3.19562
G1 X72.885 Y136.6 E4.78811
G1 X71.7 Y136.6 E4.82358
G1 X71.7 Y83.4 E6.41608
G0 F6000 X71.3 Y83
G1 F1200 X73.285 Y83 E6.4755
G1 X73.285 Y137 E8.09194
G1 X71.3 Y137 E8.15136
G1 X71.3 Y83 E9.7678
G0 F6000 X70.9 Y82.6
G1 F1200 X73.685 Y82.6 E9.85117
G1 X73.685 Y137.4 E11.49156
G1 X70.9 Y137.4 E11.57493
G1 X70.9 Y82.6 E13.21532
G0 F6000 X70.5 Y82.2
G1 F1200 X74.085 Y82.2 E13.32263
G1 X74.085 Y137.8 E14.98697
G1 X70.5 Y137.8 E15.09428
G1 X70.5 Y82.2 E16.75862
G0 F6000 X70.1 Y81.8
G1 F1200 X74.485 Y81.8 E16.88988
G1 X74.485 Y138.2 E18.57816
G1 X70.1 Y138.2 E18.70942
G1 X70.1 Y81.8 E20.39771
G0 F6000 X69.7 Y81.4
G1 F1200 X74.885 Y81.4 E20.55292
G1 X74.885 Y138.6 E22.26515
G1 X69.7 Y138.6 E22.42036
G1 X69.7 Y81.4 E24.13259
G0 F6000 X69.3 Y81
G1 F1200 X75.285 Y81 E24.31175
G1 X75.285 Y139 E26.04792
G1 X69.3 Y139 E26.22708
G1 X69.3 Y81 E27.96326
G0 F6000 X68.9 Y80.6
G1 F1200 X75.685 Y80.6 E28.16636
G1 X75.685 Y139.4 E29.92649
G1 X68.9 Y139.4 E30.12959
G1 X68.9 Y80.6 E31.88972
G0 F6000 X68.5 Y80.2
G1 F1200 X76.085 Y80.2 E32.11677
G1 X76.085 Y139.8 E33.90084
G1 X68.5 Y139.8 E34.12789
G1 X68.5 Y80.2 E35.91197
G1 F2400 E28.91197
G0 F6000 X144.701 Y80.185
G1 F2400 E35.91197
G1 F1200 X148.5 Y76.384 E36.07283
G1 X148.5 Y143.614 E38.0853
G1 X144.7 Y139.814 E38.24617
G1 X144.701 Y80.185 E40.03111
G0 F6000 X145.1 Y80.352
G1 F1200 X148.1 Y77.35 E40.15815
G1 X148.1 Y142.648 E42.11279
G1 X145.1 Y139.648 E42.23979
G1 X145.1 Y80.352 E44.01476
G0 F6000 X145.5 Y80.518
G1 F1200 X147.7 Y78.317 E44.10792
G1 X147.7 Y141.682 E46.00469
G1 X145.5 Y139.482 E46.09783
G1 X145.5 Y80.518 E47.86286
G0 F6000 X145.9 Y80.684
G1 F1200 X147.3 Y79.283 E47.92215
G1 X147.3 Y140.716 E49.76109
G1 X145.9 Y139.316 E49.82036
G1 X145.9 Y80.684 E51.57546
G0 F6000 X146.3 Y80.849
G1 F1200 X146.9 Y80.248 E51.60088
G1 X146.9 Y139.75 E53.38202
G1 X146.3 Y139.15 E53.40742
G1 X146.3 Y80.849 E55.15261
G1 F2400 E48.15261
;MESH:Cover_B.stl
G0 F6000 X142.377 Y68.664
G0 X142.401 Y67.6
G0 X66.9 Y67.4
;TYPE:WALL-INNER
G1 F2400 E55.15261
G1 F1200 X66.9 Y152.6 E57.703
G1 X142.412 Y152.6 E59.96338
G1 X142.906 Y152.588 E59.97817
G1 X143.301 Y152.555 E59.99004
G1 X143.696 Y152.503 E60.00196
G1 X144.088 Y152.43 E60.0139
G1 X144.474 Y152.336 E60.02579
G1 X144.855 Y152.224 E60.03768
G1 X145.231 Y152.09 E60.04963
G1 X145.596 Y151.937 E60.06148
G1 X145.956 Y151.766 E60.07341
G1 X146.306 Y151.575 E60.08534
G1 X146.644 Y151.368 E60.09721
G1 X146.973 Y151.142 E60.10915
G1 X147.287 Y150.898 E60.12106
G1 X147.589 Y150.641 E60.13293
G1 X147.877 Y150.367 E60.14483
G1 X148.151 Y150.079 E60.15673
G1 X148.41 Y149.775 E60.16868
G1 X148.651 Y149.459 E60.18058
G1 X148.876 Y149.132 E60.19246
G1 X149.083 Y148.793 E60.20435
G1 X149.273 Y148.443 E60.21627
G1 X149.444 Y148.082 E60.22823
G1 X149.596 Y147.716 E60.24009
G1 X149.728 Y147.339 E60.25205
G1 X149.84 Y146.958 E60.26393
G1 X149.932 Y146.574 E60.27575
G1 X150.005 Y146.181 E60.28772
G1 X150.056 Y145.786 E60.29964
G1 X150.088 Y145.388 E60.31159
G1 X150.1 Y144.903 E60.32612
G1 X150.1 Y75.088 E62.41597
G1 X150.088 Y74.594 E62.43076
G1 X150.055 Y74.199 E62.44262
G1 X150.003 Y73.804 E62.45455
G1 X149.93 Y73.412 E62.46649
G1 X149.836 Y73.026 E62.47838
G1 X149.724 Y72.645 E62.49027
G1 X149.59 Y72.269 E62.50221
G1 X149.437 Y71.904 E62.51406
G1 X149.266 Y71.544 E62.52599
G1 X149.075 Y71.194 E62.53793
G1 X148.868 Y70.856 E62.54979
G1 X148.642 Y70.527 E62.56174
G1 X148.398 Y70.213 E62.57364
G1 X148.141 Y69.911 E62.58551
G1 X147.867 Y69.623 E62.59741
G1 X147.579 Y69.349 E62.60931
G1 X147.275 Y69.09 E62.62127
G1 X146.959 Y68.849 E62.63316
G1 X146.632 Y68.624 E62.64505
G1 X146.293 Y68.417 E62.65693
G1 X145.943 Y68.227 E62.66886
G1 X145.582 Y68.056 E62.68081
G1 X145.216 Y67.904 E62.69268
G1 X144.839 Y67.772 E62.70463
G1 X144.458 Y67.66 E62.71652
G1 X144.074 Y67.568 E62.72834
G1 X143.682 Y67.495 E62.74028
G1 X143.294 Y67.444 E62.75199
G1 X142.888 Y67.412 E62.76418
G1 X142.403 Y67.4 E62.7787
G1 X66.9 Y67.4 E65.03882
G0 F6000 X67.3 Y67.8
;TYPE:WALL-OUTER
G1 F1200 X67.3 Y152.2 E67.56526
G1 X142.407 Y152.2 E69.81352
G1 X142.884 Y152.188 E69.82781
G1 X143.259 Y152.157 E69.83907
G1 X143.633 Y152.108 E69.85036
G1 X144.004 Y152.039 E69.86166
G1 X144.37 Y151.95 E69.87293
G1 X144.731 Y151.843 E69.8842
G1 X145.087 Y151.717 E69.89551
G1 X145.433 Y151.572 E69.90674
G1 X145.774 Y151.41 E69.91804
G1 X146.105 Y151.229 E69.92933
G1 X146.426 Y151.032 E69.9406
G1 X146.737 Y150.819 E69.95189
G1 X147.035 Y150.588 E69.96317
G1 X147.321 Y150.344 E69.97443
G1 X147.594 Y150.084 E69.98571
G1 X147.854 Y149.811 E69.997
G1 X148.098 Y149.524 E70.00827
G1 X148.327 Y149.224 E70.01957
G1 X148.54 Y148.914 E70.03083
G1 X148.736 Y148.593 E70.04209
G1 X148.916 Y148.262 E70.05337
G1 X149.078 Y147.92 E70.0647
G1 X149.222 Y147.573 E70.07594
G1 X149.347 Y147.216 E70.08726
G1 X149.453 Y146.855 E70.09853
G1 X149.541 Y146.49 E70.10977
G1 X149.61 Y146.119 E70.12106
G1 X149.658 Y145.745 E70.13235
G1 X149.688 Y145.367 E70.1437
G1 X149.7 Y144.898 E70.15774
G1 X149.7 Y75.093 E72.24729
G1 X149.688 Y74.616 E72.26158
G1 X149.657 Y74.241 E72.27284
G1 X149.608 Y73.867 E72.28413
G1 X149.539 Y73.496 E72.29543
G1 X149.45 Y73.13 E72.3067
G1 X149.343 Y72.769 E72.31797
G1 X149.217 Y72.413 E72.32928
G1 X149.072 Y72.067 E72.34051
G1 X148.91 Y71.726 E72.35181
G1 X148.729 Y71.395 E72.3631
G1 X148.532 Y71.074 E72.37438
G1 X148.319 Y70.763 E72.38566
G1 X148.088 Y70.465 E72.39695
G1 X147.844 Y70.179 E72.4082
G1 X147.584 Y69.906 E72.41949
G1 X147.311 Y69.646 E72.43077
G1 X147.024 Y69.402 E72.44205
G1 X146.724 Y69.173 E72.45334
G1 X146.414 Y68.96 E72.4646
G1 X146.093 Y68.764 E72.47586
G1 X145.762 Y68.584 E72.48714
G1 X145.42 Y68.422 E72.49847
G1 X145.073 Y68.278 E72.50971
G1 X144.716 Y68.153 E72.52104
G1 X144.355 Y68.047 E72.5323
G1 X143.99 Y67.959 E72.54354
G1 X143.619 Y67.89 E72.55483
G1 X143.252 Y67.842 E72.56591
G1 X142.867 Y67.812 E72.57747
G1 X142.398 Y67.8 E72.59152
G1 X67.3 Y67.8 E74.83951
G1 F2400 E67.83951
G0 F6000 X67 Y67.8
G0 X67.072 Y152.428
G0 X142.435 Y152.43
G0 X142.386 Y151.336
G0 X142.637 Y160.661
G0 X142.597 Y159.187
G0 X142.484 Y159.4
;TYPE:WALL-INNER
G1 F2400 E74.83951
G1 F1200 X63.1 Y159.4 E77.2158
G1 X63.1 Y60.6 E80.17329
G1 X142.498 Y60.6 E82.55
G1 X143.27 Y60.622 E82.57312
G1 X144.029 Y60.682 E82.59591
G1 X144.759 Y60.779 E82.61795
G1 X145.506 Y60.917 E82.64069
G1 X146.246 Y61.096 E82.66348
G1 X146.959 Y61.308 E82.68575
G1 X147.674 Y61.562 E82.70846
G1 X148.369 Y61.852 E82.73101
G1 X149.043 Y62.173 E82.75335
G1 X149.719 Y62.542 E82.77641
G1 X150.356 Y62.932 E82.79876
G1 X150.963 Y63.35 E82.82083
G1 X151.578 Y63.823 E82.84405
G1 X152.15 Y64.313 E82.8666
G1 X152.689 Y64.824 E82.88883
G1 X153.214 Y65.38 E82.91172
G1 X153.689 Y65.937 E82.93363
G1 X154.167 Y66.561 E82.95716
G1 X154.575 Y67.155 E82.97873
G1 X154.979 Y67.818 E83.00197
G1 X155.33 Y68.462 E83.02393
G1 X155.658 Y69.152 E83.0468
G1 X155.95 Y69.858 E83.06967
G1 X156.194 Y70.55 E83.09163
G1 X156.416 Y71.303 E83.11513
G1 X156.589 Y72.025 E83.13736
G1 X156.723 Y72.756 E83.1596
G1 X156.823 Y73.514 E83.18249
G1 X156.879 Y74.246 E83.20447
G1 X156.9 Y75 E83.22704
G1 X156.9 Y144.998 E85.32237
G1 X156.879 Y145.763 E85.34528
G1 X156.819 Y146.526 E85.36819
G1 X156.722 Y147.253 E85.39015
G1 X156.583 Y148.004 E85.41301
G1 X156.404 Y148.746 E85.43586
G1 X156.192 Y149.459 E85.45812
G1 X155.938 Y150.174 E85.48084
G1 X155.652 Y150.861 E85.50311
G1 X155.331 Y151.536 E85.52549
G1 X154.958 Y152.219 E85.54878
G1 X154.568 Y152.856 E85.57114
G1 X154.15 Y153.463 E85.5932
G1 X153.677 Y154.078 E85.61643
G1 X153.189 Y154.648 E85.63889
G1 X152.676 Y155.189 E85.6612
G1 X152.12 Y155.714 E85.6841
G1 X151.563 Y156.189 E85.70601
G1 X150.943 Y156.664 E85.72939
G1 X150.34 Y157.078 E85.75128
G1 X149.682 Y157.479 E85.77435
G1 X149.027 Y157.835 E85.79666
G1 X148.348 Y158.158 E85.81917
G1 X147.641 Y158.45 E85.84207
G1 X146.95 Y158.694 E85.86401
G1 X146.201 Y158.915 E85.88738
G1 X145.477 Y159.088 E85.90966
G1 X144.744 Y159.223 E85.93198
G1 X143.984 Y159.323 E85.95492
G1 X143.245 Y159.379 E85.97711
G1 X142.484 Y159.4 E85.99989
G0 F6000 X142.495 Y159.8
;TYPE:WALL-OUTER
G1 F1200 X62.7 Y159.8 E88.38849
G1 X62.7 Y60.2 E91.36993
G1 X142.509 Y60.2 E93.75894
G1 X143.294 Y60.222 E93.78245
G1 X144.061 Y60.283 E93.80548
G1 X144.826 Y60.385 E93.82858
G1 X145.598 Y60.528 E93.85208
G1 X146.34 Y60.707 E93.87493
G1 X147.093 Y60.931 E93.89845
G1 X147.813 Y61.187 E93.92132
G1 X148.533 Y61.487 E93.94467
G1 X149.228 Y61.818 E93.96771
G1 X149.917 Y62.194 E93.99121
G1 X150.57 Y62.594 E94.01413
G1 X151.207 Y63.033 E94.03729
G1 X151.83 Y63.512 E94.06081
G1 X152.41 Y64.009 E94.08368
G1 X152.98 Y64.549 E94.10718
G1 X153.505 Y65.105 E94.13007
G1 X154.007 Y65.694 E94.15324
G1 X154.485 Y66.318 E94.17677
G1 X154.917 Y66.947 E94.19961
G1 X155.321 Y67.61 E94.22285
G1 X155.691 Y68.29 E94.24602
G1 X156.028 Y68.999 E94.26952
G1 X156.32 Y69.705 E94.29239
G1 X156.578 Y70.437 E94.31562
G1 X156.8 Y71.19 E94.33912
G1 X156.978 Y71.932 E94.36197
G1 X157.12 Y72.704 E94.38546
G1 X157.22 Y73.462 E94.40835
G1 X157.279 Y74.235 E94.43156
G1 X157.3 Y75 E94.45446
G1 X157.3 Y145.009 E96.55012
G1 X157.278 Y145.794 E96.57363
G1 X157.218 Y146.557 E96.59654
G1 X157.115 Y147.326 E96.61976
G1 X156.972 Y148.098 E96.64327
G1 X156.793 Y148.84 E96.66611
G1 X156.569 Y149.593 E96.68963
G1 X156.313 Y150.313 E96.71251
G1 X156.013 Y151.033 E96.73585
G1 X155.682 Y151.728 E96.7589
G1 X155.306 Y152.417 E96.78239
G1 X154.906 Y153.07 E96.80532
G1 X154.467 Y153.707 E96.82847
G1 X153.988 Y154.33 E96.852
G1 X153.491 Y154.91 E96.87486
G1 X152.951 Y155.48 E96.89837
G1 X152.395 Y156.005 E96.92126
G1 X151.806 Y156.507 E96.94442
G1 X151.182 Y156.985 E96.96795
G1 X150.553 Y157.417 E96.99079
G1 X149.89 Y157.821 E97.01403
G1 X149.204 Y158.194 E97.03741
G1 X148.501 Y158.528 E97.06071
G1 X147.795 Y158.82 E97.08358
G1 X147.063 Y159.078 E97.10681
G1 X146.31 Y159.3 E97.13031
G1 X145.568 Y159.478 E97.15315
G1 X144.796 Y159.62 E97.17665
G1 X144.03 Y159.721 E97.19977
G1 X143.265 Y159.779 E97.22274
G1 X142.495 Y159.8 E97.2458
G0 F6000 X142.49 Y159.361
G0 X142.473 Y159.01
;TYPE:SKIN
G1 F1200 X63.49 Y159.01 E99.61008
G1 X63.49 Y60.99 E102.54423
G1 X142.487 Y60.99 E104.90893
G1 X143.259 Y61.012 E104.93205
G1 X143.986 Y61.07 E104.95388
G1 X144.688 Y61.163 E104.97508
G1 X145.428 Y61.3 E104.99761
G1 X146.144 Y61.473 E105.01966
G1 X146.838 Y61.679 E105.04133
G1 X147.533 Y61.926 E105.06341
G1 X148.205 Y62.207 E105.08521
G1 X148.865 Y62.521 E105.10709
G1 X149.532 Y62.885 E105.12983
G1 X150.153 Y63.265 E105.15163
G1 X150.725 Y63.66 E105.17243
G1 X151.34 Y64.133 E105.19566
G1 X151.881 Y64.596 E105.21697
G1 X152.42 Y65.107 E105.23921
G1 X152.917 Y65.633 E105.26087
G1 X153.379 Y66.175 E105.28219
G1 X153.851 Y66.791 E105.30542
G1 X154.247 Y67.367 E105.32634
G1 X154.636 Y68.005 E105.34871
G1 X154.977 Y68.63 E105.37002
G1 X155.301 Y69.311 E105.3926
G1 X155.585 Y69.998 E105.41485
G1 X155.823 Y70.671 E105.43622
G1 X156.039 Y71.404 E105.45909
G1 X156.205 Y72.095 E105.48037
G1 X156.339 Y72.826 E105.50261
G1 X156.435 Y73.543 E105.52427
G1 X156.489 Y74.257 E105.5457
G1 X156.51 Y75 E105.56795
G1 X156.51 Y144.988 E107.66298
G1 X156.489 Y145.753 E107.68589
G1 X156.433 Y146.475 E107.70757
G1 X156.338 Y147.182 E107.72892
G1 X156.201 Y147.923 E107.75148
G1 X156.027 Y148.644 E107.77368
G1 X155.821 Y149.338 E107.79535
G1 X155.574 Y150.033 E107.81743
G1 X155.299 Y150.693 E107.83883
G1 X154.983 Y151.358 E107.86087
G1 X154.617 Y152.029 E107.88375
G1 X154.247 Y152.635 E107.905
G1 X153.84 Y153.225 E107.92646
G1 X153.367 Y153.84 E107.94968
G1 X152.906 Y154.379 E107.97091
G1 X152.393 Y154.92 E107.99323
G1 X151.867 Y155.417 E108.01489
G1 X151.325 Y155.879 E108.03621
G1 X150.713 Y156.348 E108.05929
G1 X150.128 Y156.75 E108.08054
G1 X149.495 Y157.136 E108.10273
G1 X148.853 Y157.485 E108.12461
G1 X148.18 Y157.805 E108.14691
G1 X147.502 Y158.085 E108.16887
G1 X146.827 Y158.324 E108.19031
G1 X146.107 Y158.536 E108.21277
G1 X145.393 Y158.706 E108.23474
G1 X144.674 Y158.839 E108.25663
G1 X143.939 Y158.937 E108.27883
G1 X143.234 Y158.989 E108.29999
G1 X142.473 Y159.01 E108.32278
G1 F2400 E101.32278
G0 F6000 X142.473 Y159.29
G0 X142.633 Y160.661
G0 X142.386 Y151.336
G0 X142.415 Y152.791
G1 F2400 E108.32278
G0 F6000 X142.416 Y152.99
G1 F1200 X142.927 Y152.978 E108.33808
G1 X143.342 Y152.943 E108.35055
G1 X143.757 Y152.889 E108.36307
G1 X144.17 Y152.812 E108.37565
G1 X144.575 Y152.713 E108.38813
G1 X144.976 Y152.595 E108.40064
G1 X145.372 Y152.454 E108.41322
G1 X145.756 Y152.293 E108.42569
G1 X146.133 Y152.113 E108.43819
G1 X146.501 Y151.913 E108.45073
G1 X146.856 Y151.696 E108.46319
G1 X147.203 Y151.457 E108.4758
G1 X147.533 Y151.2 E108.48832
G1 X147.85 Y150.931 E108.50076
G1 X148.152 Y150.642 E108.51328
G1 X148.441 Y150.34 E108.52579
G1 X148.714 Y150.02 E108.53838
G1 X148.967 Y149.687 E108.5509
G1 X149.203 Y149.344 E108.56336
G1 X149.421 Y148.988 E108.57586
G1 X149.62 Y148.62 E108.58838
G1 X149.801 Y148.24 E108.60098
G1 X149.961 Y147.855 E108.61346
G1 X150.099 Y147.458 E108.62604
G1 X150.217 Y147.059 E108.6385
G1 X150.314 Y146.656 E108.65091
G1 X150.391 Y146.241 E108.66354
G1 X150.444 Y145.827 E108.67603
G1 X150.478 Y145.408 E108.68862
G1 X150.49 Y144.907 E108.70362
G1 X150.49 Y75.084 E110.79371
G1 X150.478 Y74.573 E110.80901
G1 X150.443 Y74.158 E110.82148
G1 X150.389 Y73.743 E110.834
G1 X150.312 Y73.33 E110.84658
G1 X150.213 Y72.925 E110.85906
G1 X150.095 Y72.524 E110.87157
G1 X149.954 Y72.128 E110.88416
G1 X149.793 Y71.744 E110.89662
G1 X149.613 Y71.367 E110.90912
G1 X149.413 Y70.999 E110.92166
G1 X149.196 Y70.644 E110.93412
G1 X148.957 Y70.297 E110.94673
G1 X148.7 Y69.967 E110.95925
G1 X148.431 Y69.65 E110.9717
G1 X148.142 Y69.348 E110.98421
G1 X147.84 Y69.059 E110.99672
G1 X147.52 Y68.786 E111.00931
G1 X147.187 Y68.533 E111.02183
G1 X146.844 Y68.297 E111.03429
G1 X146.488 Y68.079 E111.04679
G1 X146.12 Y67.88 E111.05931
G1 X145.74 Y67.699 E111.07191
G1 X145.355 Y67.539 E111.08439
G1 X144.958 Y67.401 E111.09697
G1 X144.559 Y67.283 E111.10943
G1 X144.156 Y67.186 E111.12184
G1 X143.743 Y67.109 E111.13441
G1 X143.335 Y67.056 E111.14673
G1 X142.908 Y67.022 E111.15955
G1 X142.407 Y67.01 E111.17455
G1 X66.51 Y67.01 E113.44646
G1 X66.51 Y152.99 E116.0202
G1 X142.416 Y152.99 E118.29238
G1 F2400 E111.29238
G0 F6000 X142.415 Y152.709
G0 X101.812 Y152.77
G0 X101.812 Y151.335
G0 X61.835 Y152.79
G0 X63.31 Y152.79
G0 X63.854 Y159.29
G1 F2400 E118.29238
G0 F6000 X63.854 Y158.889
G1 F1200 X63.609 Y158.644 E118.30275
G0 F6000 X63.609 Y158.078
G1 F1200 X64.42 Y158.889 E118.33708
G0 F6000 X64.985 Y158.889
G1 F1200 X63.609 Y157.512 E118.39535
G0 F6000 X63.609 Y156.947
G1 F1200 X65.551 Y158.889 E118.47756
G0 F6000 X66.117 Y158.889
G1 F1200 X63.609 Y156.381 E118.58374
G0 F6000 X63.609 Y155.815
G1 F1200 X66.682 Y158.889 E118.71385
G0 F6000 X67.248 Y158.889
G1 F1200 X63.609 Y155.25 E118.8679
G0 F6000 X63.609 Y154.684
G1 F1200 X67.814 Y158.889 E119.04591
G0 F6000 X68.38 Y158.889
G1 F1200 X63.609 Y154.118 E119.24788
G0 F6000 X63.609 Y153.553
G1 F1200 X68.945 Y158.889 E119.47377
G0 F6000 X69.511 Y158.889
G1 F1200 X63.609 Y152.987 E119.72362
G0 F6000 X63.609 Y152.421
G1 F1200 X70.077 Y158.889 E119.99743
G0 F6000 X70.642 Y158.889
G1 F1200 X63.609 Y151.856 E120.29516
G0 F6000 X63.609 Y151.29
