;FLAVOR:Marlin
;TIME:1378
;Filament used: 1.14031m
;Layer height: 0.2
;MINX:91.917
;MINY:99.337
;MINZ:0.2
;MAXX:127.238
;MAXY:120.663
;MAXZ:13
;Generated with Cura_SteamEngine 4.13.1
M140 S60
M105
M190 S60
M104 S195
M105
M109 S195
M82 ;absolute extrusion mode
G28 ;Home
G92 E0 ;Reset Extruder
G1 Z2.0 F3000 ;Move bed down
G1 X10.1 Y20 Z0.28 F5000.0 ;Move to start position
G1 X10.1 Y200.0 Z0.28 F1500.0 E15 ;Draw the first line
G1 X10.4 Y200.0 Z0.28 F5000.0 ;Move to side a little
G1 X10.4 Y20 Z0.28 F1500.0 E30 ;Draw the second line
G92 E0 ;Reset Extruder
G1 Z2.0 F3000 ;Move Bed up
G92 E0
G92 E0
G1 F2400 E-7
;LAYER_COUNT:65
;LAYER:0
M107
G0 F6000 X101.031 Y108.463 Z0.2
;TYPE:SKIRT
G1 F2400 E0
G1 F1200 X101.361 Y108.192 E0.01278
G1 X101.731 Y107.993 E0.02536
G1 X102.139 Y107.87 E0.03811
G1 X102.566 Y107.828 E0.05096
G1 X102.991 Y107.87 E0.06374
G1 X103.404 Y107.995 E0.07666
G1 X103.769 Y108.19 E0.08905
G1 X104.103 Y108.465 E0.102
G1 X104.377 Y108.798 E0.11491
G1 X104.571 Y109.16 E0.1272
G1 X104.696 Y109.575 E0.14017
G1 X104.738 Y110 E0.15296
G1 X104.696 Y110.423 E0.16568
G1 X104.572 Y110.835 E0.17856
G1 X104.373 Y111.207 E0.19119
G1 X104.104 Y111.535 E0.20389
G1 X103.769 Y111.81 E0.21686
G1 X103.404 Y112.005 E0.22925
G1 X102.991 Y112.13 E0.24217
G1 X102.566 Y112.172 E0.25495
G1 X102.139 Y112.13 E0.26779
G1 X101.731 Y112.007 E0.28055
G1 X101.361 Y111.808 E0.29313
G1 X101.031 Y111.537 E0.30591
G1 X100.76 Y111.208 E0.31867
G1 X100.22 Y110.194 E0.35306
G1 X100.098 Y109.996 E0.36002
G1 X100.22 Y109.806 E0.36678
G1 X100.76 Y108.792 E0.40117
G1 X101.031 Y108.463 E0.41392
G0 F6000 X100.746 Y108.179
G1 F1200 X101.139 Y107.856 E0.42915
G1 X101.576 Y107.622 E0.44399
G1 X102.06 Y107.476 E0.45912
G1 X102.566 Y107.426 E0.47434
G1 X103.07 Y107.476 E0.48951
G1 X103.554 Y107.622 E0.50464
G1 X103.991 Y107.856 E0.51948
G1 X104.39 Y108.183 E0.53492
G1 X104.709 Y108.573 E0.55
G1 X104.943 Y109.009 E0.56481
G1 X105.09 Y109.496 E0.58004
G1 X105.14 Y110 E0.5952
G1 X105.09 Y110.501 E0.61027
G1 X104.944 Y110.984 E0.62538
G1 X104.704 Y111.434 E0.64064
G1 X104.39 Y111.817 E0.65547
G1 X103.991 Y112.144 E0.67091
G1 X103.554 Y112.378 E0.68575
G1 X103.07 Y112.524 E0.70088
G1 X102.566 Y112.574 E0.71604
G1 X102.06 Y112.524 E0.73126
G1 X101.576 Y112.378 E0.7464
G1 X101.139 Y112.144 E0.76124
G1 X100.746 Y111.821 E0.77646
G1 X100.427 Y111.432 E0.79152
G1 X99.867 Y110.382 E0.82714
G1 X99.628 Y109.997 E0.84071
G1 X99.867 Y109.618 E0.85412
G1 X100.427 Y108.568 E0.88974
G1 X100.746 Y108.179 E0.9048
G0 F6000 X100.462 Y107.895
G1 F1200 X100.917 Y107.521 E0.92243
G1 X101.42 Y107.252 E0.93951
G1 X101.982 Y107.082 E0.95708
G1 X102.566 Y107.024 E0.97465
G1 X103.15 Y107.082 E0.99222
G1 X103.709 Y107.251 E1.0097
G1 X104.213 Y107.521 E1.02681
G1 X104.677 Y107.901 E1.04477
G1 X105.042 Y108.346 E1.062
G1 X105.315 Y108.857 E1.07934
G1 X105.484 Y109.416 E1.09682
G1 X105.542 Y110 E1.11439
G1 X105.484 Y110.581 E1.13187
G1 X105.316 Y111.139 E1.14931
G1 X105.039 Y111.656 E1.16687
G1 X104.675 Y112.101 E1.18408
G1 X104.213 Y112.479 E1.20194
G1 X103.709 Y112.749 E1.21906
G1 X103.15 Y112.918 E1.23654
G1 X102.566 Y112.976 E1.25411
G1 X101.982 Y112.918 E1.27168
G1 X101.42 Y112.748 E1.28925
G1 X100.917 Y112.479 E1.30633
G1 X100.462 Y112.105 E1.32396
G1 X100.092 Y111.655 E1.3414
G1 X99.514 Y110.57 E1.3782
G1 X99.207 Y110.079 E1.39553
G1 X99.14 Y109.999 E1.39865
G1 X99.235 Y109.882 E1.40316
G1 X99.514 Y109.43 E1.41907
G1 X100.092 Y108.345 E1.45586
G1 X100.462 Y107.895 E1.4733
G0 F6000 X100.178 Y107.61
G1 F1200 X100.691 Y107.189 E1.49317
G1 X101.269 Y106.879 E1.5128
G1 X101.902 Y106.688 E1.53259
G1 X102.566 Y106.623 E1.55257
G1 X103.228 Y106.688 E1.57248
G1 X103.866 Y106.881 E1.59243
G1 X104.435 Y107.185 E1.61174
G1 X104.958 Y107.614 E1.63199
G1 X105.379 Y108.127 E1.65186
G1 X105.685 Y108.7 E1.6713
G1 X105.878 Y109.338 E1.69125
G1 X105.943 Y110 E1.71116
G1 X105.878 Y110.661 E1.73105
G1 X105.688 Y111.291 E1.75074
G1 X105.374 Y111.879 E1.7707
G1 X104.958 Y112.386 E1.79033
G1 X104.435 Y112.815 E1.81058
G1 X103.866 Y113.119 E1.82989
G1 X103.228 Y113.312 E1.84984
G1 X102.566 Y113.377 E1.86975
G1 X101.902 Y113.312 E1.88972
G1 X101.269 Y113.121 E1.90952
G1 X100.691 Y112.811 E1.92915
G1 X100.178 Y112.39 E1.94901
G1 X99.758 Y111.878 E1.96884
G1 X99.161 Y110.758 E2.00683
G1 X98.868 Y110.292 E2.02331
G1 X98.623 Y110.006 E2.03458
G1 X98.955 Y109.584 E2.05065
G1 X99.161 Y109.242 E2.0626
G1 X99.758 Y108.122 E2.1006
G1 X100.178 Y107.61 E2.12042
G0 F6000 X99.894 Y107.326
G1 F1200 X100.47 Y106.853 E2.14273
G1 X101.114 Y106.508 E2.1646
G1 X101.823 Y106.294 E2.18677
G1 X102.566 Y106.221 E2.20912
G1 X103.308 Y106.294 E2.23143
G1 X104.014 Y106.507 E2.25351
G1 X104.662 Y106.854 E2.27551
G1 X105.242 Y107.33 E2.29797
G1 X105.711 Y107.902 E2.32011
G1 X106.058 Y108.55 E2.34212
G1 X106.272 Y109.258 E2.36426
G1 X106.345 Y110 E2.38658
G1 X106.272 Y110.74 E2.40884
G1 X106.059 Y111.444 E2.43085
G1 X105.709 Y112.1 E2.45311
G1 X105.24 Y112.672 E2.47525
G1 X104.662 Y113.146 E2.49763
G1 X104.014 Y113.493 E2.51963
G1 X103.308 Y113.706 E2.5417
G1 X102.566 Y113.779 E2.56402
G1 X101.823 Y113.706 E2.58637
G1 X101.114 Y113.492 E2.60854
G1 X100.47 Y113.147 E2.63041
G1 X99.894 Y112.674 E2.65272
G1 X99.423 Y112.1 E2.67495
G1 X98.808 Y110.947 E2.71406
G1 X98.529 Y110.507 E2.72966
G1 X98.185 Y110.115 E2.74527
G1 X98.05 Y110.002 E2.75054
G1 X98.356 Y109.705 E2.76331
G1 X98.67 Y109.289 E2.77891
G1 X98.808 Y109.053 E2.78709
G1 X99.423 Y107.9 E2.82621
G1 X99.894 Y107.326 E2.84843
G0 F6000 X99.609 Y107.042
G1 F1200 X100.244 Y106.521 E2.87302
G1 X100.959 Y106.138 E2.8973
G1 X101.748 Y105.899 E2.92198
G1 X102.566 Y105.819 E2.94658
G1 X103.387 Y105.899 E2.97127
G1 X104.169 Y106.136 E2.99573
G1 X104.884 Y106.519 E3.02001
G1 X105.526 Y107.046 E3.04488
G1 X106.045 Y107.678 E3.06936
G1 X106.43 Y108.397 E3.09377
G1 X106.667 Y109.179 E3.11823
G1 X106.747 Y109.999 E3.14289
G1 X106.666 Y110.82 E3.16759
G1 X106.431 Y111.599 E3.19195
G1 X106.043 Y112.325 E3.21659
G1 X105.527 Y112.954 E3.24094
G1 X104.884 Y113.481 E3.26583
G1 X104.169 Y113.864 E3.29011
G1 X103.387 Y114.101 E3.31457
G1 X102.566 Y114.181 E3.33926
G1 X101.748 Y114.101 E3.36386
G1 X100.959 Y113.862 E3.38854
G1 X100.244 Y113.479 E3.41282
G1 X99.609 Y112.958 E3.43741
G1 X99.089 Y112.324 E3.46195
G1 X98.455 Y111.135 E3.50229
G1 X98.191 Y110.723 E3.51694
G1 X97.862 Y110.36 E3.5316
G1 X97.386 Y110.001 E3.54945
G1 X97.749 Y109.741 E3.56281
G1 X98.095 Y109.395 E3.57746
G1 X98.455 Y108.865 E3.59664
G1 X99.089 Y107.676 E3.63697
G1 X99.609 Y107.042 E3.66152
G0 F6000 X99.324 Y106.758
G1 F1200 X100.021 Y106.187 E3.68849
G1 X100.806 Y105.766 E3.71516
G1 X101.669 Y105.505 E3.74214
G1 X102.566 Y105.417 E3.76912
G1 X103.462 Y105.505 E3.79607
G1 X104.328 Y105.767 E3.82316
G1 X105.106 Y106.184 E3.84958
G1 X105.811 Y106.761 E3.87685
G1 X106.38 Y107.456 E3.90374
G1 X106.799 Y108.238 E3.9303
G1 X107.061 Y109.104 E3.95738
G1 X107.149 Y109.999 E3.9843
G1 X107.061 Y110.895 E4.01125
G1 X106.8 Y111.756 E4.03818
G1 X106.377 Y112.549 E4.06508
G1 X105.811 Y113.238 E4.09178
G1 X105.106 Y113.816 E4.11907
G1 X104.328 Y114.233 E4.14549
G1 X103.462 Y114.495 E4.17257
G1 X102.566 Y114.583 E4.19952
G1 X101.669 Y114.495 E4.2265
G1 X100.806 Y114.234 E4.25349
G1 X100.021 Y113.813 E4.28015
G1 X99.324 Y113.242 E4.30713
G1 X98.755 Y112.547 E4.33401
G1 X98.102 Y111.323 E4.37554
G1 X97.854 Y110.941 E4.38917
G1 X97.542 Y110.609 E4.40281
G1 X97.146 Y110.317 E4.41754
G1 X96.671 Y110.032 E4.43412
G1 X96.605 Y110 E4.43632
G1 X96.671 Y109.968 E4.43851
G1 X97.146 Y109.683 E4.45509
G1 X97.514 Y109.416 E4.4687
G1 X97.831 Y109.088 E4.48236
G1 X98.102 Y108.677 E4.4971
G1 X98.755 Y107.453 E4.53862
G1 X99.324 Y106.758 E4.56551
G0 F6000 X99.038 Y106.476
G1 F1200 X99.802 Y105.85 E4.59508
G1 X100.65 Y105.395 E4.62388
G1 X101.596 Y105.11 E4.65346
G1 X102.566 Y105.014 E4.68264
G1 X103.536 Y105.109 E4.71181
G1 X104.479 Y105.395 E4.74131
G1 X105.331 Y105.851 E4.77024
G1 X106.095 Y106.477 E4.7998
G1 X106.713 Y107.231 E4.82899
G1 X107.171 Y108.087 E4.85805
G1 X107.457 Y109.03 E4.88754
G1 X107.552 Y110 E4.91672
G1 X107.457 Y110.969 E4.94586
G1 X107.173 Y111.906 E4.97517
G1 X106.71 Y112.774 E5.00462
G1 X106.095 Y113.523 E5.03363
G1 X105.331 Y114.149 E5.0632
G1 X104.479 Y114.605 E5.09212
G1 X103.536 Y114.891 E5.12162
G1 X102.566 Y114.986 E5.1508
G1 X101.596 Y114.89 E5.17997
G1 X100.65 Y114.605 E5.20955
G1 X99.802 Y114.15 E5.23836
G1 X99.038 Y113.524 E5.26792
G1 X98.42 Y112.77 E5.29711
G1 X97.749 Y111.511 E5.33981
G1 X97.518 Y111.162 E5.35234
G1 X97.224 Y110.863 E5.36489
G1 X96.94 Y110.66 E5.37534
G1 X96.465 Y110.375 E5.39192
G1 X96.087 Y110.194 E5.40447
G1 X95.792 Y110.118 E5.41359
G1 X95.448 Y109.928 E5.42535
G1 X95.75 Y109.899 E5.43443
G1 X96.152 Y109.781 E5.44697
G1 X96.465 Y109.625 E5.45744
G1 X96.94 Y109.34 E5.47402
G1 X97.277 Y109.092 E5.48655
G1 X97.561 Y108.783 E5.49911
G1 X97.749 Y108.489 E5.50956
G1 X98.42 Y107.23 E5.55226
G1 X99.038 Y106.476 E5.58145
G0 F6000 X98.759 Y106.187
G1 F1200 X99.573 Y105.519 E5.61297
G1 X100.499 Y105.023 E5.64441
G1 X101.516 Y104.716 E5.67621
G1 X102.566 Y104.612 E5.7078
G1 X103.616 Y104.715 E5.73938
G1 X104.634 Y105.024 E5.77122
G1 X105.553 Y105.515 E5.80241
G1 X106.379 Y106.193 E5.8344
G1 X107.049 Y107.009 E5.86601
G1 X107.542 Y107.932 E5.89733
G1 X107.851 Y108.95 E5.92918
G1 X107.954 Y110 E5.96076
G1 X107.851 Y111.049 E5.99231
G1 X107.545 Y112.059 E6.0239
G1 X107.045 Y112.994 E6.05564
G1 X106.377 Y113.809 E6.08718
G1 X105.553 Y114.485 E6.11909
G1 X104.634 Y114.976 E6.15028
G1 X103.616 Y115.285 E6.18212
G1 X102.566 Y115.388 E6.2137
G1 X101.516 Y115.284 E6.24529
G1 X100.499 Y114.977 E6.27709
G1 X99.573 Y114.481 E6.30853
G1 X98.759 Y113.813 E6.34005
G1 X98.085 Y112.991 E6.37187
G1 X97.396 Y111.699 E6.41571
G1 X97.184 Y111.386 E6.42702
G1 X96.911 Y111.123 E6.43837
G1 X96.734 Y111.003 E6.44477
G1 X96.259 Y110.718 E6.46135
G1 X95.915 Y110.558 E6.47271
G1 X95.652 Y110.498 E6.48078
G1 X95.34 Y110.307 E6.49173
G1 X94.983 Y110.181 E6.50307
G1 X94.729 Y110.139 E6.51077
G1 X94.394 Y110.109 E6.52084
G1 X94.383 Y109.995 E6.52427
G1 X94.429 Y109.539 E6.53799
G1 X95.333 Y109.539 E6.56505
G1 X95.71 Y109.499 E6.5764
G1 X96.07 Y109.381 E6.58774
G1 X96.259 Y109.282 E6.59412
G1 X96.734 Y108.997 E6.61071
G1 X97.037 Y108.769 E6.62206
G1 X97.285 Y108.483 E6.63339
G1 X97.396 Y108.301 E6.63977
G1 X98.085 Y107.009 E6.6836
G1 X98.759 Y106.187 E6.71542
G0 F6000 X98.472 Y105.905
G1 F1200 X99.351 Y105.184 E6.74945
G1 X100.344 Y104.652 E6.78317
G1 X101.436 Y104.321 E6.81733
G1 X102.566 Y104.21 E6.85132
G1 X103.695 Y104.321 E6.88528
G1 X104.787 Y104.652 E6.91943
G1 X105.774 Y105.18 E6.95294
G1 X106.666 Y105.912 E6.98748
G1 X107.382 Y106.785 E7.02128
G1 X107.914 Y107.779 E7.05503
G1 X108.245 Y108.871 E7.08918
G1 X108.356 Y110 E7.12314
G1 X108.245 Y111.127 E7.15704
G1 X107.915 Y112.215 E7.19108
G1 X107.379 Y113.219 E7.22514
G1 X106.666 Y114.088 E7.25879
G1 X105.774 Y114.82 E7.29333
G1 X104.787 Y115.348 E7.32684
G1 X103.695 Y115.679 E7.361
G1 X102.566 Y115.79 E7.39496
G1 X101.436 Y115.679 E7.42894
G1 X100.344 Y115.348 E7.4631
G1 X99.351 Y114.816 E7.49682
G1 X98.472 Y114.095 E7.53085
G1 X97.752 Y113.218 E7.56482
G1 X97.043 Y111.887 E7.60996
G1 X96.852 Y111.613 E7.61996
G1 X96.528 Y111.346 E7.63253
G1 X96.053 Y111.061 E7.64911
G1 X95.748 Y110.924 E7.65912
G1 X95.478 Y110.883 E7.66729
G1 X95.355 Y110.776 E7.67217
G1 X95.059 Y110.622 E7.68216
G1 X94.692 Y110.538 E7.69343
G1 X94.295 Y110.502 E7.70536
G1 X94.032 Y110.509 E7.71324
G1 X93.981 Y109.995 E7.7287
G1 X94.067 Y109.139 E7.75445
G1 X95.333 Y109.139 E7.79235
G1 X95.665 Y109.099 E7.80236
G1 X96.053 Y108.939 E7.81492
G1 X96.528 Y108.654 E7.8315
G1 X96.792 Y108.45 E7.84149
G1 X97.043 Y108.113 E7.85407
G1 X97.752 Y106.782 E7.89921
G1 X98.472 Y105.905 E7.93318
G0 F6000 X98.187 Y105.621
G1 F1200 X99.126 Y104.851 E7.96953
G1 X100.194 Y104.279 E8.00579
G1 X101.357 Y103.927 E8.04217
G1 X102.566 Y103.809 E8.07853
G1 X103.774 Y103.927 E8.11486
G1 X104.939 Y104.28 E8.1513
G1 X106.002 Y104.849 E8.18739
G1 X106.948 Y105.624 E8.224
G1 X107.715 Y106.56 E8.26022
G1 X108.286 Y107.627 E8.29645
G1 X108.639 Y108.792 E8.33289
G1 X108.757 Y110 E8.36922
G1 X108.639 Y111.207 E8.40552
G1 X108.287 Y112.367 E8.44181
G1 X107.713 Y113.443 E8.47832
G1 X106.948 Y114.376 E8.51443
G1 X106.002 Y115.151 E8.55104
G1 X104.939 Y115.72 E8.58713
G1 X103.774 Y116.073 E8.62357
G1 X102.566 Y116.191 E8.6599
G1 X101.357 Y116.073 E8.69627
G1 X100.194 Y115.721 E8.73264
G1 X99.126 Y115.149 E8.7689
G1 X98.187 Y114.379 E8.80526
G1 X97.417 Y113.439 E8.84163
G1 X96.69 Y112.076 E8.88787
G1 X96.524 Y111.848 E8.89631
G1 X96.322 Y111.689 E8.90401
G1 X95.847 Y111.404 E8.92059
G1 X95.588 Y111.294 E8.92901
G1 X95.333 Y111.261 E8.93671
G1 X95.279 Y111.231 E8.93856
G1 X95.055 Y111.06 E8.94699
G1 X94.656 Y110.936 E8.9595
G1 X94.259 Y110.9 E8.97143
G1 X93.978 Y110.914 E8.97986
G1 X93.711 Y111.007 E8.98832
G1 X93.683 Y111.03 E8.9894
G1 X93.579 Y109.995 E9.02054
G1 X93.705 Y108.739 E9.05833
G1 X95.333 Y108.739 E9.10706
G1 X95.612 Y108.699 E9.1155
G1 X95.847 Y108.596 E9.12318
G1 X96.322 Y108.311 E9.13976
G1 X96.542 Y108.134 E9.14821
G1 X96.69 Y107.924 E9.1559
G1 X97.417 Y106.561 E9.20214
G1 X98.187 Y105.621 E9.23852
G0 F6000 X97.904 Y105.338
G1 F1200 X98.907 Y104.514 E9.27737
G1 X100.037 Y103.909 E9.31574
G1 X101.279 Y103.533 E9.35459
G1 X102.566 Y103.407 E9.3933
G1 X103.853 Y103.533 E9.432
G1 X105.094 Y103.909 E9.47082
G1 X106.224 Y104.514 E9.50919
G1 X107.232 Y105.34 E9.5482
G1 X108.05 Y106.338 E9.58683
G1 X108.657 Y107.472 E9.62533
G1 X109.033 Y108.713 E9.66414
G1 X109.159 Y110 E9.70285
G1 X109.033 Y111.286 E9.74153
G1 X108.659 Y112.52 E9.78013
G1 X108.049 Y113.663 E9.81891
G1 X107.229 Y114.662 E9.8576
G1 X106.224 Y115.486 E9.89651
G1 X105.094 Y116.091 E9.93487
G1 X103.853 Y116.467 E9.97369
G1 X102.566 Y116.593 E10.0124
G1 X101.279 Y116.467 E10.05111
G1 X100.037 Y116.091 E10.08995
G1 X98.907 Y115.486 E10.12832
G1 X97.904 Y114.662 E10.16718
G1 X97.081 Y113.66 E10.20599
G1 X96.337 Y112.264 E10.25334
G1 X96.117 Y112.032 E10.26292
G1 X95.642 Y111.747 E10.2795
G1 X95.333 Y111.661 E10.2891
G1 X95.094 Y111.648 E10.29626
G1 X94.958 Y111.478 E10.30278
G1 X94.769 Y111.368 E10.30933
G1 X94.62 Y111.334 E10.3139
G1 X94.223 Y111.298 E10.32583
G1 X94.006 Y111.319 E10.33236
G1 X93.81 Y111.415 E10.33889
G1 X93.588 Y111.661 E10.34881
G1 X93.344 Y111.661 E10.35612
G1 X93.177 Y109.995 E10.40624
G1 X93.343 Y108.339 E10.45605
G1 X95.333 Y108.339 E10.51562
G1 X95.642 Y108.253 E10.52522
G1 X96.117 Y107.968 E10.54181
G1 X96.337 Y107.736 E10.55138
G1 X97.081 Y106.34 E10.59873
G1 X97.904 Y105.338 E10.63754
G0 F6000 X97.619 Y105.053
G1 F1200 X98.685 Y104.179 E10.67881
G1 X99.882 Y103.537 E10.71947
G1 X101.199 Y103.139 E10.76065
G1 X102.566 Y103.005 E10.80177
G1 X103.933 Y103.139 E10.84288
G1 X105.249 Y103.537 E10.88404
G1 X106.443 Y104.177 E10.92459
G1 X107.516 Y105.056 E10.96611
G1 X108.387 Y106.119 E11.00725
G1 X109.029 Y107.317 E11.04794
G1 X109.427 Y108.633 E11.08909
G1 X109.561 Y109.998 E11.13015
G1 X109.427 Y111.366 E11.17129
G1 X109.031 Y112.675 E11.21223
G1 X108.384 Y113.885 E11.2533
G1 X107.516 Y114.944 E11.29429
G1 X106.443 Y115.823 E11.33581
G1 X105.249 Y116.463 E11.37636
G1 X103.933 Y116.861 E11.41752
G1 X102.566 Y116.995 E11.45864
G1 X101.199 Y116.861 E11.49975
G1 X99.882 Y116.463 E11.54094
G1 X98.685 Y115.821 E11.5816
G1 X97.619 Y114.947 E11.62286
G1 X96.747 Y113.883 E11.66404
G1 X95.984 Y112.452 E11.71258
G1 X95.911 Y112.375 E11.71576
G1 X95.436 Y112.09 E11.73234
G1 X95.333 Y112.061 E11.73554
G1 X94.863 Y112.061 E11.74961
G1 X94.742 Y111.837 E11.75723
G1 X94.584 Y111.733 E11.7629
G1 X94.187 Y111.697 E11.77483
G1 X94.013 Y111.771 E11.78049
G1 X93.779 Y112.061 E11.79164
G1 X93.017 Y112.061 E11.81445
G1 X92.965 Y111.886 E11.81992
G1 X92.776 Y110.008 E11.87642
G1 X92.776 Y109.98 E11.87726
G1 X92.969 Y108.064 E11.9349
G1 X93.009 Y107.939 E11.93883
G1 X95.333 Y107.939 E12.0084
G1 X95.436 Y107.91 E12.0116
G1 X95.911 Y107.625 E12.02818
G1 X95.984 Y107.548 E12.03136
G1 X96.747 Y106.117 E12.0799
G1 X97.619 Y105.053 E12.12108
G1 F2400 E5.12108
