;FLAVOR:Marlin
;TIME:6517
;Filament used: 6.89651m
;Layer height: 0.2
;MINX:89.335
;MINY:60.2
;MINZ:0.2
;MAXX:130.665
;MAXY:159.8
;MAXZ:23
;Generated with Cura_SteamEngine 4.13.1
M140 S60
M105
M190 S60
M104 S195
M105
M109 S195
M82 ;absolute extrusion mode
G28 ;Home
G92 E0 ;Reset Extruder
G1 Z2.0 F3000 ;Move bed down
G1 X10.1 Y20 Z0.28 F5000.0 ;Move to start position
G1 X10.1 Y200.0 Z0.28 F1500.0 E15 ;Draw the first line
G1 X10.4 Y200.0 Z0.28 F5000.0 ;Move to side a little
G1 X10.4 Y20 Z0.28 F1500.0 E30 ;Draw the second line
G92 E0 ;Reset Extruder
G1 Z2.0 F3000 ;Move Bed up
G92 E0
G92 E0
G1 F2400 E-7
;LAYER_COUNT:115
;LAYER:0
M107
;MESH:CoverExtender.stl
G0 F6000 X129.4 Y159.4 Z0.2
;TYPE:WALL-INNER
G1 F2400 E0
G1 F1200 X90.6 Y159.4 E1.16144
G1 X90.6 Y60.6 E4.11894
G1 X129.4 Y60.6 E5.28038
G1 X129.4 Y159.4 E8.23787
G0 F6000 X129.8 Y159.8
;TYPE:WALL-OUTER
G1 F1200 X90.2 Y159.8 E9.42326
G1 X90.2 Y60.2 E12.4047
G1 X129.8 Y60.2 E13.59009
G1 X129.8 Y159.8 E16.57153
G0 F6000 X129.53 Y159.53
G0 X129.29 Y159.01
G0 X129.01 Y159.01
;TYPE:SKIN
G1 F1200 X90.99 Y159.01 E17.70962
G1 X90.99 Y60.99 E20.64377
G1 X129.01 Y60.99 E21.78186
G1 X129.01 Y159.01 E24.71601
G1 F2400 E17.71601
G0 F6000 X129.29 Y159.01
G0 X91.572 Y159.29
G1 F2400 E24.71601
G0 F6000 X91.572 Y158.889
G1 F1200 X91.109 Y158.425 E24.73563
G0 F6000 X91.109 Y157.86
G1 F1200 X92.138 Y158.889 E24.77919
G0 F6000 X92.703 Y158.889
G1 F1200 X91.109 Y157.294 E24.84669
G0 F6000 X91.109 Y156.728
G1 F1200 X93.269 Y158.889 E24.93815
G0 F6000 X93.835 Y158.889
G1 F1200 X91.109 Y156.163 E25.05355
G0 F6000 X91.109 Y155.597
G1 F1200 X94.4 Y158.889 E25.19289
G0 F6000 X94.966 Y158.889
G1 F1200 X91.109 Y155.031 E25.35619
G0 F6000 X91.109 Y154.466
G1 F1200 X95.532 Y158.889 E25.54343
G0 F6000 X96.097 Y158.889
G1 F1200 X91.109 Y153.9 E25.75461
G0 F6000 X91.109 Y153.334
G1 F1200 X96.663 Y158.889 E25.98975
G0 F6000 X97.229 Y158.889
G1 F1200 X91.109 Y152.769 E26.24883
G0 F6000 X91.109 Y152.203
G1 F1200 X97.794 Y158.889 E26.53185
G0 F6000 X98.36 Y158.889
G1 F1200 X91.109 Y151.637 E26.83883
G0 F6000 X91.109 Y151.071
G1 F1200 X98.926 Y158.889 E27.16977
G0 F6000 X99.492 Y158.889
G1 F1200 X91.109 Y150.506 E27.52465
G0 F6000 X91.109 Y149.94
G1 F1200 X100.057 Y158.889 E27.90347
G0 F6000 X100.623 Y158.889
G1 F1200 X91.109 Y149.374 E28.30625
G0 F6000 X91.109 Y148.809
G1 F1200 X101.189 Y158.889 E28.73296
G0 F6000 X101.754 Y158.889
G1 F1200 X91.109 Y148.243 E29.18362
G0 F6000 X91.109 Y147.677
G1 F1200 X102.32 Y158.889 E29.65824
G0 F6000 X102.886 Y158.889
G1 F1200 X91.109 Y147.112 E30.1568
G0 F6000 X91.109 Y146.546
G1 F1200 X103.451 Y158.889 E30.6793
G0 F6000 X104.017 Y158.889
G1 F1200 X91.109 Y145.98 E31.22576
G0 F6000 X91.109 Y145.415
G1 F1200 X104.583 Y158.889 E31.79616
G0 F6000 X105.148 Y158.889
G1 F1200 X91.109 Y144.849 E32.39049
G0 F6000 X91.109 Y144.283
G1 F1200 X105.714 Y158.889 E33.00879
G0 F6000 X106.28 Y158.889
G1 F1200 X91.109 Y143.718 E33.65103
G0 F6000 X91.109 Y143.152
G1 F1200 X106.845 Y158.889 E34.31721
G0 F6000 X107.411 Y158.889
G1 F1200 X91.109 Y142.586 E35.00734
G0 F6000 X91.109 Y142.02
G1 F1200 X107.977 Y158.889 E35.72144
G0 F6000 X108.543 Y158.889
G1 F1200 X91.109 Y141.455 E36.45948
G0 F6000 X91.109 Y140.889
G1 F1200 X109.108 Y158.889 E37.22146
G0 F6000 X109.674 Y158.889
G1 F1200 X91.109 Y140.323 E38.00739
G0 F6000 X91.109 Y139.758
G1 F1200 X110.24 Y158.889 E38.81727
G0 F6000 X110.805 Y158.889
G1 F1200 X91.109 Y139.192 E39.65109
G0 F6000 X91.109 Y138.626
G1 F1200 X111.371 Y158.889 E40.50887
G0 F6000 X111.937 Y158.889
G1 F1200 X91.109 Y138.061 E41.39058
G0 F6000 X91.109 Y137.495
G1 F1200 X112.502 Y158.889 E42.29624
G0 F6000 X113.068 Y158.889
G1 F1200 X91.109 Y136.929 E43.22586
G0 F6000 X91.109 Y136.364
G1 F1200 X113.634 Y158.889 E44.17941
G0 F6000 X114.199 Y158.889
G1 F1200 X91.109 Y135.798 E45.15691
G0 F6000 X91.109 Y135.232
G1 F1200 X114.765 Y158.889 E46.15836
G0 F6000 X115.331 Y158.889
G1 F1200 X91.109 Y134.667 E47.18376
G0 F6000 X91.109 Y134.101
G1 F1200 X115.896 Y158.889 E48.23309
G0 F6000 X116.462 Y158.889
G1 F1200 X91.109 Y133.535 E49.30639
G0 F6000 X91.109 Y132.97
G1 F1200 X117.028 Y158.889 E50.40363
G0 F6000 X117.593 Y158.889
G1 F1200 X91.109 Y132.404 E51.5248
G0 F6000 X91.109 Y131.838
G1 F1200 X118.159 Y158.889 E52.66994
G0 F6000 X118.725 Y158.889
G1 F1200 X91.109 Y131.272 E53.83903
G0 F6000 X91.109 Y130.707
G1 F1200 X119.291 Y158.889 E55.03207
G0 F6000 X119.856 Y158.889
G1 F1200 X91.109 Y130.141 E56.24904
G0 F6000 X91.109 Y129.575
G1 F1200 X120.422 Y158.889 E57.48998
G0 F6000 X120.988 Y158.889
G1 F1200 X91.109 Y129.01 E58.75485
G0 F6000 X91.109 Y128.444
G1 F1200 X121.553 Y158.889 E60.04367
G0 F6000 X122.119 Y158.889
G1 F1200 X91.109 Y127.878 E61.35644
G0 F6000 X91.109 Y127.313
G1 F1200 X122.685 Y158.889 E62.69316
G0 F6000 X123.25 Y158.889
G1 F1200 X91.109 Y126.747 E64.05381
G0 F6000 X91.109 Y126.181
G1 F1200 X123.816 Y158.889 E65.43842
G0 F6000 X124.382 Y158.889
G1 F1200 X91.109 Y125.616 E66.84698
G0 F6000 X91.109 Y125.05
G1 F1200 X124.947 Y158.889 E68.27947
G0 F6000 X125.513 Y158.889
G1 F1200 X91.109 Y124.484 E69.73593
G0 F6000 X91.109 Y123.919
G1 F1200 X126.079 Y158.889 E71.21632
G0 F6000 X126.644 Y158.889
G1 F1200 X91.109 Y123.353 E72.72065
G0 F6000 X91.109 Y122.787
G1 F1200 X127.21 Y158.889 E74.24895
G0 F6000 X127.776 Y158.889
G1 F1200 X91.109 Y122.221 E75.8012
G0 F6000 X91.109 Y121.656
G1 F1200 X128.342 Y158.889 E77.37739
G0 F6000 X128.89 Y158.871
G1 F1200 X91.109 Y121.09 E78.97678
G0 F6000 X91.109 Y120.524
G1 F1200 X128.89 Y158.305 E80.57618
G0 F6000 X128.89 Y157.739
G1 F1200 X91.109 Y119.959 E82.17555
G0 F6000 X91.109 Y119.393
G1 F1200 X128.89 Y157.174 E83.77494
G0 F6000 X128.89 Y156.608
G1 F1200 X91.109 Y118.827 E85.37433
G0 F6000 X91.109 Y118.262
G1 F1200 X128.89 Y156.042 E86.9737
G0 F6000 X128.89 Y155.477
G1 F1200 X91.109 Y117.696 E88.5731
G0 F6000 X91.109 Y117.13
G1 F1200 X128.89 Y154.911 E90.17249
G0 F6000 X128.89 Y154.345
G1 F1200 X91.109 Y116.565 E91.77186
G0 F6000 X91.109 Y115.999
G1 F1200 X128.89 Y153.78 E93.37125
G0 F6000 X128.89 Y153.214
G1 F1200 X91.109 Y115.433 E94.97064
G0 F6000 X91.109 Y114.868
G1 F1200 X128.89 Y152.648 E96.57001
G0 F6000 X128.89 Y152.083
G1 F1200 X91.109 Y114.302 E98.16941
G0 F6000 X91.109 Y113.736
G1 F1200 X128.89 Y151.517 E99.7688
G0 F6000 X128.89 Y150.951
G1 F1200 X91.109 Y113.171 E101.36817
G0 F6000 X91.109 Y112.605
G1 F1200 X128.89 Y150.386 E102.96756
G0 F6000 X128.89 Y149.82
G1 F1200 X91.109 Y112.039 E104.56695
G0 F6000 X91.109 Y111.473
G1 F1200 X128.89 Y149.254 E106.16635
G0 F6000 X128.89 Y148.688
G1 F1200 X91.109 Y110.908 E107.76572
G0 F6000 X91.109 Y110.342
G1 F1200 X128.89 Y148.123 E109.36511
G0 F6000 X128.89 Y147.557
G1 F1200 X91.109 Y109.776 E110.9645
G0 F6000 X91.109 Y109.211
G1 F1200 X128.89 Y146.991 E112.56387
G0 F6000 X128.89 Y146.426
G1 F1200 X91.109 Y108.645 E114.16326
G0 F6000 X91.109 Y108.079
G1 F1200 X128.89 Y145.86 E115.76266
G0 F6000 X128.89 Y145.294
G1 F1200 X91.109 Y107.514 E117.36203
G0 F6000 X91.109 Y106.948
G1 F1200 X128.89 Y144.729 E118.96142
G0 F6000 X128.89 Y144.163
G1 F1200 X91.109 Y106.382 E120.56081
G0 F6000 X91.109 Y105.817
G1 F1200 X128.89 Y143.597 E122.16018
G0 F6000 X128.89 Y143.032
G1 F1200 X91.109 Y105.251 E123.75958
G0 F6000 X91.109 Y104.685
G1 F1200 X128.89 Y142.466 E125.35897
G0 F6000 X128.89 Y141.9
G1 F1200 X91.109 Y104.12 E126.95834
G0 F6000 X91.109 Y103.554
G1 F1200 X128.89 Y141.335 E128.55773
G0 F6000 X128.89 Y140.769
G1 F1200 X91.109 Y102.988 E130.15712
G0 F6000 X91.109 Y102.423
G1 F1200 X128.89 Y140.203 E131.75649
G0 F6000 X128.89 Y139.638
G1 F1200 X91.109 Y101.857 E133.35589
G0 F6000 X91.109 Y101.291
G1 F1200 X128.89 Y139.072 E134.95528
G0 F6000 X128.89 Y138.506
G1 F1200 X91.109 Y100.725 E136.55467
G0 F6000 X91.109 Y100.16
G1 F1200 X128.89 Y137.94 E138.15404
G0 F6000 X128.89 Y137.375
G1 F1200 X91.109 Y99.594 E139.75343
G0 F6000 X91.109 Y99.028
G1 F1200 X128.89 Y136.809 E141.35283
G0 F6000 X128.89 Y136.243
G1 F1200 X91.109 Y98.463 E142.9522
G0 F6000 X91.109 Y97.897
G1 F1200 X128.89 Y135.678 E144.55159
G0 F6000 X128.89 Y135.112
G1 F1200 X91.109 Y97.331 E146.15098
G0 F6000 X91.109 Y96.766
G1 F1200 X128.89 Y134.546 E147.75035
G0 F6000 X128.89 Y133.981
G1 F1200 X91.109 Y96.2 E149.34974
G0 F6000 X91.109 Y95.634
G1 F1200 X128.89 Y133.415 E150.94914
G0 F6000 X128.89 Y132.849
G1 F1200 X91.109 Y95.069 E152.54851
G0 F6000 X91.109 Y94.503
G1 F1200 X128.89 Y132.284 E154.1479
G0 F6000 X128.89 Y131.718
G1 F1200 X91.109 Y93.937 E155.74729
G0 F6000 X91.109 Y93.372
G1 F1200 X128.89 Y131.152 E157.34666
G0 F6000 X128.89 Y130.587
G1 F1200 X91.109 Y92.806 E158.94605
G0 F6000 X91.109 Y92.24
G1 F1200 X128.89 Y130.021 E160.54545
G0 F6000 X128.89 Y129.455
G1 F1200 X91.109 Y91.674 E162.14484
G0 F6000 X91.109 Y91.109
G1 F1200 X128.89 Y128.89 E163.74423
G0 F6000 X128.89 Y128.324
G1 F1200 X91.109 Y90.543 E165.34362
G0 F6000 X91.109 Y89.977
G1 F1200 X128.89 Y127.758 E166.94302
G0 F6000 X128.89 Y127.192
G1 F1200 X91.109 Y89.412 E168.54239
G0 F6000 X91.109 Y88.846
G1 F1200 X128.89 Y126.627 E170.14178
G0 F6000 X128.89 Y126.061
G1 F1200 X91.109 Y88.28 E171.74117
G0 F6000 X91.109 Y87.715
G1 F1200 X128.89 Y125.495 E173.34054
G0 F6000 X128.89 Y124.93
G1 F1200 X91.109 Y87.149 E174.93993
G0 F6000 X91.109 Y86.583
G1 F1200 X128.89 Y124.364 E176.53933
G0 F6000 X128.89 Y123.798
G1 F1200 X91.109 Y86.018 E178.1387
G0 F6000 X91.109 Y85.452
G1 F1200 X128.89 Y123.233 E179.73809
G0 F6000 X128.89 Y122.667
G1 F1200 X91.109 Y84.886 E181.33748
G0 F6000 X91.109 Y84.321
G1 F1200 X128.89 Y122.101 E182.93685
G0 F6000 X128.89 Y121.536
G1 F1200 X91.109 Y83.755 E184.53624
G0 F6000 X91.109 Y83.189
G1 F1200 X128.89 Y120.97 E186.13564
G0 F6000 X128.89 Y120.404
G1 F1200 X91.109 Y82.624 E187.73501
G0 F6000 X91.109 Y82.058
G1 F1200 X128.89 Y119.839 E189.3344
G0 F6000 X128.89 Y119.273
G1 F1200 X91.109 Y81.492 E190.93379
G0 F6000 X91.109 Y80.926
G1 F1200 X128.89 Y118.707 E192.53318
G0 F6000 X128.89 Y118.141
G1 F1200 X91.109 Y80.361 E194.13256
G0 F6000 X91.109 Y79.795
G1 F1200 X128.89 Y117.576 E195.73195
G0 F6000 X128.89 Y117.01
G1 F1200 X91.109 Y79.229 E197.33134
G0 F6000 X91.109 Y78.664
G1 F1200 X128.89 Y116.444 E198.93071
G0 F6000 X128.89 Y115.879
G1 F1200 X91.109 Y78.098 E200.5301
G0 F6000 X91.109 Y77.532
G1 F1200 X128.89 Y115.313 E202.12949
G0 F6000 X128.89 Y114.747
G1 F1200 X91.109 Y76.967 E203.72887
G0 F6000 X91.109 Y76.401
G1 F1200 X128.89 Y114.182 E205.32826
G0 F6000 X128.89 Y113.616
G1 F1200 X91.109 Y75.835 E206.92765
G0 F6000 X91.109 Y75.27
G1 F1200 X128.89 Y113.05 E208.52702
G0 F6000 X128.89 Y112.485
G1 F1200 X91.109 Y74.704 E210.12641
G0 F6000 X91.109 Y74.138
G1 F1200 X128.89 Y111.919 E211.72581
G0 F6000 X128.89 Y111.353
G1 F1200 X91.109 Y73.573 E213.32518
G0 F6000 X91.109 Y73.007
G1 F1200 X128.89 Y110.788 E214.92457
G0 F6000 X128.89 Y110.222
G1 F1200 X91.109 Y72.441 E216.52396
G0 F6000 X91.109 Y71.875
G1 F1200 X128.89 Y109.656 E218.12335
G0 F6000 X128.89 Y109.091
G1 F1200 X91.109 Y71.31 E219.72275
G0 F6000 X91.109 Y70.744
G1 F1200 X128.89 Y108.525 E221.32214
G0 F6000 X128.89 Y107.959
G1 F1200 X91.109 Y70.178 E222.92153
G0 F6000 X91.109 Y69.613
G1 F1200 X128.89 Y107.393 E224.5209
G0 F6000 X128.89 Y106.828
G1 F1200 X91.109 Y69.047 E226.12029
G0 F6000 X91.109 Y68.481
G1 F1200 X128.89 Y106.262 E227.71968
G0 F6000 X128.89 Y105.696
G1 F1200 X91.109 Y67.916 E229.31906
G0 F6000 X91.109 Y67.35
G1 F1200 X128.89 Y105.131 E230.91845
G0 F6000 X128.89 Y104.565
G1 F1200 X91.109 Y66.784 E232.51784
G0 F6000 X91.109 Y66.219
G1 F1200 X128.89 Y103.999 E234.11721
G0 F6000 X128.89 Y103.434
G1 F1200 X91.109 Y65.653 E235.7166
G0 F6000 X91.109 Y65.087
G1 F1200 X128.89 Y102.868 E237.316
G0 F6000 X128.89 Y102.302
G1 F1200 X91.109 Y64.522 E238.91537
G0 F6000 X91.109 Y63.956
G1 F1200 X128.89 Y101.737 E240.51476
G0 F6000 X128.89 Y101.171
G1 F1200 X91.109 Y63.39 E242.11415
G0 F6000 X91.109 Y62.825
G1 F1200 X128.89 Y100.605 E243.71352
G0 F6000 X128.89 Y100.04
G1 F1200 X91.109 Y62.259 E245.31291
G0 F6000 X91.109 Y61.693
G1 F1200 X128.89 Y99.474 E246.91231
G0 F6000 X128.89 Y98.908
G1 F1200 X91.109 Y61.127 E248.5117
G0 F6000 X91.657 Y61.11
G1 F1200 X128.89 Y98.342 E250.08787
G0 F6000 X128.89 Y97.777
G1 F1200 X92.222 Y61.11 E251.64012
G0 F6000 X92.788 Y61.11
G1 F1200 X128.89 Y97.211 E253.16842
G0 F6000 X128.89 Y96.645
G1 F1200 X93.354 Y61.11 E254.67275
G0 F6000 X93.92 Y61.11
G1 F1200 X128.89 Y96.08 E256.15314
G0 F6000 X128.89 Y95.514
G1 F1200 X94.485 Y61.11 E257.6096
G0 F6000 X95.051 Y61.11
G1 F1200 X128.89 Y94.948 E259.04209
G0 F6000 X128.89 Y94.383
G1 F1200 X95.617 Y61.11 E260.45065
G0 F6000 X96.182 Y61.11
G1 F1200 X128.89 Y93.817 E261.83526
G0 F6000 X128.89 Y93.251
G1 F1200 X96.748 Y61.11 E263.19591
G0 F6000 X97.314 Y61.11
G1 F1200 X128.89 Y92.686 E264.53263
G0 F6000 X128.89 Y92.12
G1 F1200 X97.879 Y61.11 E265.8454
G0 F6000 X98.445 Y61.11
G1 F1200 X128.89 Y91.554 E267.13422
G0 F6000 X128.89 Y90.989
G1 F1200 X99.011 Y61.11 E268.39909
G0 F6000 X99.576 Y61.11
G1 F1200 X128.89 Y90.423 E269.64003
G0 F6000 X128.89 Y89.857
G1 F1200 X100.142 Y61.11 E270.857
G0 F6000 X100.708 Y61.11
G1 F1200 X128.89 Y89.292 E272.05004
G0 F6000 X128.89 Y88.726
G1 F1200 X101.273 Y61.11 E273.21913
G0 F6000 X101.839 Y61.11
G1 F1200 X128.89 Y88.16 E274.36427
G0 F6000 X128.89 Y87.594
G1 F1200 X102.405 Y61.11 E275.48544
G0 F6000 X102.971 Y61.11
G1 F1200 X128.89 Y87.029 E276.58268
G0 F6000 X128.89 Y86.463
G1 F1200 X103.536 Y61.11 E277.65598
G0 F6000 X104.102 Y61.11
G1 F1200 X128.89 Y85.897 E278.70531
G0 F6000 X128.89 Y85.332
G1 F1200 X104.668 Y61.11 E279.73071
G0 F6000 X105.233 Y61.11
G1 F1200 X128.89 Y84.766 E280.73216
G0 F6000 X128.89 Y84.2
G1 F1200 X105.799 Y61.11 E281.70966
G0 F6000 X106.365 Y61.11
G1 F1200 X128.89 Y83.635 E282.66321
G0 F6000 X128.89 Y83.069
G1 F1200 X106.93 Y61.11 E283.59283
G0 F6000 X107.496 Y61.11
G1 F1200 X128.89 Y82.503 E284.49849
G0 F6000 X128.89 Y81.938
G1 F1200 X108.062 Y61.11 E285.3802
G0 F6000 X108.627 Y61.11
G1 F1200 X128.89 Y81.372 E286.23798
G0 F6000 X128.89 Y80.806
G1 F1200 X109.193 Y61.11 E287.0718
G0 F6000 X109.759 Y61.11
G1 F1200 X128.89 Y80.241 E287.88168
G0 F6000 X128.89 Y79.675
G1 F1200 X110.324 Y61.11 E288.66761
G0 F6000 X110.89 Y61.11
G1 F1200 X128.89 Y79.109 E289.42959
G0 F6000 X128.89 Y78.544
G1 F1200 X111.456 Y61.11 E290.16763
G0 F6000 X112.021 Y61.11
G1 F1200 X128.89 Y77.978 E290.88173
G0 F6000 X128.89 Y77.412
G1 F1200 X112.587 Y61.11 E291.57186
G0 F6000 X113.153 Y61.11
G1 F1200 X128.89 Y76.846 E292.23804
G0 F6000 X128.89 Y76.281
G1 F1200 X113.719 Y61.11 E292.88028
G0 F6000 X114.284 Y61.11
G1 F1200 X128.89 Y75.715 E293.49858
G0 F6000 X128.89 Y75.149
G1 F1200 X114.85 Y61.11 E294.09291
G0 F6000 X115.416 Y61.11
G1 F1200 X128.89 Y74.584 E294.66331
G0 F6000 X128.89 Y74.018
G1 F1200 X115.981 Y61.11 E295.20977
G0 F6000 X116.547 Y61.11
G1 F1200 X128.89 Y73.452 E295.73227
G0 F6000 X128.89 Y72.887
G1 F1200 X117.113 Y61.11 E296.23083
G0 F6000 X117.678 Y61.11
G1 F1200 X128.89 Y72.321 E296.70545
G0 F6000 X128.89 Y71.755
G1 F1200 X118.244 Y61.11 E297.15611
G0 F6000 X118.81 Y61.11
G1 F1200 X128.89 Y71.19 E297.58282
G0 F6000 X128.89 Y70.624
G1 F1200 X119.375 Y61.11 E297.9856
G0 F6000 X119.941 Y61.11
G1 F1200 X128.89 Y70.058 E298.36442
G0 F6000 X128.89 Y69.493
G1 F1200 X120.507 Y61.11 E298.7193
G0 F6000 X121.072 Y61.11
G1 F1200 X128.89 Y68.927 E299.05024
G0 F6000 X128.89 Y68.361
G1 F1200 X121.638 Y61.11 E299.35722
G0 F6000 X122.204 Y61.11
G1 F1200 X128.89 Y67.795 E299.64024
G0 F6000 X128.89 Y67.23
G1 F1200 X122.77 Y61.11 E299.89932
G0 F6000 X123.335 Y61.11
G1 F1200 X128.89 Y66.664 E300.13446
G0 F6000 X128.89 Y66.098
G1 F1200 X123.901 Y61.11 E300.34564
G0 F6000 X124.467 Y61.11
G1 F1200 X128.89 Y65.533 E300.53288
G0 F6000 X128.89 Y64.967
M104 S190
G1 F1200 X125.032 Y61.11 E300.69618
G0 F6000 X125.598 Y61.11
G1 F1200 X128.89 Y64.401 E300.83552
G0 F6000 X128.89 Y63.836
G1 F1200 X126.164 Y61.11 E300.95092
G0 F6000 X126.729 Y61.11
G1 F1200 X128.89 Y63.27 E301.04238
G0 F6000 X128.89 Y62.704
G1 F1200 X127.295 Y61.11 E301.10988
G0 F6000 X127.861 Y61.11
G1 F1200 X128.89 Y62.139 E301.15344
G0 F6000 X128.89 Y61.573
G1 F1200 X128.426 Y61.11 E301.17306
