;FLAVOR:Marlin
;TIME:6113
;Filament used: 5.97107m
;Layer height: 0.2
;MINX:65.235
;MINY:63.2
;MINZ:0.2
;MAXX:153.9
;MAXY:156.8
;MAXZ:5
;Generated with Cura_SteamEngine 4.13.1
M140 S60
M105
M190 S60
M104 S195
M105
M109 S195
M82 ;absolute extrusion mode
G28 ;Home
G92 E0 ;Reset Extruder
G1 Z2.0 F3000 ;Move bed down
G1 X10.1 Y20 Z0.28 F5000.0 ;Move to start position
G1 X10.1 Y200.0 Z0.28 F1500.0 E15 ;Draw the first line
G1 X10.4 Y200.0 Z0.28 F5000.0 ;Move to side a little
G1 X10.4 Y20 Z0.28 F1500.0 E30 ;Draw the second line
G92 E0 ;Reset Extruder
G1 Z2.0 F3000 ;Move Bed up
G92 E0
G92 E0
G1 F2400 E-7
;LAYER_COUNT:25
;LAYER:0
M107
;MESH:Partition.stl
G0 F6000 X103.94 Y68.562 Z0.2
;TYPE:WALL-INNER
G1 F2400 E0
G1 F1200 X104.35 Y68.603 E0.01233
G1 X104.76 Y68.562 E0.02467
G1 X105.155 Y68.443 E0.03702
G1 X105.518 Y68.248 E0.04935
G1 X105.837 Y67.987 E0.06169
G1 X106.098 Y67.668 E0.07403
G1 X106.293 Y67.305 E0.08636
G1 X106.412 Y66.91 E0.09871
G1 X106.453 Y66.5 E0.11105
G1 X106.412 Y66.09 E0.12338
G1 X106.293 Y65.695 E0.13573
G1 X106.098 Y65.332 E0.14806
G1 X105.837 Y65.013 E0.1604
G1 X105.518 Y64.752 E0.17274
G1 X105.155 Y64.557 E0.18507
G1 X104.76 Y64.438 E0.19742
G1 X104.35 Y64.397 E0.20976
G1 X103.94 Y64.438 E0.22209
G1 X103.545 Y64.557 E0.23444
G1 X103.182 Y64.752 E0.24677
G1 X102.863 Y65.013 E0.25911
G1 X102.602 Y65.332 E0.27145
G1 X102.407 Y65.695 E0.28379
G1 X102.288 Y66.09 E0.29613
G1 X102.247 Y66.5 E0.30847
G1 X102.288 Y66.91 E0.3208
G1 X102.407 Y67.305 E0.33315
G1 X102.602 Y67.668 E0.34549
G1 X102.863 Y67.987 E0.35782
G1 X103.182 Y68.248 E0.37016
G1 X103.545 Y68.443 E0.3825
G1 X103.94 Y68.562 E0.39485
G0 F6000 X104.018 Y68.168
;TYPE:WALL-OUTER
G1 F1200 X104.35 Y68.201 E0.40483
G1 X104.682 Y68.168 E0.41482
G1 X105.001 Y68.072 E0.42479
G1 X105.295 Y67.914 E0.43478
G1 X105.553 Y67.703 E0.44476
G1 X105.764 Y67.445 E0.45474
G1 X105.922 Y67.151 E0.46473
G1 X106.018 Y66.832 E0.4747
G1 X106.051 Y66.5 E0.48469
G1 X106.018 Y66.168 E0.49467
G1 X105.922 Y65.849 E0.50465
G1 X105.764 Y65.555 E0.51464
G1 X105.553 Y65.297 E0.52461
G1 X105.295 Y65.086 E0.53459
G1 X105.001 Y64.928 E0.54458
G1 X104.682 Y64.832 E0.55455
G1 X104.35 Y64.799 E0.56454
G1 X104.018 Y64.832 E0.57453
G1 X103.699 Y64.928 E0.5845
G1 X103.405 Y65.086 E0.59449
G1 X103.147 Y65.297 E0.60447
G1 X102.936 Y65.555 E0.61444
G1 X102.778 Y65.849 E0.62444
G1 X102.682 Y66.168 E0.63441
G1 X102.649 Y66.5 E0.64439
G1 X102.682 Y66.832 E0.65438
G1 X102.778 Y67.151 E0.66435
G1 X102.936 Y67.445 E0.67434
G1 X103.147 Y67.703 E0.68432
G1 X103.405 Y67.914 E0.6943
G1 X103.699 Y68.072 E0.70429
G1 X104.018 Y68.168 E0.71426
G0 F6000 X103.933 Y68.599
G1 F2400 E-6.28574
G0 F6000 X104.35 Y68.794
G0 X104.35 Y67.332
G0 X104.35 Y152.668
G0 X104.35 Y151.206
G0 X102.972 Y152.131
G0 X102.556 Y152.759
G0 X102.408 Y153.506
G0 X102.561 Y154.25
G0 X102.981 Y154.878
G0 X103.946 Y155.562
;TYPE:WALL-INNER
G1 F2400 E0.71426
G1 F1200 X104.35 Y155.603 E0.72642
G1 X104.76 Y155.562 E0.73875
G1 X105.155 Y155.443 E0.7511
G1 X105.518 Y155.248 E0.76343
G1 X105.837 Y154.987 E0.77577
G1 X106.098 Y154.668 E0.78811
G1 X106.293 Y154.305 E0.80044
G1 X106.412 Y153.91 E0.81279
G1 X106.453 Y153.5 E0.82513
G1 X106.412 Y153.09 E0.83746
G1 X106.293 Y152.695 E0.84981
G1 X106.098 Y152.332 E0.86215
G1 X105.837 Y152.013 E0.87448
G1 X105.518 Y151.752 E0.88682
G1 X105.155 Y151.557 E0.89916
G1 X104.76 Y151.438 E0.91151
G1 X104.35 Y151.397 E0.92384
G1 X103.94 Y151.438 E0.93617
G1 X103.545 Y151.557 E0.94852
G1 X103.181 Y151.752 E0.96088
G1 X102.858 Y152.018 E0.97341
G1 X102.598 Y152.339 E0.98577
G1 X102.406 Y152.697 E0.99793
G1 X102.288 Y153.097 E1.01042
G1 X102.247 Y153.507 E1.02275
G1 X102.289 Y153.918 E1.03512
G1 X102.411 Y154.312 E1.04747
G1 X102.605 Y154.673 E1.05973
G1 X102.868 Y154.993 E1.07213
G1 X103.189 Y155.252 E1.08448
G1 X103.547 Y155.444 E1.09664
G1 X103.946 Y155.562 E1.10909
G0 F6000 X104.024 Y155.168
;TYPE:WALL-OUTER
G1 F1200 X104.35 Y155.201 E1.1189
G1 X104.682 Y155.168 E1.12889
G1 X105.001 Y155.072 E1.13886
G1 X105.295 Y154.914 E1.14885
G1 X105.553 Y154.703 E1.15883
G1 X105.764 Y154.445 E1.16881
G1 X105.922 Y154.151 E1.1788
G1 X106.018 Y153.832 E1.18877
G1 X106.051 Y153.5 E1.19876
G1 X106.018 Y153.168 E1.20874
G1 X105.922 Y152.849 E1.21872
G1 X105.764 Y152.555 E1.22871
G1 X105.553 Y152.297 E1.23868
G1 X105.295 Y152.086 E1.24866
G1 X105.001 Y151.928 E1.25865
G1 X104.682 Y151.832 E1.26862
G1 X104.35 Y151.799 E1.27861
G1 X104.018 Y151.832 E1.2886
G1 X103.699 Y151.928 E1.29857
G1 X103.405 Y152.086 E1.30856
G1 X103.143 Y152.301 E1.31871
G1 X102.933 Y152.561 E1.32871
G1 X102.778 Y152.85 E1.33853
G1 X102.682 Y153.174 E1.34864
G1 X102.649 Y153.506 E1.35863
G1 X102.683 Y153.838 E1.36862
G1 X102.782 Y154.157 E1.37862
G1 X102.939 Y154.449 E1.38854
G1 X103.151 Y154.707 E1.39854
G1 X103.411 Y154.917 E1.40854
G1 X103.7 Y155.072 E1.41836
G1 X104.024 Y155.168 E1.42848
G0 F6000 X103.939 Y155.599
G1 F2400 E-5.57152
G0 F6000 X105.972 Y155.122
G0 X105.972 Y156.19
G0 X153.5 Y156.4
;TYPE:WALL-INNER
G1 F2400 E1.42848
G1 F1200 X66.5 Y156.4 E4.03274
G1 X66.5 Y63.6 E6.81063
G1 X113.973 Y63.6 E8.23169
G1 X113.973 Y90.581 E9.03935
G1 X114.024 Y91.69 E9.07258
G1 X114.178 Y92.844 E9.10743
G1 X114.43 Y94.021 E9.14346
G1 X114.779 Y95.206 E9.18044
G1 X115.22 Y96.387 E9.21817
G1 X115.749 Y97.553 E9.2565
G1 X116.359 Y98.691 E9.29515
G1 X117.043 Y99.791 E9.33393
G1 X117.796 Y100.842 E9.37263
G1 X118.61 Y101.83 E9.41095
G1 X119.475 Y102.747 E9.44868
G1 X120.384 Y103.583 E9.48565
G1 X121.327 Y104.329 E9.52164
G1 X122.297 Y104.976 E9.55655
G1 X123.27 Y105.511 E9.58978
G1 X144.848 Y116.119 E10.30954
G1 X145.746 Y116.613 E10.34022
G1 X146.633 Y117.206 E10.37215
G1 X147.51 Y117.899 E10.40561
G1 X148.358 Y118.677 E10.44006
G1 X149.162 Y119.53 E10.47515
G1 X149.922 Y120.453 E10.51094
G1 X150.633 Y121.445 E10.54747
G1 X151.276 Y122.478 E10.5839
G1 X151.851 Y123.552 E10.62036
G1 X152.341 Y124.632 E10.65587
G1 X152.752 Y125.735 E10.6911
G1 X153.078 Y126.839 E10.72556
G1 X153.312 Y127.927 E10.75887
G1 X153.452 Y128.977 E10.79058
G1 X153.5 Y130.018 E10.82177
G1 X153.5 Y156.4 E11.6115
G0 F6000 X153.9 Y156.8
;TYPE:WALL-OUTER
G1 F1200 X66.1 Y156.8 E14.23971
G1 X66.1 Y63.2 E17.04155
G1 X114.373 Y63.2 E18.48656
G1 X114.373 Y90.572 E19.30591
G1 X114.423 Y91.654 E19.33834
G1 X114.572 Y92.776 E19.37222
G1 X114.818 Y93.922 E19.4073
G1 X115.159 Y95.079 E19.44341
G1 X115.59 Y96.234 E19.48031
G1 X116.108 Y97.376 E19.51785
G1 X116.705 Y98.491 E19.55571
G1 X117.376 Y99.569 E19.59372
G1 X118.113 Y100.598 E19.63161
G1 X118.91 Y101.565 E19.66912
G1 X119.756 Y102.462 E19.70603
G1 X120.644 Y103.278 E19.74213
G1 X121.563 Y104.005 E19.7772
G1 X122.505 Y104.634 E19.81111
G1 X123.455 Y105.156 E19.84356
G1 X145.03 Y115.763 E20.56322
G1 X145.959 Y116.274 E20.59495
G1 X146.868 Y116.881 E20.62767
G1 X147.775 Y117.598 E20.66228
G1 X148.637 Y118.39 E20.69732
G1 X149.459 Y119.261 E20.73317
G1 X150.238 Y120.208 E20.76988
G1 X150.968 Y121.226 E20.80738
G1 X151.625 Y122.281 E20.84458
G1 X152.204 Y123.363 E20.88132
G1 X152.716 Y124.492 E20.91842
G1 X153.132 Y125.608 E20.95408
G1 X153.465 Y126.736 E20.98928
G1 X153.708 Y127.866 E21.02388
G1 X153.851 Y128.94 E21.05631
G1 X153.9 Y130 E21.08808
G1 X153.9 Y156.8 E21.89031
G0 F6000 X153.63 Y156.53
G0 X153.39 Y156.01
G0 X153.11 Y156.01
;TYPE:SKIN
G1 F1200 X66.89 Y156.01 E24.47123
G1 X66.89 Y63.99 E27.22577
G1 X113.583 Y63.99 E28.62348
G1 X113.583 Y90.59 E29.41973
G1 X113.636 Y91.725 E29.45374
G1 X113.794 Y92.91 E29.48953
G1 X114.052 Y94.117 E29.52648
G1 X114.409 Y95.329 E29.5643
G1 X114.859 Y96.536 E29.60286
G1 X115.4 Y97.726 E29.64199
G1 X116.021 Y98.886 E29.68137
G1 X116.719 Y100.008 E29.72093
G1 X117.486 Y101.08 E29.76039
G1 X118.317 Y102.088 E29.79949
G1 X119.2 Y103.024 E29.83801
G1 X120.131 Y103.88 E29.87587
G1 X121.097 Y104.645 E29.91275
G1 X122.094 Y105.31 E29.94863
G1 X123.09 Y105.857 E29.98264
G1 X144.668 Y116.465 E30.70239
G1 X145.538 Y116.943 E30.73211
G1 X146.399 Y117.518 E30.7631
G1 X147.268 Y118.205 E30.79626
G1 X148.08 Y118.95 E30.82925
G1 X148.869 Y119.788 E30.8637
G1 X149.612 Y120.691 E30.89871
G1 X150.316 Y121.673 E30.93487
G1 X150.939 Y122.674 E30.97017
G1 X151.496 Y123.714 E31.00548
G1 X151.986 Y124.794 E31.04098
G1 X152.378 Y125.846 E31.07459
G1 X152.696 Y126.921 E31.10815
G1 X152.93 Y128.009 E31.14146
G1 X153.062 Y128.995 E31.17124
G1 X153.11 Y130.018 E31.2019
G1 X153.11 Y156.01 E31.97994
G1 F2400 E24.97994
G0 F6000 X153.39 Y156.01
G0 X106.564 Y156.19
G0 X106.257 Y154.774
G0 X106.564 Y153.499
G1 F2400 E31.97994
G0 F6000 X106.845 Y153.5
G1 F1200 X106.796 Y153.014 E31.99456
G1 X106.655 Y152.545 E32.00922
G1 X106.424 Y152.114 E32.02386
G1 X106.114 Y151.736 E32.0385
G1 X105.736 Y151.426 E32.05313
G1 X105.305 Y151.195 E32.06777
G1 X104.836 Y151.054 E32.08243
G1 X104.35 Y151.005 E32.09705
G1 X103.864 Y151.054 E32.11167
G1 X103.395 Y151.195 E32.12633
G1 X102.963 Y151.426 E32.14099
G1 X102.579 Y151.742 E32.15588
G1 X102.272 Y152.122 E32.1705
G1 X102.043 Y152.548 E32.18498
G1 X101.904 Y153.021 E32.19974
G1 X101.855 Y153.507 E32.21436
G1 X101.905 Y153.996 E32.22908
G1 X102.05 Y154.464 E32.24374
G1 X102.279 Y154.891 E32.25825
G1 X102.592 Y155.272 E32.27301
G1 X102.973 Y155.578 E32.28763
G1 X103.398 Y155.807 E32.30208
G1 X103.87 Y155.946 E32.31681
G1 X104.35 Y155.995 E32.33126
G1 X104.836 Y155.946 E32.34588
G1 X105.305 Y155.805 E32.36054
G1 X105.736 Y155.574 E32.37518
G1 X106.114 Y155.264 E32.38981
G1 X106.424 Y154.886 E32.40444
G1 X106.655 Y154.455 E32.41908
G1 X106.796 Y153.986 E32.43374
G1 X106.845 Y153.5 E32.44836
G1 F2400 E25.44836
G0 F6000 X106.564 Y153.499
G0 X106.257 Y152.226
G0 X104.939 Y152.911
G0 X104.35 Y67.332
G0 X104.35 Y68.794
G0 X105.58 Y68.339
G1 F2400 E32.44836
G0 F6000 X105.736 Y68.574
G1 F1200 X106.114 Y68.264 E32.463
G1 X106.424 Y67.886 E32.47763
G1 X106.655 Y67.455 E32.49227
G1 X106.796 Y66.986 E32.50693
G1 X106.845 Y66.5 E32.52155
G1 X106.796 Y66.014 E32.53617
G1 X106.655 Y65.545 E32.55083
G1 X106.424 Y65.114 E32.56547
G1 X106.114 Y64.736 E32.5801
G1 X105.736 Y64.426 E32.59474
G1 X105.305 Y64.195 E32.60937
G1 X104.836 Y64.054 E32.62403
G1 X104.35 Y64.005 E32.63865
G1 X103.864 Y64.054 E32.65328
G1 X103.395 Y64.195 E32.66794
G1 X102.964 Y64.426 E32.68257
G1 X102.586 Y64.736 E32.69721
G1 X102.276 Y65.114 E32.71184
G1 X102.045 Y65.545 E32.72648
G1 X101.904 Y66.014 E32.74114
G1 X101.855 Y66.5 E32.75576
G1 X101.904 Y66.986 E32.77038
G1 X102.045 Y67.455 E32.78504
G1 X102.276 Y67.886 E32.79968
G1 X102.586 Y68.264 E32.81431
G1 X102.964 Y68.574 E32.82895
G1 X103.395 Y68.805 E32.84359
G1 X103.864 Y68.946 E32.85825
G1 X104.35 Y68.995 E32.87287
G1 X104.836 Y68.946 E32.88749
G1 X105.305 Y68.805 E32.90215
G1 X105.736 Y68.574 E32.91679
G1 F2400 E25.91679
G0 F6000 X105.58 Y68.339
G0 X106.6 Y66.948
G0 X105.166 Y66.661
G0 X115.238 Y66.948
G0 X113.763 Y66.948
G0 X113.863 Y64.247
G1 F2400 E32.91679
G0 F6000 X113.462 Y64.247
G1 F1200 X113.325 Y64.11 E32.92259
G0 F6000 X112.759 Y64.11
G1 F1200 X113.462 Y64.813 E32.95235
G0 F6000 X113.462 Y65.379
G1 F1200 X112.193 Y64.11 E33.00607
G0 F6000 X111.628 Y64.11
G1 F1200 X113.462 Y65.944 E33.08371
G0 F6000 X113.462 Y66.51
G1 F1200 X111.062 Y64.11 E33.18531
G0 F6000 X110.496 Y64.11
G1 F1200 X113.462 Y67.076 E33.31087
G0 F6000 X113.462 Y67.641
G1 F1200 X109.931 Y64.11 E33.46035
G0 F6000 X109.365 Y64.11
G1 F1200 X113.462 Y68.207 E33.63378
G0 F6000 X113.462 Y68.773
G1 F1200 X108.799 Y64.11 E33.83118
G0 F6000 X108.234 Y64.11
G1 F1200 X113.462 Y69.338 E34.0525
G0 F6000 X113.462 Y69.904
G1 F1200 X107.668 Y64.11 E34.29778
G0 F6000 X107.102 Y64.11
G1 F1200 X113.462 Y70.47 E34.56702
G0 F6000 X113.462 Y71.035
G1 F1200 X106.536 Y64.11 E34.8602
G0 F6000 X105.971 Y64.11
G1 F1200 X113.462 Y71.601 E35.17732
G0 F6000 X113.462 Y72.167
G1 F1200 X106.734 Y65.439 E35.46214
G0 F6000 X106.934 Y66.204
G1 F1200 X113.462 Y72.733 E35.73851
G0 F6000 X113.462 Y73.298
G1 F1200 X106.937 Y66.773 E36.01473
G0 F6000 X106.842 Y67.244
G1 F1200 X113.462 Y73.864 E36.29498
G0 F6000 X113.462 Y74.43
G1 F1200 X106.684 Y67.652 E36.58191
G0 F6000 X106.476 Y68.009
G1 F1200 X113.462 Y74.995 E36.87765
G0 F6000 X113.462 Y75.561
G1 F1200 X106.221 Y68.32 E37.18419
G0 F6000 X105.916 Y68.58
G1 F1200 X113.462 Y76.127 E37.50366
G0 F6000 X113.462 Y76.692
G1 F1200 X105.569 Y68.8 E37.83777
G0 F6000 X105.173 Y68.969
G1 F1200 X113.462 Y77.258 E38.18867
G0 F6000 X113.462 Y77.824
G1 F1200 X104.716 Y69.078 E38.55892
G0 F6000 X104.17 Y69.097
G1 F1200 X113.462 Y78.389 E38.95228
G0 F6000 X113.462 Y78.955
G1 F1200 X103.455 Y68.948 E39.37591
G0 F6000 X103.57 Y68.567
G0 X102.284 Y67.281
G0 X101.901 Y67.395
G1 F1200 X98.617 Y64.11 E39.51495
G0 F6000 X98.051 Y64.11
G1 F1200 X113.462 Y79.521 E40.16735
G0 F6000 X113.462 Y80.086
G1 F1200 X97.485 Y64.11 E40.84369
G0 F6000 X96.92 Y64.11
G1 F1200 X113.462 Y80.652 E41.54396
G0 F6000 X113.462 Y81.218
G1 F1200 X96.354 Y64.11 E42.2682
G0 F6000 X95.788 Y64.11
G1 F1200 X113.462 Y81.783 E43.01638
G0 F6000 X113.462 Y82.349
G1 F1200 X95.223 Y64.11 E43.78849
G0 F6000 X94.657 Y64.11
G1 F1200 X113.462 Y82.915 E44.58457
G0 F6000 X113.462 Y83.481
G1 F1200 X94.091 Y64.11 E45.40461
G0 F6000 X93.526 Y64.11
G1 F1200 X113.462 Y84.046 E46.24856
G0 F6000 X113.462 Y84.612
G1 F1200 X92.96 Y64.11 E47.11648
G0 F6000 X92.394 Y64.11
G1 F1200 X113.462 Y85.178 E48.00835
G0 F6000 X113.462 Y85.743
G1 F1200 X91.829 Y64.11 E48.92415
G0 F6000 X91.263 Y64.11
G1 F1200 X113.462 Y86.309 E49.8639
G0 F6000 X113.462 Y86.875
G1 F1200 X90.697 Y64.11 E50.82762
G0 F6000 X90.132 Y64.11
G1 F1200 X113.462 Y87.44 E51.81526
G0 F6000 X113.462 Y88.006
G1 F1200 X89.566 Y64.11 E52.82685
G0 F6000 X89 Y64.11
G1 F1200 X113.462 Y88.572 E53.86241
G0 F6000 X113.462 Y89.137
G1 F1200 X88.435 Y64.11 E54.92188
G0 F6000 X87.869 Y64.11
G1 F1200 X113.462 Y89.703 E56.00531
G0 F6000 X113.462 Y90.269
G1 F1200 X87.303 Y64.11 E57.11271
G0 F6000 X86.737 Y64.11
G1 F1200 X113.474 Y90.846 E58.24455
G0 F6000 X113.502 Y91.44
G1 F1200 X86.172 Y64.11 E59.40152
G0 F6000 X85.606 Y64.11
G1 F1200 X113.559 Y92.063 E60.58486
G0 F6000 X113.646 Y92.716
G1 F1200 X85.04 Y64.11 E61.79585
G0 F6000 X84.475 Y64.11
G1 F1200 X113.779 Y93.414 E63.03638
G0 F6000 X113.933 Y94.134
G1 F1200 X83.909 Y64.11 E64.30739
G0 F6000 X83.343 Y64.11
G1 F1200 X114.168 Y94.934 E65.61229
G0 F6000 X114.449 Y95.781
G1 F1200 X82.778 Y64.11 E66.95303
G0 F6000 X82.212 Y64.11
G1 F1200 X114.8 Y96.698 E68.33258
G0 F6000 X115.166 Y96.533
G0 X115.637 Y97.571
G0 X115.272 Y97.736
G1 F1200 X81.646 Y64.11 E69.75608
G0 F6000 X81.081 Y64.11
G1 F1200 X115.918 Y98.947 E71.23085
G0 F6000 X116.263 Y98.746
G0 X117.293 Y100.329
G0 X116.967 Y100.562
G1 F1200 X80.515 Y64.11 E72.77398
G0 F6000 X79.949 Y64.11
G1 F1200 X152.99 Y137.151 E75.86604
G0 F6000 X152.99 Y137.716
G1 F1200 X79.384 Y64.11 E78.98202
G0 F6000 X78.818 Y64.11
G1 F1200 X152.99 Y138.282 E82.12196
G0 F6000 X152.99 Y138.848
G1 F1200 X78.252 Y64.11 E85.28586
G0 F6000 X77.686 Y64.11
G1 F1200 X152.99 Y139.413 E88.4737
G0 F6000 X152.99 Y139.979
G1 F1200 X77.121 Y64.11 E91.68548
G0 F6000 X76.555 Y64.11
G1 F1200 X152.99 Y140.545 E94.92123
G0 F6000 X152.99 Y141.11
G1 F1200 X75.989 Y64.11 E98.18091
G0 F6000 X75.424 Y64.11
G1 F1200 X152.99 Y141.676 E101.46453
G0 F6000 X152.99 Y142.242
G1 F1200 X74.858 Y64.11 E104.77211
G0 F6000 X74.292 Y64.11
G1 F1200 X152.99 Y142.807 E108.10363
G0 F6000 X152.99 Y143.373
G1 F1200 X73.727 Y64.11 E111.45909
G0 F6000 X73.161 Y64.11
G1 F1200 X152.99 Y143.939 E114.83851
G0 F6000 X152.99 Y144.505
G1 F1200 X72.595 Y64.11 E118.24189
G0 F6000 X72.03 Y64.11
G1 F1200 X152.99 Y145.07 E121.66919
G0 F6000 X152.99 Y145.636
G1 F1200 X71.464 Y64.11 E125.12045
G0 F6000 X70.898 Y64.11
G1 F1200 X152.99 Y146.202 E128.59567
G0 F6000 X152.99 Y146.767
G1 F1200 X70.333 Y64.11 E132.09481
G0 F6000 X69.767 Y64.11
G1 F1200 X152.99 Y147.333 E135.61791
G0 F6000 X152.99 Y147.899
G1 F1200 X69.201 Y64.11 E139.16497
G0 F6000 X68.636 Y64.11
G1 F1200 X152.99 Y148.464 E142.73594
G0 F6000 X152.99 Y149.03
G1 F1200 X68.07 Y64.11 E146.33088
G0 F6000 X67.504 Y64.11
G1 F1200 X152.99 Y149.596 E149.94978
G0 F6000 X152.99 Y150.161
G1 F1200 X67.008 Y64.18 E153.58966
G0 F6000 X67.008 Y64.746
