;FLAVOR:Marlin
;TIME:952
;Filament used: 0.942217m
;Layer height: 0.2
;MINX:97.7
;MINY:85.2
;MINZ:0.2
;MAXX:122.3
;MAXY:134.8
;MAXZ:8
;Generated with Cura_SteamEngine 4.13.1
M140 S60
M105
M190 S60
M104 S195
M105
M109 S195
M82 ;absolute extrusion mode
G28 ;Home
G92 E0 ;Reset Extruder
G1 Z2.0 F3000 ;Move bed down
G1 X10.1 Y20 Z0.28 F5000.0 ;Move to start position
G1 X10.1 Y200.0 Z0.28 F1500.0 E15 ;Draw the first line
G1 X10.4 Y200.0 Z0.28 F5000.0 ;Move to side a little
G1 X10.4 Y20 Z0.28 F1500.0 E30 ;Draw the second line
G92 E0 ;Reset Extruder
G1 Z2.0 F3000 ;Move Bed up
G92 E0
G92 E0
G1 F2400 E-7
;LAYER_COUNT:40
;LAYER:0
M107
;MESH:ServoArm.stl
G0 F6000 X101.9 Y104.4 Z0.2
;TYPE:WALL-INNER
G1 F2400 E0
G1 F1200 X101.9 Y134.4 E0.89802
G1 X98.1 Y134.4 E1.01177
G1 X98.1 Y90.01 E2.34055
G1 X98.124 Y89.545 E2.35449
G1 X98.198 Y89.079 E2.36861
G1 X98.314 Y88.648 E2.38197
G1 X98.483 Y88.204 E2.39619
G1 X98.689 Y87.802 E2.40971
G1 X98.94 Y87.416 E2.4235
G1 X99.234 Y87.052 E2.4375
G1 X99.552 Y86.734 E2.45096
G1 X99.916 Y86.44 E2.46497
G1 X100.302 Y86.189 E2.47875
G1 X100.704 Y85.983 E2.49228
G1 X101.148 Y85.814 E2.5065
G1 X101.579 Y85.698 E2.51986
G1 X102.045 Y85.624 E2.53398
G1 X102.51 Y85.6 E2.54792
G1 X117.49 Y85.6 E2.99633
G1 X117.955 Y85.624 E3.01027
G1 X118.421 Y85.698 E3.02439
G1 X118.852 Y85.814 E3.03775
G1 X119.296 Y85.983 E3.05198
G1 X119.698 Y86.189 E3.0655
G1 X120.084 Y86.44 E3.07928
G1 X120.448 Y86.734 E3.09329
G1 X120.766 Y87.052 E3.10675
G1 X121.06 Y87.416 E3.12075
G1 X121.311 Y87.802 E3.13454
G1 X121.517 Y88.204 E3.14806
G1 X121.686 Y88.648 E3.16228
G1 X121.802 Y89.079 E3.17564
G1 X121.876 Y89.545 E3.18976
G1 X121.9 Y90.01 E3.2037
G1 X121.9 Y99.99 E3.50244
G1 X121.876 Y100.455 E3.51638
G1 X121.802 Y100.921 E3.53051
G1 X121.686 Y101.352 E3.54387
G1 X121.517 Y101.796 E3.55809
G1 X121.311 Y102.198 E3.57161
G1 X121.06 Y102.584 E3.58539
G1 X120.766 Y102.948 E3.5994
G1 X120.448 Y103.266 E3.61286
G1 X120.084 Y103.56 E3.62687
G1 X119.698 Y103.811 E3.64065
G1 X119.296 Y104.017 E3.65417
G1 X118.852 Y104.186 E3.66839
G1 X118.421 Y104.302 E3.68175
G1 X117.955 Y104.376 E3.69588
G1 X117.49 Y104.4 E3.70981
G1 X101.9 Y104.4 E4.17649
G0 F6000 X102.3 Y104.8
;TYPE:WALL-OUTER
G1 F1200 X102.3 Y134.8 E5.07451
G1 X97.7 Y134.8 E5.21221
G1 X97.7 Y90.01 E6.55296
G1 X97.726 Y89.499 E6.56827
G1 X97.806 Y88.997 E6.58349
G1 X97.935 Y88.518 E6.59834
G1 X98.115 Y88.046 E6.61346
G1 X98.342 Y87.603 E6.62836
G1 X98.616 Y87.181 E6.64342
G1 X98.94 Y86.78 E6.65885
G1 X99.28 Y86.44 E6.67325
G1 X99.681 Y86.116 E6.68868
G1 X100.103 Y85.842 E6.70374
G1 X100.546 Y85.615 E6.71864
G1 X101.018 Y85.435 E6.73376
G1 X101.497 Y85.306 E6.74861
G1 X101.999 Y85.226 E6.76383
G1 X102.51 Y85.2 E6.77915
G1 X117.49 Y85.2 E7.22756
G1 X118.001 Y85.226 E7.24287
G1 X118.503 Y85.306 E7.25809
G1 X118.982 Y85.435 E7.27294
G1 X119.454 Y85.615 E7.28806
G1 X119.897 Y85.842 E7.30296
G1 X120.319 Y86.116 E7.31802
G1 X120.72 Y86.44 E7.33346
G1 X121.06 Y86.78 E7.34785
G1 X121.384 Y87.181 E7.36328
G1 X121.658 Y87.603 E7.37834
G1 X121.885 Y88.046 E7.39324
G1 X122.065 Y88.518 E7.40836
G1 X122.194 Y88.997 E7.42321
G1 X122.274 Y89.499 E7.43843
G1 X122.3 Y90.01 E7.45375
G1 X122.3 Y99.99 E7.75249
G1 X122.274 Y100.501 E7.7678
G1 X122.194 Y101.003 E7.78302
G1 X122.065 Y101.482 E7.79787
G1 X121.885 Y101.954 E7.81299
G1 X121.658 Y102.397 E7.82789
G1 X121.384 Y102.819 E7.84295
G1 X121.06 Y103.22 E7.85839
G1 X120.72 Y103.56 E7.87278
G1 X120.319 Y103.884 E7.88821
G1 X119.897 Y104.158 E7.90327
G1 X119.454 Y104.385 E7.91817
G1 X118.982 Y104.565 E7.93329
G1 X118.503 Y104.694 E7.94814
G1 X118.001 Y104.774 E7.96336
G1 X117.49 Y104.8 E7.97868
G1 X102.3 Y104.8 E8.43338
G0 F6000 X102.3 Y104.5
G0 X101.76 Y104.26
G0 X101.51 Y104.01
;TYPE:SKIN
G1 F1200 X101.51 Y134.01 E9.3314
G1 X98.49 Y134.01 E9.4218
G1 X98.49 Y90.03 E10.7383
G1 X98.512 Y89.588 E10.75155
G1 X98.583 Y89.146 E10.76495
G1 X98.682 Y88.778 E10.77636
G1 X98.84 Y88.361 E10.78971
G1 X99.026 Y88 E10.80186
G1 X99.255 Y87.647 E10.81446
G1 X99.534 Y87.302 E10.82774
G1 X99.802 Y87.034 E10.83909
G1 X100.147 Y86.755 E10.85237
G1 X100.5 Y86.526 E10.86496
G1 X100.861 Y86.34 E10.87712
G1 X101.277 Y86.183 E10.89043
G1 X101.646 Y86.083 E10.90187
G1 X102.088 Y86.012 E10.91527
G1 X102.53 Y85.99 E10.92852
G1 X117.47 Y85.99 E11.37574
G1 X117.912 Y86.012 E11.38898
G1 X118.354 Y86.083 E11.40238
G1 X118.723 Y86.183 E11.41383
G1 X119.139 Y86.34 E11.42714
G1 X119.5 Y86.526 E11.43929
G1 X119.853 Y86.755 E11.45189
G1 X120.198 Y87.034 E11.46517
G1 X120.466 Y87.302 E11.47652
G1 X120.745 Y87.647 E11.4898
G1 X120.974 Y88 E11.50239
G1 X121.16 Y88.361 E11.51455
G1 X121.318 Y88.778 E11.5279
G1 X121.417 Y89.146 E11.53931
G1 X121.488 Y89.588 E11.55271
G1 X121.51 Y90.03 E11.56595
G1 X121.51 Y99.97 E11.8635
G1 X121.488 Y100.412 E11.87675
G1 X121.417 Y100.853 E11.89012
G1 X121.318 Y101.222 E11.90155
G1 X121.16 Y101.639 E11.9149
G1 X120.974 Y102 E11.92706
G1 X120.745 Y102.353 E11.93965
G1 X120.466 Y102.698 E11.95294
G1 X120.198 Y102.966 E11.96428
G1 X119.853 Y103.245 E11.97756
G1 X119.5 Y103.474 E11.99016
G1 X119.139 Y103.66 E12.00231
G1 X118.723 Y103.817 E12.01562
G1 X118.354 Y103.917 E12.02707
G1 X117.912 Y103.988 E12.04047
G1 X117.47 Y104.01 E12.05372
G1 X101.51 Y104.01 E12.53146
G1 F2400 E5.53146
G0 F6000 X101.76 Y104.26
G0 X117.943 Y104.205
G0 X118.804 Y104.022
G0 X119.617 Y103.661
G0 X120.337 Y103.136
G0 X120.922 Y102.483
G0 X121.362 Y101.724
G0 X121.637 Y100.879
G0 X121.729 Y99.98
G0 X121.705 Y89.552
G0 X121.603 Y89.067
G0 X121.224 Y87.874
G1 F2400 E12.53146
G0 F6000 X120.866 Y88.056
G1 F1200 X119.443 Y86.634 E12.59168
G0 F6000 X119.626 Y86.276
G0 X118.593 Y85.859
G0 X118.488 Y86.244
G1 F1200 X121.256 Y89.012 E12.70886
G0 F6000 X121.372 Y89.694
G1 F1200 X117.806 Y86.127 E12.85984
G0 F6000 X117.222 Y86.11
G1 F1200 X121.389 Y90.277 E13.03625
G0 F6000 X121.389 Y90.842
G1 F1200 X116.657 Y86.11 E13.23657
G0 F6000 X116.091 Y86.11
G1 F1200 X121.389 Y91.408 E13.46085
G0 F6000 X121.389 Y91.974
G1 F1200 X115.525 Y86.11 E13.70909
G0 F6000 X114.96 Y86.11
G1 F1200 X121.389 Y92.539 E13.98125
G0 F6000 X121.389 Y93.105
G1 F1200 X114.394 Y86.11 E14.27737
G0 F6000 X113.828 Y86.11
G1 F1200 X121.389 Y93.671 E14.59745
G0 F6000 X121.389 Y94.236
G1 F1200 X113.262 Y86.11 E14.94147
G0 F6000 X112.697 Y86.11
G1 F1200 X121.389 Y94.802 E15.30944
G0 F6000 X121.389 Y95.368
G1 F1200 X112.131 Y86.11 E15.70136
G0 F6000 X111.565 Y86.11
G1 F1200 X121.389 Y95.933 E16.11722
G0 F6000 X121.389 Y96.499
G1 F1200 X111 Y86.11 E16.55702
G0 F6000 X110.434 Y86.11
G1 F1200 X121.389 Y97.065 E17.02078
G0 F6000 X121.389 Y97.63
G1 F1200 X109.868 Y86.11 E17.50848
G0 F6000 X109.303 Y86.11
G1 F1200 X121.389 Y98.196 E18.02012
G0 F6000 X121.389 Y98.762
G1 F1200 X108.737 Y86.11 E18.55572
G0 F6000 X108.171 Y86.11
G1 F1200 X121.389 Y99.327 E19.11526
G0 F6000 X121.389 Y99.893
G1 F1200 X107.606 Y86.11 E19.69874
G0 F6000 X107.04 Y86.11
G1 F1200 X121.363 Y100.433 E20.30508
G0 F6000 X121.277 Y100.912
G1 F1200 X106.474 Y86.11 E20.93171
G0 F6000 X105.909 Y86.11
G1 F1200 X121.143 Y101.344 E21.57662
G0 F6000 X120.972 Y101.739
G1 F1200 X105.343 Y86.11 E22.23824
G0 F6000 X104.777 Y86.11
G1 F1200 X120.766 Y102.098 E22.91509
G0 F6000 X120.529 Y102.427
G1 F1200 X104.211 Y86.11 E23.60586
G0 F6000 X103.646 Y86.11
G1 F1200 X120.265 Y102.729 E24.3094
G0 F6000 X119.967 Y102.996
G1 F1200 X103.08 Y86.11 E25.02426
G0 F6000 X102.516 Y86.111
G1 F1200 X119.641 Y103.236 E25.74921
G0 F6000 X119.286 Y103.447
G1 F1200 X101.988 Y86.149 E26.4815
G0 F6000 X101.515 Y86.242
G1 F1200 X118.896 Y103.622 E27.21727
G0 F6000 X118.468 Y103.76
G1 F1200 X101.09 Y86.382 E27.95294
G0 F6000 X100.701 Y86.559
G1 F1200 X117.994 Y103.852 E28.685
G0 F6000 X117.465 Y103.889
G1 F1200 X100.346 Y86.769 E29.40973
G0 F6000 X100.021 Y87.01
G1 F1200 X116.9 Y103.889 E30.12427
G0 F6000 X116.334 Y103.889
G1 F1200 X99.723 Y87.278 E30.82747
G0 F6000 X99.46 Y87.581
G1 F1200 X115.768 Y103.889 E31.51784
G0 F6000 X115.203 Y103.889
G1 F1200 X99.226 Y87.912 E32.1942
G0 F6000 X99.02 Y88.272
G1 F1200 X114.637 Y103.889 E32.85531
G0 F6000 X114.071 Y103.889
G1 F1200 X98.85 Y88.668 E33.49967
G0 F6000 X98.717 Y89.101
G1 F1200 X113.506 Y103.889 E34.12571
G0 F6000 X112.94 Y103.889
G1 F1200 X98.632 Y89.581 E34.73142
G0 F6000 X98.609 Y90.124
G1 F1200 X112.374 Y103.889 E35.31414
G0 F6000 X111.809 Y103.889
G1 F1200 X98.609 Y90.689 E35.87293
G0 F6000 X98.609 Y91.255
G1 F1200 X111.243 Y103.889 E36.40777
G0 F6000 X110.677 Y103.889
G1 F1200 X98.609 Y91.821 E36.91865
G0 F6000 X98.609 Y92.387
G1 F1200 X110.112 Y103.889 E37.40559
G0 F6000 X109.546 Y103.889
G1 F1200 X98.609 Y92.952 E37.86859
G0 F6000 X98.609 Y93.518
G1 F1200 X108.98 Y103.888 E38.3076
G0 F6000 X108.414 Y103.888
G1 F1200 X98.609 Y94.084 E38.72266
G0 F6000 X98.609 Y94.649
G1 F1200 X107.848 Y103.888 E39.11378
G0 F6000 X107.282 Y103.888
G1 F1200 X98.609 Y95.215 E39.48093
G0 F6000 X98.609 Y95.781
G1 F1200 X106.717 Y103.888 E39.82415
G0 F6000 X106.151 Y103.888
G1 F1200 X98.609 Y96.346 E40.14343
G0 F6000 X98.609 Y96.912
G1 F1200 X105.585 Y103.888 E40.43874
G0 F6000 X105.02 Y103.888
G1 F1200 X98.609 Y97.478 E40.71012
G0 F6000 X98.609 Y98.043
G1 F1200 X104.454 Y103.888 E40.95756
G0 F6000 X103.888 Y103.888
G1 F1200 X98.609 Y98.609 E41.18104
G0 F6000 X98.609 Y99.175
G1 F1200 X103.323 Y103.888 E41.38057
G0 F6000 X102.757 Y103.888
G1 F1200 X98.609 Y99.74 E41.55617
G0 F6000 X98.609 Y100.306
G1 F1200 X102.191 Y103.888 E41.70781
G0 F6000 X101.626 Y103.888
G1 F1200 X98.609 Y100.872 E41.83551
G0 F6000 X98.609 Y101.438
G1 F1200 X101.39 Y104.219 E41.95324
G0 F6000 X101.39 Y104.784
G1 F1200 X98.609 Y102.003 E42.07096
G0 F6000 X98.609 Y102.569
G1 F1200 X101.39 Y105.35 E42.18869
G0 F6000 X101.39 Y105.916
G1 F1200 X98.609 Y103.135 E42.30642
G0 F6000 X98.609 Y103.7
G1 F1200 X101.39 Y106.481 E42.42415
G0 F6000 X101.39 Y107.047
G1 F1200 X98.609 Y104.266 E42.54188
G0 F6000 X98.609 Y104.832
G1 F1200 X101.39 Y107.613 E42.65961
G0 F6000 X101.39 Y108.178
G1 F1200 X98.609 Y105.397 E42.77734
G0 F6000 X98.609 Y105.963
G1 F1200 X101.39 Y108.744 E42.89507
G0 F6000 X101.39 Y109.31
G1 F1200 X98.609 Y106.529 E43.01279
G0 F6000 X98.609 Y107.094
G1 F1200 X101.39 Y109.875 E43.13052
G0 F6000 X101.39 Y110.441
G1 F1200 X98.609 Y107.66 E43.24825
G0 F6000 X98.609 Y108.226
G1 F1200 X101.39 Y111.007 E43.36598
G0 F6000 X101.39 Y111.572
G1 F1200 X98.609 Y108.791 E43.48371
G0 F6000 X98.609 Y109.357
G1 F1200 X101.39 Y112.138 E43.60144
G0 F6000 X101.39 Y112.704
G1 F1200 X98.609 Y109.923 E43.71917
G0 F6000 X98.609 Y110.488
G1 F1200 X101.39 Y113.27 E43.83692
G0 F6000 X101.39 Y113.835
G1 F1200 X98.609 Y111.054 E43.95465
G0 F6000 X98.609 Y111.62
G1 F1200 X101.39 Y114.401 E44.07237
G0 F6000 X101.39 Y114.967
G1 F1200 X98.609 Y112.186 E44.1901
G0 F6000 X98.609 Y112.751
G1 F1200 X101.39 Y115.532 E44.30783
G0 F6000 X101.39 Y116.098
G1 F1200 X98.609 Y113.317 E44.42556
G0 F6000 X98.609 Y113.883
G1 F1200 X101.39 Y116.664 E44.54329
G0 F6000 X101.39 Y117.229
G1 F1200 X98.609 Y114.448 E44.66102
G0 F6000 X98.609 Y115.014
G1 F1200 X101.39 Y117.795 E44.77875
G0 F6000 X101.39 Y118.361
G1 F1200 X98.609 Y115.58 E44.89648
G0 F6000 X98.609 Y116.145
G1 F1200 X101.39 Y118.926 E45.0142
G0 F6000 X101.39 Y119.492
G1 F1200 X98.609 Y116.711 E45.13193
G0 F6000 X98.609 Y117.277
G1 F1200 X101.39 Y120.058 E45.24966
G0 F6000 X101.39 Y120.623
G1 F1200 X98.609 Y117.842 E45.36739
G0 F6000 X98.609 Y118.408
G1 F1200 X101.39 Y121.189 E45.48512
G0 F6000 X101.39 Y121.755
G1 F1200 X98.609 Y118.974 E45.60285
G0 F6000 X98.609 Y119.539
G1 F1200 X101.39 Y122.32 E45.72058
G0 F6000 X101.39 Y122.886
G1 F1200 X98.609 Y120.105 E45.83831
G0 F6000 X98.609 Y120.671
G1 F1200 X101.39 Y123.452 E45.95603
G0 F6000 X101.39 Y124.018
G1 F1200 X98.609 Y121.236 E46.07378
G0 F6000 X98.609 Y121.802
G1 F1200 X101.39 Y124.583 E46.19151
G0 F6000 X101.39 Y125.149
G1 F1200 X98.609 Y122.368 E46.30924
G0 F6000 X98.609 Y122.934
G1 F1200 X101.39 Y125.715 E46.42697
G0 F6000 X101.39 Y126.28
G1 F1200 X98.609 Y123.499 E46.5447
G0 F6000 X98.609 Y124.065
G1 F1200 X101.39 Y126.846 E46.66243
G0 F6000 X101.39 Y127.412
G1 F1200 X98.609 Y124.631 E46.78016
G0 F6000 X98.609 Y125.196
G1 F1200 X101.39 Y127.977 E46.89789
G0 F6000 X101.39 Y128.543
G1 F1200 X98.609 Y125.762 E47.01561
G0 F6000 X98.609 Y126.328
G1 F1200 X101.39 Y129.109 E47.13334
G0 F6000 X101.39 Y129.674
G1 F1200 X98.609 Y126.893 E47.25107
G0 F6000 X98.609 Y127.459
G1 F1200 X101.39 Y130.24 E47.3688
G0 F6000 X101.39 Y130.806
G1 F1200 X98.609 Y128.025 E47.48653
G0 F6000 X98.609 Y128.59
G1 F1200 X101.39 Y131.371 E47.60426
G0 F6000 X101.39 Y131.937
G1 F1200 X98.609 Y129.156 E47.72199
G0 F6000 X98.609 Y129.722
M104 S190
G1 F1200 X101.39 Y132.503 E47.83972
G0 F6000 X101.39 Y133.069
G1 F1200 X98.609 Y130.287 E47.95747
G0 F6000 X98.609 Y130.853
G1 F1200 X101.39 Y133.634 E48.07519
G0 F6000 X101.079 Y133.889
G1 F1200 X98.609 Y131.419 E48.17976
G0 F6000 X98.609 Y131.985
G1 F1200 X100.513 Y133.889 E48.26036
G0 F6000 X99.948 Y133.889
G1 F1200 X98.609 Y132.55 E48.31704
G0 F6000 X98.609 Y133.116
G1 F1200 X99.382 Y133.889 E48.34977
G0 F6000 X98.816 Y133.889
G1 F1200 X98.609 Y133.682 E48.35853
G0 F6000 X98.3 Y133.682
G1 F2400 E41.35853
;MESH:NONMESH
G0 F300 X98.3 Y133.682 Z0.4
G0 F6000 X98.21 Y133.682
G0 X98.282 Y134.218
G0 X101.718 Y134.218
G0 X101.9 Y104.4
;TIME_ELAPSED:88.256529
;LAYER:1
M106 S255
;TYPE:WALL-INNER
;MESH:ServoArm.stl
G1 F2400 E48.35853
G1 F1800 X101.9 Y134.4 E49.25655
G1 X98.1 Y134.4 E49.3703
G1 X98.1 Y90.01 E50.69908
G1 X98.124 Y89.545 E50.71302
G1 X98.198 Y89.079 E50.72714
G1 X98.314 Y88.648 E50.7405
G1 X98.483 Y88.204 E50.75472
G1 X98.689 Y87.802 E50.76824
G1 X98.94 Y87.416 E50.78203
G1 X99.234 Y87.052 E50.79603
G1 X99.552 Y86.734 E50.8095
G1 X99.916 Y86.44 E50.8235
G1 X100.302 Y86.189 E50.83728
G1 X100.704 Y85.983 E50.85081
G1 X101.148 Y85.814 E50.86503
G1 X101.579 Y85.698 E50.87839
G1 X102.045 Y85.624 E50.89251
G1 X102.51 Y85.6 E50.90645
G1 X117.49 Y85.6 E51.35486
G1 X117.955 Y85.624 E51.3688
G1 X118.421 Y85.698 E51.38292
G1 X118.852 Y85.814 E51.39629
G1 X119.296 Y85.983 E51.41051
G1 X119.698 Y86.189 E51.42403
G1 X120.084 Y86.44 E51.43781
G1 X120.448 Y86.734 E51.45182
G1 X120.766 Y87.052 E51.46528
G1 X121.06 Y87.416 E51.47928
G1 X121.311 Y87.802 E51.49307
G1 X121.517 Y88.204 E51.50659
G1 X121.686 Y88.648 E51.52081
G1 X121.802 Y89.079 E51.53417
G1 X121.876 Y89.545 E51.54829
G1 X121.9 Y90.01 E51.56223
G1 X121.9 Y99.99 E51.86098
G1 X121.876 Y100.455 E51.87491
G1 X121.802 Y100.921 E51.88904
G1 X121.686 Y101.352 E51.9024
G1 X121.517 Y101.796 E51.91662
G1 X121.311 Y102.198 E51.93014
G1 X121.06 Y102.584 E51.94392
G1 X120.766 Y102.948 E51.95793
G1 X120.448 Y103.266 E51.97139
G1 X120.084 Y103.56 E51.9854
G1 X119.698 Y103.811 E51.99918
G1 X119.296 Y104.017 E52.0127
G1 X118.852 Y104.186 E52.02692
G1 X118.421 Y104.302 E52.04028
G1 X117.955 Y104.376 E52.05441
G1 X117.49 Y104.4 E52.06835
G1 X101.9 Y104.4 E52.53502
G0 F8400 X102.3 Y104.8
;TYPE:WALL-OUTER
G1 F1500 X102.3 Y134.8 E53.43304
G1 X97.7 Y134.8 E53.57074
G1 X97.7 Y90.01 E54.91149
G1 X97.726 Y89.499 E54.9268
G1 X97.806 Y88.997 E54.94202
G1 X97.935 Y88.518 E54.95687
G1 X98.115 Y88.046 E54.97199
G1 X98.342 Y87.603 E54.98689
G1 X98.616 Y87.181 E55.00195
G1 X98.94 Y86.78 E55.01739
G1 X99.28 Y86.44 E55.03178
G1 X99.681 Y86.116 E55.04721
G1 X100.103 Y85.842 E55.06227
G1 X100.546 Y85.615 E55.07717
G1 X101.018 Y85.435 E55.09229
G1 X101.497 Y85.306 E55.10714
G1 X101.999 Y85.226 E55.12236
G1 X102.51 Y85.2 E55.13768
G1 X117.49 Y85.2 E55.58609
G1 X118.001 Y85.226 E55.60141
G1 X118.503 Y85.306 E55.61662
G1 X118.982 Y85.435 E55.63147
G1 X119.454 Y85.615 E55.64659
G1 X119.897 Y85.842 E55.66149
G1 X120.319 Y86.116 E55.67655
G1 X120.72 Y86.44 E55.69199
G1 X121.06 Y86.78 E55.70638
G1 X121.384 Y87.181 E55.72181
G1 X121.658 Y87.603 E55.73687
G1 X121.885 Y88.046 E55.75177
G1 X122.065 Y88.518 E55.76689
G1 X122.194 Y88.997 E55.78174
G1 X122.274 Y89.499 E55.79696
G1 X122.3 Y90.01 E55.81228
G1 X122.3 Y99.99 E56.11102
G1 X122.274 Y100.501 E56.12634
G1 X122.194 Y101.003 E56.14155
G1 X122.065 Y101.482 E56.1564
G1 X121.885 Y101.954 E56.17152
G1 X121.658 Y102.397 E56.18642
