;FLAVOR:Marlin
;TIME:6318
;Filament used: 5.87663m
;Layer height: 0.2
;MINX:79.935
;MINY:62.335
;MINZ:0.2
;MAXX:140.065
;MAXY:157.665
;MAXZ:22.6
;Generated with Cura_SteamEngine 4.13.1
M140 S60
M105
M190 S60
M104 S195
M105
M109 S195
M82 ;absolute extrusion mode
G28 ;Home
G92 E0 ;Reset Extruder
G1 Z2.0 F3000 ;Move bed down
G1 X10.1 Y20 Z0.28 F5000.0 ;Move to start position
G1 X10.1 Y200.0 Z0.28 F1500.0 E15 ;Draw the first line
G1 X10.4 Y200.0 Z0.28 F5000.0 ;Move to side a little
G1 X10.4 Y20 Z0.28 F1500.0 E30 ;Draw the second line
G92 E0 ;Reset Extruder
G1 Z2.0 F3000 ;Move Bed up
G92 E0
G92 E0
G1 F2400 E-7
;LAYER_COUNT:113
;LAYER:0
M107
;MESH:LoadCellHolder.stl
G0 F6000 X94.497 Y68.562 Z0.2
;TYPE:WALL-INNER
G1 F2400 E0
G1 F1200 X94.907 Y68.603 E0.01233
G1 X95.318 Y68.561 E0.0247
G1 X95.712 Y68.439 E0.03705
G1 X96.072 Y68.245 E0.04929
G1 X96.387 Y67.987 E0.06148
G1 X96.648 Y67.668 E0.07382
G1 X96.843 Y67.305 E0.08615
G1 X96.962 Y66.91 E0.0985
G1 X97.003 Y66.5 E0.11083
G1 X96.962 Y66.09 E0.12317
G1 X96.843 Y65.695 E0.13552
G1 X96.648 Y65.332 E0.14785
G1 X96.387 Y65.013 E0.16019
G1 X96.068 Y64.752 E0.17253
G1 X95.705 Y64.557 E0.18486
G1 X95.31 Y64.438 E0.19721
G1 X94.893 Y64.397 E0.20975
G1 X94.49 Y64.438 E0.22188
G1 X94.095 Y64.557 E0.23423
G1 X93.727 Y64.755 E0.24674
G1 X93.407 Y65.018 E0.25914
G1 X93.148 Y65.339 E0.27148
G1 X92.956 Y65.697 E0.28364
G1 X92.838 Y66.097 E0.29613
G1 X92.797 Y66.507 E0.30846
G1 X92.839 Y66.918 E0.32083
G1 X92.961 Y67.312 E0.33317
G1 X93.155 Y67.673 E0.34544
G1 X93.418 Y67.993 E0.35784
G1 X93.739 Y68.252 E0.37019
G1 X94.097 Y68.444 E0.38235
G1 X94.497 Y68.562 E0.39483
G0 F6000 X94.574 Y68.168
;TYPE:WALL-OUTER
G1 F1200 X94.906 Y68.201 E0.40482
G1 X95.238 Y68.167 E0.41481
G1 X95.557 Y68.068 E0.42481
G1 X95.849 Y67.911 E0.43473
G1 X96.103 Y67.703 E0.44456
G1 X96.314 Y67.445 E0.45454
G1 X96.472 Y67.151 E0.46453
G1 X96.568 Y66.832 E0.4745
G1 X96.601 Y66.5 E0.48449
G1 X96.568 Y66.168 E0.49447
G1 X96.472 Y65.849 E0.50444
G1 X96.314 Y65.555 E0.51444
G1 X96.103 Y65.297 E0.52441
G1 X95.845 Y65.086 E0.53439
G1 X95.551 Y64.928 E0.54438
G1 X95.232 Y64.832 E0.55435
G1 X94.894 Y64.799 E0.56452
G1 X94.568 Y64.832 E0.57433
G1 X94.249 Y64.928 E0.5843
G1 X93.951 Y65.089 E0.59444
G1 X93.693 Y65.301 E0.60443
G1 X93.483 Y65.561 E0.61444
G1 X93.328 Y65.85 E0.62425
G1 X93.232 Y66.174 E0.63437
G1 X93.199 Y66.506 E0.64436
G1 X93.233 Y66.838 E0.65435
G1 X93.332 Y67.157 E0.66435
G1 X93.489 Y67.449 E0.67427
G1 X93.701 Y67.707 E0.68427
G1 X93.961 Y67.917 E0.69427
G1 X94.25 Y68.072 E0.70409
G1 X94.574 Y68.168 E0.7142
G0 F6000 X94.49 Y68.599
G1 F2400 E-6.2858
G0 F6000 X95.357 Y68.749
G0 X95.066 Y67.315
G0 X122.365 Y104.201
G0 X120.93 Y104.201
G0 X121.1 Y101.05
;TYPE:WALL-INNER
G1 F2400 E0.7142
G1 F1200 X121.1 Y118.95 E1.25002
G1 X135 Y118.95 E1.66611
G1 X135 Y101.05 E2.20193
G1 X130.767 Y101.05 E2.32864
G1 X130.767 Y99.05 E2.38851
G1 X125.333 Y99.05 E2.55117
G1 X125.333 Y101.05 E2.61104
G1 X121.1 Y101.05 E2.73775
G0 F6000 X121.5 Y101.45
;TYPE:WALL-OUTER
G1 F1200 X121.5 Y118.55 E3.24962
G1 X134.6 Y118.55 E3.64176
G1 X134.6 Y101.45 E4.15363
G1 X130.367 Y101.45 E4.28034
G1 X130.367 Y99.45 E4.34021
G1 X125.733 Y99.45 E4.47893
G1 X125.733 Y101.45 E4.53879
G1 X121.5 Y101.45 E4.66551
G1 F2400 E-2.33449
G0 F6000 X121.5 Y101.15
G0 X120.93 Y104.201
G0 X122.365 Y104.201
G0 X95.487 Y152.91
G0 X96.517 Y151.871
G0 X96.842 Y153.5
G0 X96.694 Y154.243
G0 X96.273 Y154.873
G0 X95.65 Y155.289
G0 X94.497 Y155.562
;TYPE:WALL-INNER
G1 F2400 E4.66551
G1 F1200 X94.907 Y155.603 E4.67784
G1 X95.318 Y155.561 E4.69021
G1 X95.712 Y155.439 E4.70255
G1 X96.072 Y155.245 E4.71479
G1 X96.387 Y154.987 E4.72698
G1 X96.648 Y154.668 E4.73932
G1 X96.843 Y154.305 E4.75166
G1 X96.962 Y153.91 E4.764
G1 X97.003 Y153.5 E4.77634
G1 X96.961 Y153.082 E4.78891
G1 X96.839 Y152.688 E4.80126
G1 X96.645 Y152.327 E4.81353
G1 X96.382 Y152.007 E4.82593
G1 X96.061 Y151.748 E4.83827
G1 X95.705 Y151.557 E4.85037
G1 X95.31 Y151.438 E4.86272
G1 X94.9 Y151.397 E4.87505
G1 X94.49 Y151.438 E4.88738
G1 X94.095 Y151.557 E4.89973
G1 X93.731 Y151.752 E4.91209
G1 X93.408 Y152.018 E4.92462
G1 X93.148 Y152.339 E4.93699
G1 X92.956 Y152.697 E4.94915
G1 X92.838 Y153.097 E4.96163
G1 X92.797 Y153.507 E4.97396
G1 X92.839 Y153.918 E4.98633
G1 X92.961 Y154.312 E4.99868
G1 X93.155 Y154.673 E5.01095
G1 X93.418 Y154.993 E5.02334
G1 X93.739 Y155.252 E5.03569
G1 X94.097 Y155.444 E5.04785
G1 X94.497 Y155.562 E5.06033
G0 F6000 X94.574 Y155.168
;TYPE:WALL-OUTER
G1 F1200 X94.906 Y155.201 E5.07032
G1 X95.238 Y155.167 E5.08031
G1 X95.557 Y155.068 E5.09031
G1 X95.849 Y154.911 E5.10023
G1 X96.103 Y154.703 E5.11006
G1 X96.314 Y154.445 E5.12004
G1 X96.472 Y154.151 E5.13003
G1 X96.568 Y153.832 E5.14
G1 X96.601 Y153.5 E5.14999
G1 X96.567 Y153.162 E5.16016
G1 X96.468 Y152.843 E5.17016
G1 X96.311 Y152.551 E5.18008
G1 X96.099 Y152.293 E5.19008
G1 X95.839 Y152.083 E5.20008
G1 X95.551 Y151.928 E5.20987
G1 X95.232 Y151.832 E5.21984
G1 X94.9 Y151.799 E5.22983
G1 X94.568 Y151.832 E5.23982
G1 X94.249 Y151.928 E5.24979
G1 X93.955 Y152.086 E5.25978
G1 X93.693 Y152.301 E5.26993
G1 X93.483 Y152.561 E5.27993
G1 X93.328 Y152.85 E5.28975
G1 X93.232 Y153.174 E5.29986
G1 X93.199 Y153.506 E5.30985
G1 X93.233 Y153.838 E5.31984
G1 X93.332 Y154.157 E5.32984
G1 X93.489 Y154.449 E5.33976
G1 X93.701 Y154.707 E5.34976
G1 X93.961 Y154.917 E5.35976
G1 X94.25 Y155.072 E5.36958
G1 X94.574 Y155.168 E5.37969
G0 F6000 X94.49 Y155.599
G1 F2400 E-1.62031
G0 F6000 X96.522 Y155.122
G0 X96.522 Y156.19
G0 X138.8 Y156.4
;TYPE:WALL-INNER
G1 F2400 E5.37969
G1 F1200 X81.2 Y156.4 E7.1039
G1 X81.2 Y63.6 E9.88179
G1 X138.8 Y63.6 E11.60599
G1 X138.8 Y156.4 E14.38388
G0 F6000 X139.2 Y156.8
;TYPE:WALL-OUTER
G1 F1200 X80.8 Y156.8 E16.13203
G1 X80.8 Y63.2 E18.93386
G1 X139.2 Y63.2 E20.68202
G1 X139.2 Y156.8 E23.48385
G0 F6000 X138.93 Y156.53
G0 X138.69 Y156.01
G0 X138.41 Y156.01
;TYPE:SKIN
G1 F1200 X81.59 Y156.01 E25.18471
G1 X81.59 Y63.99 E27.93925
G1 X138.41 Y63.99 E29.6401
G1 X138.41 Y156.01 E32.39464
G1 F2400 E25.39464
G0 F6000 X138.69 Y156.01
G0 X138.59 Y119.09
G0 X135.19 Y119.09
G1 F2400 E32.39464
G0 F6000 X135.39 Y119.34
G1 F1200 X135.39 Y100.66 E32.95381
G1 X131.157 Y100.66 E33.08052
G1 X131.157 Y98.66 E33.14039
G1 X124.943 Y98.66 E33.3264
G1 X124.943 Y100.66 E33.38627
G1 X120.71 Y100.66 E33.51298
G1 X120.71 Y119.34 E34.07215
G1 X135.39 Y119.34 E34.51158
G1 F2400 E27.51158
G0 F6000 X135.11 Y119.09
G0 X133.073 Y119.12
G0 X133.073 Y117.685
G0 X95.487 Y152.91
G0 X96.517 Y151.871
G0 X97.114 Y153.499
G1 F2400 E34.51158
G0 F6000 X97.395 Y153.5
G1 F1200 X97.345 Y153.004 E34.5265
G1 X97.2 Y152.536 E34.54117
G1 X96.971 Y152.109 E34.55567
G1 X96.658 Y151.728 E34.57043
G1 X96.277 Y151.422 E34.58506
G1 X95.855 Y151.195 E34.59941
G1 X95.386 Y151.054 E34.61407
G1 X94.9 Y151.005 E34.62869
G1 X94.414 Y151.054 E34.64331
G1 X93.945 Y151.195 E34.65797
G1 X93.513 Y151.426 E34.67263
G1 X93.129 Y151.742 E34.68752
G1 X92.822 Y152.122 E34.70214
G1 X92.593 Y152.548 E34.71662
G1 X92.454 Y153.021 E34.73138
G1 X92.405 Y153.507 E34.746
G1 X92.455 Y153.996 E34.76071
G1 X92.6 Y154.464 E34.77538
G1 X92.829 Y154.891 E34.78988
G1 X93.142 Y155.272 E34.80464
G1 X93.523 Y155.578 E34.81927
G1 X93.948 Y155.807 E34.83372
G1 X94.421 Y155.946 E34.84848
G1 X94.907 Y155.995 E34.8631
G1 X95.396 Y155.945 E34.87782
G1 X95.864 Y155.8 E34.89248
G1 X96.29 Y155.571 E34.90696
G1 X96.664 Y155.264 E34.92144
G1 X96.974 Y154.886 E34.93608
G1 X97.205 Y154.455 E34.95072
G1 X97.346 Y153.986 E34.96538
G1 X97.395 Y153.5 E34.98
G1 F2400 E27.98
G0 F6000 X97.114 Y153.499
G0 X96.517 Y151.871
G0 X95.487 Y152.91
G0 X94.904 Y67.332
G0 X94.907 Y68.794
G0 X95.757 Y68.541
G1 F2400 E34.98
G0 F6000 X95.864 Y68.8
G1 F1200 X96.29 Y68.571 E34.99447
G1 X96.664 Y68.264 E35.00896
G1 X96.974 Y67.886 E35.02359
G1 X97.205 Y67.455 E35.03823
G1 X97.346 Y66.986 E35.05289
G1 X97.395 Y66.5 E35.06751
G1 X97.346 Y66.014 E35.08213
G1 X97.205 Y65.545 E35.09679
G1 X96.974 Y65.114 E35.11143
G1 X96.664 Y64.736 E35.12606
G1 X96.286 Y64.426 E35.1407
G1 X95.855 Y64.195 E35.15534
G1 X95.386 Y64.054 E35.17
G1 X94.893 Y64.005 E35.18483
G1 X94.414 Y64.054 E35.19924
G1 X93.945 Y64.195 E35.2139
G1 X93.509 Y64.429 E35.22871
G1 X93.128 Y64.742 E35.24347
G1 X92.822 Y65.123 E35.2581
G1 X92.593 Y65.548 E35.27255
G1 X92.454 Y66.021 E35.28731
G1 X92.405 Y66.507 E35.30193
G1 X92.455 Y66.996 E35.31664
G1 X92.6 Y67.464 E35.33131
G1 X92.829 Y67.891 E35.34581
G1 X93.142 Y68.272 E35.36057
G1 X93.523 Y68.578 E35.3752
G1 X93.948 Y68.807 E35.38965
G1 X94.421 Y68.946 E35.40441
G1 X94.907 Y68.995 E35.41903
G1 X95.396 Y68.945 E35.43375
G1 X95.864 Y68.8 E35.44841
G1 F2400 E28.44841
G0 F6000 X95.757 Y68.541
G0 X96.807 Y67.774
G0 X95.591 Y66.964
G0 X140.065 Y67.774
G0 X138.59 Y67.774
G0 X138.69 Y64.184
G1 F2400 E35.44841
G0 F6000 X138.289 Y64.184
G1 F1200 X138.214 Y64.109 E35.45159
G0 F6000 X137.648 Y64.109
G1 F1200 X138.289 Y64.75 E35.47872
G0 F6000 X138.289 Y65.316
G1 F1200 X137.083 Y64.109 E35.5298
G0 F6000 X136.517 Y64.109
G1 F1200 X138.289 Y65.881 E35.60481
G0 F6000 X138.289 Y66.447
G1 F1200 X135.951 Y64.109 E35.70379
G0 F6000 X135.386 Y64.109
G1 F1200 X138.289 Y67.013 E35.8267
G0 F6000 X138.289 Y67.578
G1 F1200 X134.82 Y64.109 E35.97356
G0 F6000 X134.254 Y64.109
G1 F1200 X138.289 Y68.144 E36.14437
G0 F6000 X138.289 Y68.71
G1 F1200 X133.689 Y64.109 E36.33913
G0 F6000 X133.123 Y64.109
G1 F1200 X138.289 Y69.275 E36.55782
G0 F6000 X138.289 Y69.841
G1 F1200 X132.557 Y64.109 E36.80047
G0 F6000 X131.992 Y64.109
G1 F1200 X138.289 Y70.407 E37.06707
G0 F6000 X138.289 Y70.973
G1 F1200 X131.426 Y64.109 E37.35762
G0 F6000 X130.86 Y64.109
G1 F1200 X138.289 Y71.538 E37.67211
G0 F6000 X138.289 Y72.104
G1 F1200 X130.295 Y64.109 E38.01055
G0 F6000 X129.729 Y64.109
G1 F1200 X138.289 Y72.67 E38.37294
G0 F6000 X138.289 Y73.235
G1 F1200 X129.163 Y64.109 E38.75927
G0 F6000 X128.597 Y64.109
G1 F1200 X138.289 Y73.801 E39.16957
G0 F6000 X138.289 Y74.367
G1 F1200 X128.032 Y64.109 E39.6038
G0 F6000 X127.466 Y64.109
G1 F1200 X138.289 Y74.932 E40.06197
G0 F6000 X138.289 Y75.498
G1 F1200 X126.9 Y64.109 E40.54411
G0 F6000 X126.335 Y64.109
G1 F1200 X138.289 Y76.064 E41.05018
G0 F6000 X138.289 Y76.629
G1 F1200 X125.769 Y64.109 E41.58019
G0 F6000 X125.203 Y64.109
G1 F1200 X138.289 Y77.195 E42.13416
G0 F6000 X138.289 Y77.761
G1 F1200 X124.638 Y64.109 E42.71208
G0 F6000 X124.072 Y64.109
G1 F1200 X138.289 Y78.326 E43.31393
G0 F6000 X138.289 Y78.892
G1 F1200 X123.506 Y64.109 E43.93974
G0 F6000 X122.941 Y64.109
G1 F1200 X138.289 Y79.458 E44.58949
G0 F6000 X138.289 Y80.023
G1 F1200 X122.375 Y64.109 E45.26318
G0 F6000 X121.809 Y64.109
G1 F1200 X138.289 Y80.589 E45.96084
G0 F6000 X138.289 Y81.155
G1 F1200 X121.244 Y64.109 E46.68243
G0 F6000 X120.678 Y64.109
G1 F1200 X138.289 Y81.721 E47.42798
G0 F6000 X138.289 Y82.286
G1 F1200 X120.112 Y64.109 E48.19747
G0 F6000 X119.547 Y64.109
G1 F1200 X138.289 Y82.852 E48.9909
G0 F6000 X138.289 Y83.418
G1 F1200 X118.981 Y64.109 E49.80829
G0 F6000 X118.415 Y64.109
G1 F1200 X138.289 Y83.983 E50.64962
G0 F6000 X138.289 Y84.549
G1 F1200 X117.849 Y64.109 E51.51491
G0 F6000 X117.284 Y64.109
G1 F1200 X138.289 Y85.115 E52.40415
G0 F6000 X138.289 Y85.68
G1 F1200 X116.718 Y64.109 E53.31732
G0 F6000 X116.152 Y64.109
G1 F1200 X138.289 Y86.246 E54.25445
G0 F6000 X138.289 Y86.812
G1 F1200 X115.587 Y64.109 E55.21552
G0 F6000 X115.021 Y64.109
G1 F1200 X138.289 Y87.377 E56.20053
G0 F6000 X138.289 Y87.943
G1 F1200 X114.455 Y64.109 E57.2095
G0 F6000 X113.89 Y64.109
G1 F1200 X138.289 Y88.509 E58.24241
G0 F6000 X138.289 Y89.074
G1 F1200 X113.324 Y64.109 E59.29926
G0 F6000 X112.758 Y64.109
G1 F1200 X138.289 Y89.64 E60.38007
G0 F6000 X138.289 Y90.206
G1 F1200 X112.193 Y64.109 E61.48482
G0 F6000 X111.627 Y64.109
G1 F1200 X138.289 Y90.772 E62.61353
G0 F6000 X138.289 Y91.337
G1 F1200 X111.061 Y64.109 E63.76618
G0 F6000 X110.496 Y64.109
G1 F1200 X138.289 Y91.903 E64.94276
G0 F6000 X138.289 Y92.469
G1 F1200 X109.93 Y64.109 E66.14331
G0 F6000 X109.364 Y64.109
G1 F1200 X138.289 Y93.034 E67.3678
G0 F6000 X138.289 Y93.6
G1 F1200 X108.798 Y64.109 E68.61625
G0 F6000 X108.233 Y64.109
G1 F1200 X138.289 Y94.166 E69.88864
G0 F6000 X138.289 Y94.731
G1 F1200 X107.667 Y64.109 E71.18497
G0 F6000 X107.101 Y64.109
G1 F1200 X138.289 Y95.297 E72.50526
G0 F6000 X138.289 Y95.863
G1 F1200 X106.536 Y64.109 E73.84949
G0 F6000 X105.97 Y64.109
G1 F1200 X138.289 Y96.428 E75.21766
G0 F6000 X138.289 Y96.994
G1 F1200 X105.404 Y64.109 E76.60978
G0 F6000 X104.839 Y64.109
G1 F1200 X138.289 Y97.56 E78.02585
G0 F6000 X138.289 Y98.125
G1 F1200 X104.273 Y64.109 E79.46586
G0 F6000 X103.707 Y64.109
G1 F1200 X138.289 Y98.691 E80.92983
G0 F6000 X138.289 Y99.257
G1 F1200 X103.142 Y64.109 E82.41774
G0 F6000 X102.576 Y64.109
G1 F1200 X138.289 Y99.822 E83.92958
G0 F6000 X138.289 Y100.388
G1 F1200 X102.01 Y64.109 E85.46539
G0 F6000 X101.445 Y64.109
G1 F1200 X138.289 Y100.954 E87.02514
G0 F6000 X138.289 Y101.52
G1 F1200 X100.879 Y64.109 E88.60885
G0 F6000 X100.313 Y64.109
G1 F1200 X138.289 Y102.085 E90.21649
G0 F6000 X138.289 Y102.651
G1 F1200 X99.748 Y64.109 E91.84808
G0 F6000 X99.182 Y64.109
G1 F1200 X138.289 Y103.217 E93.50363
G0 F6000 X138.289 Y103.782
G1 F1200 X135.509 Y101.002 E93.62131
G0 F6000 X135.509 Y101.568
G1 F1200 X138.289 Y104.348 E93.739
G0 F6000 X138.289 Y104.914
G1 F1200 X135.509 Y102.133 E93.85671
G0 F6000 X135.509 Y102.699
G1 F1200 X138.289 Y105.479 E93.97439
G0 F6000 X138.289 Y106.045
G1 F1200 X135.509 Y103.265 E94.09208
G0 F6000 X135.509 Y103.83
G1 F1200 X138.289 Y106.611 E94.20979
G0 F6000 X138.289 Y107.176
G1 F1200 X135.509 Y104.396 E94.32747
G0 F6000 X135.509 Y104.962
G1 F1200 X138.289 Y107.742 E94.44516
G0 F6000 X138.289 Y108.308
G1 F1200 X135.509 Y105.527 E94.56287
G0 F6000 X135.509 Y106.093
G1 F1200 X138.289 Y108.873 E94.68055
G0 F6000 X138.289 Y109.439
G1 F1200 X135.509 Y106.659 E94.79824
G0 F6000 X135.509 Y107.224
G1 F1200 X138.289 Y110.005 E94.91595
G0 F6000 X138.289 Y110.57
G1 F1200 X135.509 Y107.79 E95.03363
G0 F6000 X135.509 Y108.356
G1 F1200 X138.289 Y111.136 E95.15132
G0 F6000 X138.289 Y111.702
G1 F1200 X135.509 Y108.922 E95.26901
G0 F6000 X135.509 Y109.487
G1 F1200 X138.289 Y112.268 E95.38671
G0 F6000 X138.289 Y112.833
G1 F1200 X135.509 Y110.053 E95.5044
G0 F6000 X135.509 Y110.619
G1 F1200 X138.289 Y113.399 E95.62209
G0 F6000 X138.289 Y113.965
G1 F1200 X135.509 Y111.184 E95.73979
G0 F6000 X135.509 Y111.75
G1 F1200 X138.289 Y114.53 E95.85748
G0 F6000 X138.289 Y115.096
G1 F1200 X135.509 Y112.316 E95.97517
G0 F6000 X135.509 Y112.881
G1 F1200 X138.289 Y115.662 E96.09288
G0 F6000 X138.289 Y116.227
G1 F1200 X135.509 Y113.447 E96.21056
G0 F6000 X135.509 Y114.013
G1 F1200 X138.289 Y116.793 E96.32825
G0 F6000 X138.289 Y117.359
G1 F1200 X135.509 Y114.578 E96.44596
G0 F6000 X135.509 Y115.144
G1 F1200 X138.289 Y117.924 E96.56364
G0 F6000 X138.289 Y118.49
G1 F1200 X135.509 Y115.71 E96.68133
G0 F6000 X135.509 Y116.275
G1 F1200 X138.289 Y119.056 E96.79904
G0 F6000 X138.289 Y119.621
G1 F1200 X135.509 Y116.841 E96.91672
G0 F6000 X135.509 Y117.407
G1 F1200 X138.289 Y120.187 E97.03441
G0 F6000 X138.289 Y120.753
G1 F1200 X135.509 Y117.972 E97.15212
G0 F6000 X135.509 Y118.538
G1 F1200 X138.289 Y121.319 E97.26982
G0 F6000 X138.289 Y121.884
G1 F1200 X135.509 Y119.104 E97.38751
G0 F6000 X135.299 Y119.46
G1 F1200 X138.289 Y122.45 E97.51409
G0 F6000 X138.289 Y123.016
G1 F1200 X134.733 Y119.46 E97.66462
G0 F6000 X134.167 Y119.46
G1 F1200 X138.289 Y123.581 E97.8391
G0 F6000 X138.289 Y124.147
G1 F1200 X133.602 Y119.46 E98.03752
G0 F6000 X133.036 Y119.46
G1 F1200 X138.289 Y124.713 E98.25989
G0 F6000 X138.289 Y125.278
G1 F1200 X132.47 Y119.46 E98.50621
G0 F6000 X131.905 Y119.46
G1 F1200 X138.289 Y125.844 E98.77646
G0 F6000 X138.289 Y126.41
G1 F1200 X131.339 Y119.46 E99.07068
G0 F6000 X130.773 Y119.46
G1 F1200 X138.289 Y126.975 E99.38884
G0 F6000 X138.289 Y127.541
G1 F1200 X130.208 Y119.46 E99.73093
G0 F6000 X129.642 Y119.46
G1 F1200 X138.289 Y128.107 E100.09699
G0 F6000 X138.289 Y128.672
G1 F1200 X129.076 Y119.46 E100.48698
G0 F6000 X128.511 Y119.46
G1 F1200 X138.289 Y129.238 E100.90092
G0 F6000 X138.289 Y129.804
