;FLAVOR:Marlin
;TIME:7962
;Filament used: 7.93919m
;Layer height: 0.2
;MINX:81.835
;MINY:60.2
;MINZ:0.2
;MAXX:137.3
;MAXY:160.665
;MAXZ:23
;Generated with Cura_SteamEngine 4.13.1
M140 S60
M105
M190 S60
M104 S195
M105
M109 S195
M82 ;absolute extrusion mode
G28 ;Home
G92 E0 ;Reset Extruder
G1 Z2.0 F3000 ;Move bed down
G1 X10.1 Y20 Z0.28 F5000.0 ;Move to start position
G1 X10.1 Y200.0 Z0.28 F1500.0 E15 ;Draw the first line
G1 X10.4 Y200.0 Z0.28 F5000.0 ;Move to side a little
G1 X10.4 Y20 Z0.28 F1500.0 E30 ;Draw the second line
G92 E0 ;Reset Extruder
G1 Z2.0 F3000 ;Move Bed up
G92 E0
G92 E0
G1 F2400 E-7
;LAYER_COUNT:115
;LAYER:0
M107
;MESH:Cover_A.stl
G0 F6000 X94.4 Y72.9 Z0.2
;TYPE:WALL-INNER
G1 F2400 E0
G1 F1200 X94.4 Y147.1 E2.22111
G1 X120.6 Y147.1 E3.00539
G1 X120.6 Y72.9 E5.2265
G1 X94.4 Y72.9 E6.01077
G0 F6000 X94.8 Y73.3
;TYPE:WALL-OUTER
G1 F1200 X94.8 Y146.7 E8.20794
G1 X120.2 Y146.7 E8.96826
G1 X120.2 Y73.3 E11.16543
G1 X94.8 Y73.3 E11.92575
G1 F2400 E4.92575
G0 F6000 X94.5 Y73.3
G0 X94.23 Y76.789
G0 X95.665 Y76.789
G0 X120.79 Y160.665
G0 X120.79 Y159.19
G0 X122.484 Y159.4
;TYPE:WALL-INNER
G1 F2400 E11.92575
G1 F1200 X83.1 Y159.4 E13.10468
G1 X83.1 Y60.6 E16.06217
G1 X122.498 Y60.6 E17.24152
G1 X123.27 Y60.622 E17.26463
G1 X124.029 Y60.682 E17.28742
G1 X124.759 Y60.779 E17.30947
G1 X125.506 Y60.917 E17.33221
G1 X126.246 Y61.096 E17.355
G1 X126.959 Y61.308 E17.37726
G1 X127.674 Y61.562 E17.39998
G1 X128.369 Y61.852 E17.42252
G1 X129.043 Y62.173 E17.44487
G1 X129.719 Y62.542 E17.46792
G1 X130.356 Y62.932 E17.49028
G1 X130.963 Y63.35 E17.51234
G1 X131.578 Y63.823 E17.53557
G1 X132.15 Y64.313 E17.55811
G1 X132.689 Y64.824 E17.58034
G1 X133.214 Y65.38 E17.60323
G1 X133.689 Y65.937 E17.62515
G1 X134.167 Y66.561 E17.64868
G1 X134.582 Y67.165 E17.67061
G1 X134.967 Y67.795 E17.69271
G1 X135.339 Y68.481 E17.71607
G1 X135.658 Y69.152 E17.73831
G1 X135.95 Y69.858 E17.76118
G1 X136.194 Y70.55 E17.78315
G1 X136.416 Y71.303 E17.80665
G1 X136.589 Y72.025 E17.82887
G1 X136.723 Y72.756 E17.85112
G1 X136.823 Y73.514 E17.87401
G1 X136.879 Y74.246 E17.89598
G1 X136.9 Y75 E17.91856
G1 X136.9 Y144.998 E20.01389
G1 X136.879 Y145.763 E20.0368
G1 X136.819 Y146.526 E20.05971
G1 X136.722 Y147.253 E20.08166
G1 X136.583 Y148.004 E20.10452
G1 X136.404 Y148.746 E20.12737
G1 X136.192 Y149.459 E20.14964
G1 X135.938 Y150.174 E20.17235
G1 X135.65 Y150.865 E20.19476
G1 X135.331 Y151.536 E20.217
G1 X134.958 Y152.219 E20.2403
G1 X134.568 Y152.856 E20.26266
G1 X134.15 Y153.463 E20.28472
G1 X133.677 Y154.078 E20.30794
G1 X133.189 Y154.648 E20.3304
G1 X132.676 Y155.189 E20.35272
G1 X132.12 Y155.714 E20.37561
G1 X131.563 Y156.189 E20.39752
G1 X130.943 Y156.664 E20.4209
G1 X130.34 Y157.078 E20.4428
G1 X129.682 Y157.479 E20.46586
G1 X129.027 Y157.835 E20.48818
G1 X128.348 Y158.158 E20.51069
G1 X127.641 Y158.45 E20.53359
G1 X126.95 Y158.694 E20.55552
G1 X126.201 Y158.915 E20.5789
G1 X125.477 Y159.088 E20.60118
G1 X124.744 Y159.223 E20.62349
G1 X123.984 Y159.323 E20.64644
G1 X123.245 Y159.379 E20.66862
G1 X122.484 Y159.4 E20.69141
G0 F6000 X122.495 Y159.8
;TYPE:WALL-OUTER
G1 F1200 X82.7 Y159.8 E21.88264
G1 X82.7 Y60.2 E24.86408
G1 X122.509 Y60.2 E26.05572
G1 X123.294 Y60.222 E26.07923
G1 X124.061 Y60.283 E26.10226
G1 X124.826 Y60.385 E26.12537
G1 X125.598 Y60.528 E26.14887
G1 X126.34 Y60.707 E26.17172
G1 X127.093 Y60.931 E26.19523
G1 X127.813 Y61.187 E26.21811
G1 X128.533 Y61.487 E26.24146
G1 X129.228 Y61.818 E26.2645
G1 X129.917 Y62.194 E26.288
G1 X130.57 Y62.594 E26.31092
G1 X131.207 Y63.033 E26.33408
G1 X131.83 Y63.512 E26.3576
G1 X132.41 Y64.009 E26.38046
G1 X132.98 Y64.549 E26.40397
G1 X133.505 Y65.105 E26.42686
G1 X134.007 Y65.694 E26.45002
G1 X134.485 Y66.318 E26.47355
G1 X134.917 Y66.947 E26.49639
G1 X135.319 Y67.604 E26.51945
G1 X135.691 Y68.29 E26.54281
G1 X136.028 Y68.999 E26.56631
G1 X136.32 Y69.705 E26.58918
G1 X136.578 Y70.437 E26.61241
G1 X136.8 Y71.19 E26.63591
G1 X136.978 Y71.932 E26.65875
G1 X137.12 Y72.704 E26.68225
G1 X137.22 Y73.462 E26.70514
G1 X137.279 Y74.235 E26.72834
G1 X137.3 Y75 E26.75125
G1 X137.3 Y145.009 E28.84691
G1 X137.278 Y145.794 E28.87042
G1 X137.218 Y146.557 E28.89333
G1 X137.115 Y147.326 E28.91655
G1 X136.972 Y148.098 E28.94005
G1 X136.793 Y148.84 E28.9629
G1 X136.569 Y149.593 E28.98642
G1 X136.313 Y150.313 E29.00929
G1 X136.015 Y151.029 E29.03251
G1 X135.682 Y151.728 E29.05569
G1 X135.306 Y152.417 E29.07918
G1 X134.906 Y153.07 E29.1021
G1 X134.467 Y153.707 E29.12526
G1 X133.988 Y154.33 E29.14879
G1 X133.491 Y154.91 E29.17165
G1 X132.951 Y155.48 E29.19515
G1 X132.395 Y156.005 E29.21804
G1 X131.806 Y156.507 E29.24121
G1 X131.182 Y156.985 E29.26474
G1 X130.553 Y157.417 E29.28758
G1 X129.89 Y157.821 E29.31082
G1 X129.204 Y158.194 E29.3342
G1 X128.501 Y158.528 E29.35749
G1 X127.795 Y158.82 E29.38036
G1 X127.063 Y159.078 E29.4036
G1 X126.31 Y159.3 E29.4271
G1 X125.568 Y159.478 E29.44994
G1 X124.796 Y159.62 E29.47343
G1 X124.03 Y159.721 E29.49656
G1 X123.265 Y159.779 E29.51953
G1 X122.495 Y159.8 E29.54259
G0 F6000 X122.49 Y159.361
G0 X122.473 Y159.01
;TYPE:SKIN
G1 F1200 X83.49 Y159.01 E30.70951
G1 X83.49 Y60.99 E33.64365
G1 X122.487 Y60.99 E34.81099
G1 X123.259 Y61.012 E34.83411
G1 X123.986 Y61.07 E34.85594
G1 X124.688 Y61.163 E34.87714
G1 X125.428 Y61.3 E34.89967
G1 X126.144 Y61.473 E34.92171
G1 X126.838 Y61.679 E34.94338
G1 X127.533 Y61.926 E34.96546
G1 X128.205 Y62.207 E34.98727
G1 X128.865 Y62.521 E35.00915
G1 X129.532 Y62.885 E35.03189
G1 X130.153 Y63.265 E35.05368
G1 X130.725 Y63.66 E35.07449
G1 X131.34 Y64.133 E35.09772
G1 X131.881 Y64.596 E35.11903
G1 X132.42 Y65.107 E35.14127
G1 X132.917 Y65.633 E35.16293
G1 X133.379 Y66.175 E35.18425
G1 X133.851 Y66.791 E35.20748
G1 X134.254 Y67.377 E35.22877
G1 X134.629 Y67.99 E35.25028
G1 X134.986 Y68.649 E35.27271
G1 X135.301 Y69.311 E35.29466
G1 X135.585 Y69.998 E35.31691
G1 X135.823 Y70.671 E35.33828
G1 X136.039 Y71.404 E35.36115
G1 X136.205 Y72.095 E35.38243
G1 X136.339 Y72.826 E35.40467
G1 X136.435 Y73.543 E35.42633
G1 X136.489 Y74.257 E35.44776
G1 X136.51 Y75 E35.47001
G1 X136.51 Y144.988 E37.56504
G1 X136.489 Y145.753 E37.58795
G1 X136.433 Y146.475 E37.60963
G1 X136.338 Y147.182 E37.63098
G1 X136.201 Y147.923 E37.65354
G1 X136.027 Y148.644 E37.67574
G1 X135.821 Y149.338 E37.69741
G1 X135.574 Y150.033 E37.71949
G1 X135.297 Y150.697 E37.74102
G1 X134.983 Y151.358 E37.76293
G1 X134.615 Y152.032 E37.78592
G1 X134.247 Y152.635 E37.80706
G1 X133.84 Y153.225 E37.82852
G1 X133.367 Y153.84 E37.85174
G1 X132.906 Y154.379 E37.87297
G1 X132.393 Y154.92 E37.89529
G1 X131.867 Y155.417 E37.91695
G1 X131.325 Y155.879 E37.93827
G1 X130.713 Y156.348 E37.96135
G1 X130.128 Y156.75 E37.9826
G1 X129.495 Y157.136 E38.00479
G1 X128.853 Y157.485 E38.02667
G1 X128.18 Y157.805 E38.04897
G1 X127.502 Y158.085 E38.07093
G1 X126.827 Y158.324 E38.09237
G1 X126.107 Y158.536 E38.11483
G1 X125.393 Y158.706 E38.1368
G1 X124.674 Y158.839 E38.15869
G1 X123.939 Y158.937 E38.18089
G1 X123.234 Y158.989 E38.20205
G1 X122.473 Y159.01 E38.22484
G1 F2400 E31.22484
G0 F6000 X122.473 Y159.29
G0 X120.71 Y159.19
G0 X120.71 Y160.665
G0 X119.347 Y145.847
G0 X120.71 Y147.29
G1 F2400 E38.22484
G0 F6000 X120.99 Y147.49
G1 F1200 X120.99 Y72.51 E40.4693
G1 X94.01 Y72.51 E41.27692
G1 X94.01 Y147.49 E43.52138
G1 X120.99 Y147.49 E44.329
G1 F2400 E37.329
G0 F6000 X120.71 Y147.24
G0 X118.673 Y147.27
G0 X118.673 Y145.835
G0 X94.204 Y160.665
G0 X94.204 Y159.19
G0 X84.218 Y159.29
G1 F2400 E44.329
G0 F6000 X84.218 Y158.889
G1 F1200 X83.609 Y158.28 E44.35478
G0 F6000 X83.609 Y157.714
G1 F1200 X84.784 Y158.889 E44.40453
G0 F6000 X85.349 Y158.889
G1 F1200 X83.609 Y157.148 E44.47821
G0 F6000 X83.609 Y156.583
G1 F1200 X85.915 Y158.889 E44.57583
G0 F6000 X86.481 Y158.889
G1 F1200 X83.609 Y156.017 E44.69741
G0 F6000 X83.609 Y155.451
G1 F1200 X87.046 Y158.889 E44.84293
G0 F6000 X87.612 Y158.889
G1 F1200 X83.609 Y154.886 E45.01239
G0 F6000 X83.609 Y154.32
G1 F1200 X88.178 Y158.889 E45.20581
G0 F6000 X88.744 Y158.889
G1 F1200 X83.609 Y153.754 E45.42319
G0 F6000 X83.609 Y153.189
G1 F1200 X89.309 Y158.889 E45.66449
G0 F6000 X89.875 Y158.889
G1 F1200 X83.609 Y152.623 E45.92975
G0 F6000 X83.609 Y152.057
G1 F1200 X90.441 Y158.889 E46.21897
G0 F6000 X91.006 Y158.889
G1 F1200 X83.609 Y151.491 E46.53213
G0 F6000 X83.609 Y150.926
G1 F1200 X91.572 Y158.889 E46.86923
G0 F6000 X92.138 Y158.889
G1 F1200 X83.609 Y150.36 E47.23029
G0 F6000 X83.609 Y149.794
G1 F1200 X92.703 Y158.889 E47.61529
G0 F6000 X93.269 Y158.889
G1 F1200 X83.609 Y149.229 E48.02423
G0 F6000 X83.609 Y148.663
G1 F1200 X93.835 Y158.889 E48.45713
G0 F6000 X94.4 Y158.889
G1 F1200 X83.609 Y148.097 E48.91397
G0 F6000 X83.609 Y147.532
G1 F1200 X94.966 Y158.889 E49.39475
G0 F6000 X95.532 Y158.889
G1 F1200 X83.609 Y146.966 E49.89949
G0 F6000 X83.609 Y146.4
G1 F1200 X96.097 Y158.889 E50.42817
G0 F6000 X96.663 Y158.889
G1 F1200 X83.609 Y145.835 E50.98078
G0 F6000 X83.609 Y145.269
G1 F1200 X97.229 Y158.889 E51.55736
G0 F6000 X97.794 Y158.889
G1 F1200 X83.609 Y144.703 E52.15788
G0 F6000 X83.609 Y144.138
G1 F1200 X98.36 Y158.889 E52.78234
G0 F6000 X98.926 Y158.889
G1 F1200 X83.609 Y143.572 E53.43076
G0 F6000 X83.609 Y143.006
G1 F1200 X99.492 Y158.889 E54.10314
G0 F6000 X100.057 Y158.889
G1 F1200 X83.609 Y142.441 E54.79943
G0 F6000 X83.609 Y141.875
G1 F1200 X100.623 Y158.889 E55.51969
G0 F6000 X101.189 Y158.889
G1 F1200 X83.609 Y141.309 E56.26391
G0 F6000 X83.609 Y140.743
G1 F1200 X101.754 Y158.889 E57.03207
G0 F6000 X102.32 Y158.889
G1 F1200 X83.609 Y140.178 E57.82416
G0 F6000 X83.609 Y139.612
G1 F1200 X102.886 Y158.889 E58.64022
G0 F6000 X103.451 Y158.889
G1 F1200 X83.609 Y139.046 E59.48022
G0 F6000 X83.609 Y138.481
G1 F1200 X104.017 Y158.889 E60.34416
G0 F6000 X104.583 Y158.889
G1 F1200 X83.609 Y137.915 E61.23205
G0 F6000 X83.609 Y137.349
G1 F1200 X105.148 Y158.889 E62.14389
G0 F6000 X105.714 Y158.889
G1 F1200 X94.434 Y147.609 E62.62141
G0 F6000 X95 Y147.609
G1 F1200 X106.28 Y158.889 E63.09893
G0 F6000 X106.845 Y158.889
G1 F1200 X95.566 Y147.609 E63.57643
G0 F6000 X96.131 Y147.609
G1 F1200 X107.411 Y158.889 E64.05394
G0 F6000 X107.977 Y158.889
G1 F1200 X96.697 Y147.609 E64.53146
G0 F6000 X97.263 Y147.609
G1 F1200 X108.543 Y158.889 E65.00898
G0 F6000 X109.108 Y158.889
G1 F1200 X97.828 Y147.609 E65.4865
G0 F6000 X98.394 Y147.609
G1 F1200 X109.674 Y158.889 E65.96402
G0 F6000 X110.24 Y158.889
G1 F1200 X98.96 Y147.609 E66.44154
G0 F6000 X99.525 Y147.609
G1 F1200 X110.805 Y158.889 E66.91906
G0 F6000 X111.371 Y158.889
G1 F1200 X100.091 Y147.609 E67.39658
G0 F6000 X100.657 Y147.609
G1 F1200 X111.937 Y158.889 E67.8741
G0 F6000 X112.502 Y158.889
G1 F1200 X101.223 Y147.609 E68.35159
G0 F6000 X101.788 Y147.609
G1 F1200 X113.068 Y158.889 E68.82911
G0 F6000 X113.634 Y158.889
G1 F1200 X102.354 Y147.609 E69.30663
G0 F6000 X102.92 Y147.609
G1 F1200 X114.199 Y158.889 E69.78413
G0 F6000 X114.765 Y158.889
G1 F1200 X103.485 Y147.609 E70.26165
G0 F6000 X104.051 Y147.609
G1 F1200 X115.331 Y158.889 E70.73917
G0 F6000 X115.896 Y158.889
G1 F1200 X104.617 Y147.609 E71.21667
G0 F6000 X105.182 Y147.609
G1 F1200 X116.462 Y158.889 E71.69418
G0 F6000 X117.028 Y158.889
G1 F1200 X105.748 Y147.609 E72.1717
G0 F6000 X106.314 Y147.609
G1 F1200 X117.593 Y158.889 E72.6492
G0 F6000 X118.159 Y158.889
G1 F1200 X106.879 Y147.609 E73.12672
G0 F6000 X107.445 Y147.609
G1 F1200 X118.725 Y158.889 E73.60424
G0 F6000 X119.291 Y158.889
G1 F1200 X108.011 Y147.609 E74.08176
G0 F6000 X108.576 Y147.609
G1 F1200 X119.856 Y158.889 E74.55928
G0 F6000 X120.422 Y158.889
G1 F1200 X109.142 Y147.609 E75.0368
G0 F6000 X109.708 Y147.609
G1 F1200 X120.988 Y158.889 E75.51431
G0 F6000 X121.553 Y158.889
G1 F1200 X110.274 Y147.609 E75.99181
G0 F6000 X110.839 Y147.609
G1 F1200 X122.119 Y158.889 E76.46933
G0 F6000 X122.679 Y158.883
G1 F1200 X111.405 Y147.609 E76.9466
G0 F6000 X111.971 Y147.609
G1 F1200 X123.23 Y158.868 E77.42323
G0 F6000 X123.757 Y158.83
G1 F1200 X112.536 Y147.609 E77.89825
G0 F6000 X113.102 Y147.609
G1 F1200 X124.265 Y158.772 E78.37081
G0 F6000 X124.759 Y158.7
G1 F1200 X113.668 Y147.609 E78.84033
G0 F6000 X114.233 Y147.609
G1 F1200 X125.235 Y158.611 E79.30608
G0 F6000 X125.698 Y158.507
G1 F1200 X114.799 Y147.609 E79.76745
G0 F6000 X115.365 Y147.609
G1 F1200 X126.152 Y158.396 E80.2241
G0 F6000 X126.589 Y158.267
G1 F1200 X115.93 Y147.609 E80.67531
G0 F6000 X116.496 Y147.609
G1 F1200 X127.015 Y158.128 E81.12061
G0 F6000 X127.434 Y157.981
G1 F1200 X117.062 Y147.609 E81.55969
G0 F6000 X117.627 Y147.609
G1 F1200 X127.835 Y157.816 E81.99181
G0 F6000 X128.23 Y157.645
G1 F1200 X118.193 Y147.609 E82.41669
G0 F6000 X118.759 Y147.609
G1 F1200 X128.614 Y157.464 E82.83388
G0 F6000 X128.988 Y157.272
G1 F1200 X119.324 Y147.609 E83.24297
G0 F6000 X119.89 Y147.609
G1 F1200 X129.355 Y157.073 E83.64363
G0 F6000 X129.71 Y156.863
G1 F1200 X120.456 Y147.609 E84.03538
G0 F6000 X121.022 Y147.609
G1 F1200 X130.061 Y156.648 E84.41803
G0 F6000 X130.396 Y156.418
G1 F1200 X121.109 Y147.131 E84.81118
G0 F6000 X121.109 Y146.565
G1 F1200 X130.727 Y156.183 E85.21834
G0 F6000 X131.048 Y155.938
G1 F1200 X121.109 Y145.999 E85.63909
G0 F6000 X121.109 Y145.434
G1 F1200 X131.362 Y155.687 E86.07314
G0 F6000 X131.668 Y155.427
G1 F1200 X121.109 Y144.868 E86.52013
G0 F6000 X121.109 Y144.302
G1 F1200 X131.965 Y155.158 E86.9797
G0 F6000 X132.256 Y154.883
G1 F1200 X121.109 Y143.737 E87.45157
G0 F6000 X121.109 Y143.171
G1 F1200 X132.534 Y154.596 E87.93523
G0 F6000 X132.809 Y154.305
G1 F1200 X121.109 Y142.605 E88.43053
G0 F6000 X121.109 Y142.04
G1 F1200 X133.07 Y154 E88.93685
G0 F6000 X133.327 Y153.692
G1 F1200 X121.109 Y141.474 E89.45408
G0 F6000 X121.109 Y140.908
G1 F1200 X133.574 Y153.373 E89.98176
G0 F6000 X133.815 Y153.049
G1 F1200 X121.109 Y140.343 E90.51965
G0 F6000 X121.109 Y139.777
G1 F1200 X134.046 Y152.713 E91.06729
G0 F6000 X134.268 Y152.37
G1 F1200 X121.109 Y139.211 E91.62436
G0 F6000 X121.109 Y138.645
G1 F1200 X134.481 Y152.018 E92.19046
G0 F6000 X134.683 Y151.653
G1 F1200 X121.109 Y138.08 E92.76507
G0 F6000 X121.109 Y137.514
G1 F1200 X134.882 Y151.287 E93.34812
G0 F6000 X135.065 Y150.904
G1 F1200 X121.109 Y136.948 E93.93893
G0 F6000 X121.109 Y136.383
G1 F1200 X135.242 Y150.516 E94.53722
G0 F6000 X135.408 Y150.116
G1 F1200 X121.109 Y135.817 E95.14255
G0 F6000 X121.109 Y135.251
G1 F1200 X135.563 Y149.705 E95.75443
G0 F6000 X135.71 Y149.287
G1 F1200 X121.109 Y134.686 E96.37254
G0 F6000 X121.109 Y134.12
G1 F1200 X135.84 Y148.85 E96.99613
G0 F6000 X135.961 Y148.406
G1 F1200 X121.109 Y133.554 E97.62486
G0 F6000 X121.109 Y132.989
G1 F1200 X136.071 Y147.95 E98.25823
G0 F6000 X136.161 Y147.475
G1 F1200 X121.109 Y132.423 E98.89543
G0 F6000 X121.109 Y131.857
G1 F1200 X136.243 Y146.991 E99.5361
G0 F6000 X136.31 Y146.492
G1 F1200 X121.109 Y131.292 E100.17959
G0 F6000 X121.109 Y130.726
G1 F1200 X136.352 Y145.969 E100.82487
G0 F6000 X136.378 Y145.429
G1 F1200 X121.109 Y130.16 E101.47126
G0 F6000 X121.109 Y129.594
G1 F1200 X136.39 Y144.875 E102.11815
G0 F6000 X136.39 Y144.309
G1 F1200 X121.109 Y129.029 E102.76503
G0 F6000 X121.109 Y128.463
G1 F1200 X136.39 Y143.744 E103.41192
G0 F6000 X136.39 Y143.178
G1 F1200 X121.109 Y127.897 E104.05881
G0 F6000 X121.109 Y127.332
G1 F1200 X136.39 Y142.612 E104.70569
G0 F6000 X136.39 Y142.047
G1 F1200 X121.109 Y126.766 E105.35258
G0 F6000 X121.109 Y126.2
G1 F1200 X136.39 Y141.481 E105.99948
G0 F6000 X136.39 Y140.915
G1 F1200 X121.109 Y125.635 E106.64635
G0 F6000 X121.109 Y125.069
G1 F1200 X136.39 Y140.35 E107.29324
G0 F6000 X136.39 Y139.784
G1 F1200 X121.109 Y124.503 E107.94014
G0 F6000 X121.109 Y123.938
G1 F1200 X136.39 Y139.218 E108.58701
G0 F6000 X136.39 Y138.653
G1 F1200 X121.109 Y123.372 E109.23391
G0 F6000 X121.109 Y122.806
G1 F1200 X136.39 Y138.087 E109.8808
G0 F6000 X136.39 Y137.521
G1 F1200 X121.109 Y122.241 E110.52767
G0 F6000 X121.109 Y121.675
G1 F1200 X136.39 Y136.955 E111.17455
G0 F6000 X136.39 Y136.39
G1 F1200 X121.109 Y121.109 E111.82144
G0 F6000 X121.109 Y120.544
G1 F1200 X136.39 Y135.824 E112.46831
G0 F6000 X136.39 Y135.258
G1 F1200 X121.109 Y119.978 E113.11519
G0 F6000 X121.109 Y119.412
G1 F1200 X136.39 Y134.693 E113.76208
