;FLAVOR:Marlin
;TIME:1811
;Filament used: 1.46602m
;Layer height: 0.2
;MINX:99.335
;MINY:93.2
;MINZ:0.2
;MAXX:120.665
;MAXY:127.665
;MAXZ:18
;Generated with Cura_SteamEngine 4.13.1
M140 S60
M105
M190 S60
M104 S195
M105
M109 S195
M82 ;absolute extrusion mode
G28 ;Home
G92 E0 ;Reset Extruder
G1 Z2.0 F3000 ;Move bed down
G1 X10.1 Y20 Z0.28 F5000.0 ;Move to start position
G1 X10.1 Y200.0 Z0.28 F1500.0 E15 ;Draw the first line
G1 X10.4 Y200.0 Z0.28 F5000.0 ;Move to side a little
G1 X10.4 Y20 Z0.28 F1500.0 E30 ;Draw the second line
G92 E0 ;Reset Extruder
G1 Z2.0 F3000 ;Move Bed up
G92 E0
G92 E0
G1 F2400 E-7
;LAYER_COUNT:90
;LAYER:0
M107
;MESH:LoadCellToPlate.stl
G0 F6000 X109.59 Y98.562 Z0.2
;TYPE:WALL-INNER
G1 F2400 E0
G1 F1200 X110 Y98.603 E0.01233
G1 X110.41 Y98.562 E0.02467
G1 X110.805 Y98.443 E0.03702
G1 X111.168 Y98.248 E0.04935
G1 X111.487 Y97.987 E0.06169
G1 X111.748 Y97.668 E0.07403
G1 X111.943 Y97.305 E0.08636
G1 X112.062 Y96.91 E0.09871
G1 X112.103 Y96.5 E0.11105
G1 X112.062 Y96.09 E0.12338
G1 X111.943 Y95.695 E0.13573
G1 X111.748 Y95.332 E0.14806
G1 X111.487 Y95.013 E0.1604
G1 X111.168 Y94.752 E0.17274
G1 X110.805 Y94.557 E0.18507
G1 X110.41 Y94.438 E0.19742
G1 X110 Y94.397 E0.20976
G1 X109.59 Y94.438 E0.22209
G1 X109.195 Y94.557 E0.23444
G1 X108.831 Y94.752 E0.2468
G1 X108.505 Y95.021 E0.25945
G1 X108.25 Y95.334 E0.27154
G1 X108.053 Y95.707 E0.28416
G1 X107.938 Y96.09 E0.29614
G1 X107.897 Y96.5 E0.30847
G1 X107.938 Y96.91 E0.3208
G1 X108.057 Y97.305 E0.33315
G1 X108.252 Y97.668 E0.34549
G1 X108.513 Y97.987 E0.35783
G1 X108.832 Y98.248 E0.37016
G1 X109.195 Y98.443 E0.3825
G1 X109.59 Y98.562 E0.39485
G0 F6000 X109.668 Y98.168
;TYPE:WALL-OUTER
G1 F1200 X110 Y98.201 E0.40483
G1 X110.332 Y98.168 E0.41482
G1 X110.651 Y98.072 E0.42479
G1 X110.945 Y97.914 E0.43478
G1 X111.203 Y97.703 E0.44476
G1 X111.414 Y97.445 E0.45474
G1 X111.572 Y97.151 E0.46473
G1 X111.668 Y96.832 E0.4747
G1 X111.701 Y96.5 E0.48469
G1 X111.668 Y96.168 E0.49467
G1 X111.572 Y95.849 E0.50465
G1 X111.414 Y95.555 E0.51464
G1 X111.203 Y95.297 E0.52461
G1 X110.945 Y95.086 E0.53459
G1 X110.651 Y94.928 E0.54458
G1 X110.332 Y94.832 E0.55455
G1 X110 Y94.799 E0.56454
G1 X109.668 Y94.832 E0.57453
G1 X109.349 Y94.928 E0.5845
G1 X109.055 Y95.086 E0.59449
G1 X108.79 Y95.304 E0.60476
G1 X108.585 Y95.556 E0.61449
G1 X108.425 Y95.859 E0.62474
G1 X108.332 Y96.168 E0.6344
G1 X108.299 Y96.5 E0.64439
G1 X108.332 Y96.832 E0.65438
G1 X108.428 Y97.151 E0.66435
G1 X108.586 Y97.445 E0.67434
G1 X108.797 Y97.703 E0.68432
G1 X109.055 Y97.914 E0.6943
G1 X109.349 Y98.072 E0.70429
G1 X109.668 Y98.168 E0.71426
G0 F6000 X109.583 Y98.599
G1 F2400 E-6.28574
G0 F6000 X110 Y98.794
G0 X110 Y97.332
G0 X109.999 Y122.668
G0 X110 Y121.206
G0 X108.627 Y122.127
G0 X108.206 Y122.757
G0 X108.058 Y123.5
G0 X108.096 Y123.88
G0 X108.386 Y124.579
G0 X108.818 Y125.011
G0 X109.59 Y125.562
;TYPE:WALL-INNER
G1 F2400 E0.71426
G1 F1200 X110 Y125.603 E0.72659
G1 X110.41 Y125.562 E0.73893
G1 X110.805 Y125.443 E0.75128
G1 X111.168 Y125.248 E0.76361
G1 X111.487 Y124.987 E0.77595
G1 X111.748 Y124.668 E0.78829
G1 X111.943 Y124.305 E0.80062
G1 X112.062 Y123.91 E0.81297
G1 X112.103 Y123.5 E0.8253
G1 X112.062 Y123.09 E0.83764
G1 X111.943 Y122.695 E0.84999
G1 X111.748 Y122.332 E0.86232
G1 X111.487 Y122.012 E0.87468
G1 X111.166 Y121.751 E0.88707
G1 X110.794 Y121.553 E0.89968
G1 X110.41 Y121.438 E0.91168
G1 X110 Y121.397 E0.92401
G1 X109.587 Y121.438 E0.93644
G1 X109.185 Y121.562 E0.94903
G1 X108.832 Y121.752 E0.96103
G1 X108.513 Y122.013 E0.97337
G1 X108.252 Y122.332 E0.98571
G1 X108.056 Y122.696 E0.99808
G1 X107.937 Y123.1 E1.01069
G1 X107.897 Y123.5 E1.02272
G1 X107.938 Y123.913 E1.03515
G1 X108.062 Y124.315 E1.04774
G1 X108.252 Y124.668 E1.05974
G1 X108.513 Y124.987 E1.07208
G1 X108.832 Y125.248 E1.08442
G1 X109.195 Y125.443 E1.09675
G1 X109.59 Y125.562 E1.1091
G0 F6000 X109.668 Y125.168
;TYPE:WALL-OUTER
G1 F1200 X110 Y125.201 E1.11909
G1 X110.332 Y125.168 E1.12907
G1 X110.651 Y125.072 E1.13905
G1 X110.945 Y124.914 E1.14904
G1 X111.203 Y124.703 E1.15901
G1 X111.414 Y124.445 E1.16899
G1 X111.572 Y124.151 E1.17898
G1 X111.668 Y123.832 E1.18895
G1 X111.701 Y123.5 E1.19894
G1 X111.668 Y123.168 E1.20893
G1 X111.572 Y122.849 E1.2189
G1 X111.414 Y122.555 E1.22889
G1 X111.203 Y122.297 E1.23887
G1 X110.944 Y122.086 E1.24887
G1 X110.641 Y121.925 E1.25914
G1 X110.332 Y121.832 E1.2688
G1 X110 Y121.799 E1.27878
G1 X109.667 Y121.832 E1.2888
G1 X109.34 Y121.933 E1.29905
G1 X109.055 Y122.086 E1.30873
G1 X108.797 Y122.297 E1.31871
G1 X108.586 Y122.555 E1.32868
G1 X108.428 Y122.849 E1.33867
G1 X108.331 Y123.177 E1.34891
G1 X108.299 Y123.5 E1.35863
G1 X108.332 Y123.833 E1.36865
G1 X108.433 Y124.16 E1.37889
G1 X108.586 Y124.445 E1.38857
G1 X108.797 Y124.703 E1.39855
G1 X109.055 Y124.914 E1.40853
G1 X109.349 Y125.072 E1.41852
G1 X109.668 Y125.168 E1.42849
G0 F6000 X109.583 Y125.599
G1 F2400 E-5.57151
G0 F6000 X111.274 Y125.407
G0 X111.274 Y126.19
G0 X114.978 Y126.4
;TYPE:WALL-INNER
G1 F2400 E1.42849
G1 F1200 X105.022 Y126.4 E1.72651
G1 X104.31 Y126.343 E1.7479
G1 X103.645 Y126.184 E1.76836
G1 X103.005 Y125.919 E1.7891
G1 X102.412 Y125.556 E1.80991
G1 X101.89 Y125.11 E1.83046
G1 X101.444 Y124.588 E1.85101
G1 X101.081 Y123.995 E1.87183
G1 X100.816 Y123.355 E1.89256
G1 X100.657 Y122.69 E1.91303
G1 X100.6 Y121.981 E1.93432
G1 X100.6 Y98.019 E2.6516
G1 X100.657 Y97.31 E2.6729
G1 X100.816 Y96.645 E2.69336
G1 X101.081 Y96.005 E2.7141
G1 X101.444 Y95.412 E2.73491
G1 X101.89 Y94.89 E2.75546
G1 X102.412 Y94.444 E2.77601
G1 X103.005 Y94.081 E2.79683
G1 X103.645 Y93.816 E2.81756
G1 X104.31 Y93.657 E2.83803
G1 X105.022 Y93.6 E2.85941
G1 X114.978 Y93.6 E3.15744
G1 X115.69 Y93.657 E3.17882
G1 X116.355 Y93.816 E3.19928
G1 X116.995 Y94.081 E3.22002
G1 X117.588 Y94.444 E3.24083
G1 X118.11 Y94.89 E3.26138
G1 X118.556 Y95.412 E3.28194
G1 X118.919 Y96.005 E3.30275
G1 X119.184 Y96.645 E3.32348
G1 X119.343 Y97.31 E3.34395
G1 X119.4 Y98.019 E3.36524
G1 X119.4 Y121.981 E4.08252
G1 X119.343 Y122.69 E4.10382
G1 X119.184 Y123.355 E4.12428
G1 X118.919 Y123.995 E4.14502
G1 X118.556 Y124.588 E4.16583
G1 X118.11 Y125.11 E4.18638
G1 X117.588 Y125.556 E4.20694
G1 X116.995 Y125.919 E4.22775
G1 X116.355 Y126.184 E4.24848
G1 X115.69 Y126.343 E4.26895
G1 X114.978 Y126.4 E4.29033
G0 F6000 X114.997 Y126.8
;TYPE:WALL-OUTER
G1 F1200 X105.003 Y126.8 E4.58949
G1 X104.249 Y126.74 E4.61214
G1 X103.519 Y126.565 E4.63461
G1 X102.825 Y126.278 E4.65709
G1 X102.176 Y125.88 E4.67988
G1 X101.606 Y125.394 E4.7023
G1 X101.12 Y124.824 E4.72472
G1 X100.722 Y124.175 E4.74751
G1 X100.435 Y123.481 E4.76999
G1 X100.26 Y122.751 E4.79246
G1 X100.2 Y122 E4.81502
G1 X100.2 Y98 E5.53343
G1 X100.26 Y97.249 E5.55599
G1 X100.435 Y96.519 E5.57846
G1 X100.722 Y95.825 E5.60094
G1 X101.12 Y95.176 E5.62373
G1 X101.606 Y94.606 E5.64615
G1 X102.176 Y94.12 E5.66857
G1 X102.825 Y93.722 E5.69136
G1 X103.519 Y93.435 E5.71384
G1 X104.249 Y93.26 E5.73631
G1 X105.003 Y93.2 E5.75896
G1 X114.997 Y93.2 E6.05812
G1 X115.751 Y93.26 E6.08076
G1 X116.481 Y93.435 E6.10323
G1 X117.175 Y93.722 E6.12571
G1 X117.824 Y94.12 E6.1485
G1 X118.394 Y94.606 E6.17092
G1 X118.88 Y95.176 E6.19334
G1 X119.278 Y95.825 E6.21613
G1 X119.565 Y96.519 E6.23861
G1 X119.74 Y97.249 E6.26109
G1 X119.8 Y98 E6.28364
G1 X119.8 Y122 E7.00206
G1 X119.74 Y122.751 E7.02461
G1 X119.565 Y123.481 E7.04708
G1 X119.278 Y124.175 E7.06956
G1 X118.88 Y124.824 E7.09235
G1 X118.394 Y125.394 E7.11477
G1 X117.824 Y125.88 E7.1372
G1 X117.175 Y126.278 E7.15998
G1 X116.481 Y126.565 E7.18247
G1 X115.751 Y126.74 E7.20494
G1 X114.997 Y126.8 E7.22758
G0 F6000 X114.98 Y126.361
G0 X114.972 Y126.01
;TYPE:SKIN
G1 F1200 X105.028 Y126.01 E7.52524
G1 X104.38 Y125.958 E7.5447
G1 X103.767 Y125.811 E7.56357
G1 X103.178 Y125.567 E7.58266
G1 X102.638 Y125.237 E7.6016
G1 X102.166 Y124.834 E7.62018
G1 X101.763 Y124.362 E7.63876
G1 X101.433 Y123.822 E7.6577
G1 X101.189 Y123.233 E7.67678
G1 X101.042 Y122.619 E7.69568
G1 X100.99 Y121.981 E7.71485
G1 X100.99 Y98.019 E8.43213
G1 X101.042 Y97.381 E8.45129
G1 X101.189 Y96.767 E8.47019
G1 X101.433 Y96.178 E8.48927
G1 X101.763 Y95.638 E8.50821
G1 X102.166 Y95.166 E8.52679
G1 X102.638 Y94.763 E8.54537
G1 X103.178 Y94.433 E8.56432
G1 X103.767 Y94.189 E8.5834
G1 X104.38 Y94.042 E8.60227
G1 X105.028 Y93.99 E8.62173
G1 X114.972 Y93.99 E8.91939
G1 X115.62 Y94.042 E8.93885
G1 X116.233 Y94.189 E8.95772
G1 X116.822 Y94.433 E8.97681
G1 X117.362 Y94.763 E8.99575
G1 X117.834 Y95.166 E9.01433
G1 X118.237 Y95.638 E9.03291
G1 X118.567 Y96.178 E9.05185
G1 X118.811 Y96.767 E9.07094
G1 X118.958 Y97.381 E9.08984
G1 X119.01 Y98.019 E9.109
G1 X119.01 Y121.981 E9.82628
G1 X118.958 Y122.619 E9.84544
G1 X118.811 Y123.233 E9.86434
G1 X118.567 Y123.822 E9.88342
G1 X118.237 Y124.362 E9.90237
G1 X117.834 Y124.834 E9.92094
G1 X117.362 Y125.237 E9.93952
G1 X116.822 Y125.567 E9.95847
G1 X116.233 Y125.811 E9.97755
G1 X115.62 Y125.958 E9.99642
G1 X114.972 Y126.01 E10.01588
G1 F2400 E3.01588
G0 F6000 X114.994 Y126.288
G0 X111.84 Y126.19
G0 X111.274 Y125.407
G0 X111.84 Y124.729
G1 F2400 E10.01588
G0 F6000 X112.074 Y124.886
G1 F1200 X112.305 Y124.455 E10.03052
G1 X112.446 Y123.986 E10.04518
G1 X112.495 Y123.5 E10.0598
G1 X112.446 Y123.014 E10.07442
G1 X112.305 Y122.545 E10.08908
G1 X112.074 Y122.114 E10.10372
G1 X111.764 Y121.735 E10.11838
G1 X111.383 Y121.425 E10.13308
G1 X110.943 Y121.19 E10.14801
G1 X110.486 Y121.054 E10.16228
G1 X110 Y121.005 E10.17691
G1 X109.509 Y121.054 E10.19168
G1 X109.033 Y121.201 E10.20659
G1 X108.614 Y121.426 E10.22082
G1 X108.236 Y121.736 E10.23546
G1 X107.926 Y122.114 E10.25009
G1 X107.693 Y122.547 E10.26481
G1 X107.553 Y123.024 E10.27969
G1 X107.505 Y123.5 E10.29401
G1 X107.554 Y123.991 E10.30878
G1 X107.701 Y124.467 E10.3237
G1 X107.926 Y124.886 E10.33793
G1 X108.236 Y125.264 E10.35257
G1 X108.614 Y125.574 E10.3672
G1 X109.045 Y125.805 E10.38184
G1 X109.514 Y125.946 E10.3965
G1 X110 Y125.995 E10.41112
G1 X110.486 Y125.946 E10.42574
G1 X110.955 Y125.805 E10.4404
G1 X111.386 Y125.574 E10.45504
G1 X111.764 Y125.264 E10.46967
G1 X112.074 Y124.886 E10.48431
G1 F2400 E3.48431
G0 F6000 X111.84 Y124.729
G0 X111.942 Y123.5
G0 X111.794 Y122.757
G0 X110.867 Y121.376
G0 X110.309 Y122.729
G0 X110 Y97.332
G0 X110 Y98.794
G0 X110.433 Y98.67
G1 F2400 E10.48431
G0 F6000 X110.486 Y98.946
G1 F1200 X110.955 Y98.805 E10.49897
G1 X111.386 Y98.574 E10.5136
G1 X111.764 Y98.264 E10.52824
G1 X112.074 Y97.886 E10.54287
G1 X112.305 Y97.455 E10.55751
G1 X112.446 Y96.986 E10.57217
G1 X112.495 Y96.5 E10.58679
G1 X112.446 Y96.014 E10.60141
G1 X112.305 Y95.545 E10.61607
G1 X112.074 Y95.114 E10.63071
G1 X111.764 Y94.736 E10.64534
G1 X111.386 Y94.426 E10.65998
G1 X110.955 Y94.195 E10.67461
G1 X110.486 Y94.054 E10.68927
G1 X110 Y94.005 E10.7039
G1 X109.514 Y94.054 E10.71852
G1 X109.045 Y94.195 E10.73318
G1 X108.613 Y94.426 E10.74784
G1 X108.227 Y94.744 E10.76281
G1 X107.923 Y95.118 E10.77724
G1 X107.69 Y95.559 E10.79217
G1 X107.554 Y96.014 E10.80639
G1 X107.505 Y96.5 E10.82101
G1 X107.554 Y96.986 E10.83563
G1 X107.695 Y97.455 E10.85029
G1 X107.926 Y97.886 E10.86493
G1 X108.236 Y98.264 E10.87956
G1 X108.614 Y98.574 E10.89419
G1 X109.045 Y98.805 E10.90883
G1 X109.514 Y98.946 E10.92349
G1 X110 Y98.995 E10.93811
G1 X110.486 Y98.946 E10.95273
G1 F2400 E3.95273
G0 F6000 X110.433 Y98.67
G0 X112.12 Y97.379
G0 X110.769 Y96.82
G0 X119.506 Y94.579
G0 X118.385 Y95.535
G0 X118.947 Y96.36
G1 F2400 E10.95273
G0 F6000 X118.574 Y96.512
G1 F1200 X116.487 Y94.425 E11.04108
G0 F6000 X115.674 Y94.178
G1 F1200 X118.82 Y97.324 E11.17426
G0 F6000 X118.884 Y97.954
G1 F1200 X115.046 Y94.116 E11.33674
G0 F6000 X114.474 Y94.11
G1 F1200 X118.89 Y98.525 E11.52366
G0 F6000 X118.89 Y99.091
G1 F1200 X113.909 Y94.11 E11.73452
G0 F6000 X113.343 Y94.11
G1 F1200 X118.89 Y99.656 E11.96932
G0 F6000 X118.89 Y100.222
G1 F1200 X112.777 Y94.11 E12.22809
G0 F6000 X112.212 Y94.11
G1 F1200 X118.89 Y100.788 E12.51079
G0 F6000 X118.89 Y101.353
G1 F1200 X111.646 Y94.11 E12.81743
G0 F6000 X111.646 Y93.71
G0 X112.002 Y93.81
G0 X111.907 Y95.226
G0 X112.002 Y95.573
G0 X112.355 Y95.384
G1 F1200 X118.89 Y101.919 E13.09408
G0 F6000 X118.89 Y102.485
G1 F1200 X112.581 Y96.176 E13.36116
G0 F6000 X112.589 Y96.749
G1 F1200 X118.89 Y103.05 E13.6279
G0 F6000 X118.89 Y103.616
G1 F1200 X112.497 Y97.224 E13.89851
G0 F6000 X112.343 Y97.635
G1 F1200 X118.89 Y104.182 E14.17567
G0 F6000 X118.89 Y104.747
G1 F1200 X112.137 Y97.995 E14.46153
G0 F6000 X111.882 Y98.306
G1 F1200 X118.89 Y105.313 E14.75818
G0 F6000 X118.89 Y105.879
G1 F1200 X111.58 Y98.569 E15.06763
G0 F6000 X111.236 Y98.791
G1 F1200 X118.89 Y106.445 E15.39165
G0 F6000 X118.89 Y107.01
G1 F1200 X110.843 Y98.963 E15.73231
G0 F6000 X110.389 Y99.076
G1 F1200 X118.89 Y107.576 E16.09216
G0 F6000 X118.89 Y108.142
G1 F1200 X109.848 Y99.1 E16.47494
G0 F6000 X109.141 Y98.959
G1 F1200 X118.89 Y108.707 E16.88762
G0 F6000 X118.89 Y109.273
G1 F1200 X103.897 Y94.28 E17.52232
G0 F6000 X103.486 Y94.435
G1 F1200 X118.89 Y109.839 E18.17443
G0 F6000 X118.89 Y110.404
G1 F1200 X103.104 Y94.619 E18.84268
G0 F6000 X102.753 Y94.833
G1 F1200 X118.89 Y110.97 E19.52581
G0 F6000 X118.89 Y111.536
G1 F1200 X102.442 Y95.088 E20.22211
G0 F6000 X102.152 Y95.364
G1 F1200 X118.89 Y112.101 E20.93066
G0 F6000 X118.89 Y112.667
G1 F1200 X101.892 Y95.67 E21.65022
G0 F6000 X101.672 Y96.015
G1 F1200 X118.89 Y113.233 E22.37911
G0 F6000 X118.89 Y113.798
G1 F1200 X101.476 Y96.385 E23.11628
G0 F6000 X101.31 Y96.785
G1 F1200 X118.89 Y114.364 E23.86048
G0 F6000 X118.89 Y114.93
G1 F1200 X101.199 Y97.239 E24.6094
G0 F6000 X101.131 Y97.737
G1 F1200 X118.89 Y115.495 E25.36117
G0 F6000 X118.89 Y116.061
G1 F1200 X101.109 Y98.28 E26.1139
G0 F6000 X101.109 Y98.846
G1 F1200 X118.89 Y116.627 E26.86663
G0 F6000 X118.89 Y117.193
G1 F1200 X101.109 Y99.412 E27.61935
G0 F6000 X101.109 Y99.977
G1 F1200 X118.89 Y117.758 E28.37208
G0 F6000 X118.89 Y118.324
G1 F1200 X101.109 Y100.543 E29.12481
G0 F6000 X101.109 Y101.109
G1 F1200 X118.89 Y118.89 E29.87753
G0 F6000 X118.89 Y119.455
G1 F1200 X101.109 Y101.674 E30.63026
G0 F6000 X101.109 Y102.24
G1 F1200 X118.89 Y120.021 E31.38299
G0 F6000 X118.89 Y120.587
G1 F1200 X101.109 Y102.806 E32.13572
G0 F6000 X101.109 Y103.371
G1 F1200 X118.89 Y121.152 E32.88844
G0 F6000 X118.89 Y121.718
G1 F1200 X101.109 Y103.937 E33.64117
G0 F6000 X101.109 Y104.503
G1 F1200 X118.867 Y122.261 E34.39292
G0 F6000 X118.8 Y122.76
G1 F1200 X101.109 Y105.068 E35.14186
G0 F6000 X101.109 Y105.634
G1 F1200 X118.688 Y123.214 E35.88606
G0 F6000 X118.523 Y123.614
G1 F1200 X101.109 Y106.2 E36.62325
G0 F6000 X101.109 Y106.766
G1 F1200 X118.327 Y123.984 E37.35215
G0 F6000 X118.106 Y124.329
G1 F1200 X101.109 Y107.331 E38.0717
G0 F6000 X101.109 Y107.897
G1 F1200 X117.846 Y124.634 E38.78024
G0 F6000 X117.557 Y124.911
G1 F1200 X101.109 Y108.463 E39.47653
G0 F6000 X101.109 Y109.028
G1 F1200 X117.246 Y125.165 E40.15966
G0 F6000 X116.894 Y125.379
G1 F1200 X101.109 Y109.594 E40.8279
G0 F6000 X101.109 Y110.16
G1 F1200 X116.512 Y125.563 E41.47995
G0 F6000 X116.101 Y125.718
G1 F1200 X101.109 Y110.725 E42.11464
G0 F6000 X101.109 Y111.291
G1 F1200 X110.855 Y121.038 E42.52724
G0 F6000 X110.15 Y120.898
G1 F1200 X101.109 Y111.857 E42.90997
G0 F6000 X101.109 Y112.422
G1 F1200 X109.609 Y120.923 E43.26982
G0 F6000 X109.156 Y121.036
G1 F1200 X101.109 Y112.988 E43.6105
G0 F6000 X101.109 Y113.554
G1 F1200 X108.762 Y121.208 E43.9345
G0 F6000 X108.418 Y121.429
G1 F1200 X101.109 Y114.119 E44.24393
G0 F6000 X101.109 Y114.685
G1 F1200 X108.116 Y121.693 E44.54058
G0 F6000 X107.861 Y122.003
G1 F1200 X101.109 Y115.251 E44.82642
G0 F6000 X101.109 Y115.817
G1 F1200 X107.655 Y122.363 E45.10353
G0 F6000 X107.501 Y122.774
G1 F1200 X101.109 Y116.382 E45.37413
G0 F6000 X101.109 Y116.948
G1 F1200 X107.41 Y123.249 E45.64087
G0 F6000 X107.416 Y123.821
G1 F1200 X101.109 Y117.514 E45.90786
G0 F6000 X101.109 Y118.079
G1 F1200 X107.644 Y124.614 E46.18451
G0 F6000 X107.997 Y124.426
G0 X108.093 Y124.774
G0 X108.093 Y126.19
G0 X107.787 Y126.29
G0 X107.787 Y125.889
G1 F1200 X101.109 Y119.211 E46.46721
G0 F6000 X101.109 Y119.776
G1 F1200 X107.221 Y125.889 E46.72597
