;FLAVOR:Marlin
;TIME:6294
;Filament used: 5.87747m
;Layer height: 0.2
;MINX:79.935
;MINY:63.2
;MINZ:0.2
;MAXX:140.065
;MAXY:157.665
;MAXZ:22.6
;Generated with Cura_SteamEngine 4.13.1
M140 S60
M105
M190 S60
M104 S195
M105
M109 S195
M82 ;absolute extrusion mode
G28 ;Home
G92 E0 ;Reset Extruder
G1 Z2.0 F3000 ;Move bed down
G1 X10.1 Y20 Z0.28 F5000.0 ;Move to start position
G1 X10.1 Y200.0 Z0.28 F1500.0 E15 ;Draw the first line
G1 X10.4 Y200.0 Z0.28 F5000.0 ;Move to side a little
G1 X10.4 Y20 Z0.28 F1500.0 E30 ;Draw the second line
G92 E0 ;Reset Extruder
G1 Z2.0 F3000 ;Move Bed up
G92 E0
G92 E0
G1 F2400 E-7
;LAYER_COUNT:113
;LAYER:0
M107
;MESH:ServoHolder.stl
G0 F6000 X94.497 Y68.562 Z0.2
;TYPE:WALL-INNER
G1 F2400 E0
G1 F1200 X94.906 Y68.603 E0.0123
G1 X95.31 Y68.562 E0.02446
G1 X95.705 Y68.443 E0.03681
G1 X96.068 Y68.248 E0.04914
G1 X96.387 Y67.987 E0.06148
G1 X96.648 Y67.668 E0.07382
G1 X96.843 Y67.305 E0.08615
G1 X96.962 Y66.91 E0.0985
G1 X97.003 Y66.492 E0.11108
G1 X96.961 Y66.081 E0.12344
G1 X96.839 Y65.688 E0.13576
G1 X96.645 Y65.328 E0.148
G1 X96.387 Y65.013 E0.16019
G1 X96.068 Y64.752 E0.17253
G1 X95.705 Y64.557 E0.18486
G1 X95.31 Y64.438 E0.19721
G1 X94.9 Y64.397 E0.20955
G1 X94.49 Y64.438 E0.22188
G1 X94.095 Y64.557 E0.23423
G1 X93.732 Y64.752 E0.24656
G1 X93.413 Y65.013 E0.2589
G1 X93.152 Y65.332 E0.27124
G1 X92.957 Y65.695 E0.28357
G1 X92.838 Y66.09 E0.29592
G1 X92.797 Y66.5 E0.30826
G1 X92.838 Y66.91 E0.32059
G1 X92.957 Y67.305 E0.33294
G1 X93.152 Y67.669 E0.3453
G1 X93.418 Y67.992 E0.35783
G1 X93.739 Y68.252 E0.37019
G1 X94.097 Y68.444 E0.38235
G1 X94.497 Y68.562 E0.39484
G0 F6000 X94.574 Y68.168
;TYPE:WALL-OUTER
G1 F1200 X94.906 Y68.201 E0.40482
G1 X95.232 Y68.168 E0.41463
G1 X95.551 Y68.072 E0.4246
G1 X95.845 Y67.914 E0.43459
G1 X96.103 Y67.703 E0.44457
G1 X96.314 Y67.445 E0.45455
G1 X96.472 Y67.151 E0.46454
G1 X96.568 Y66.832 E0.47451
G1 X96.601 Y66.493 E0.48471
G1 X96.567 Y66.162 E0.49467
G1 X96.468 Y65.843 E0.50467
G1 X96.311 Y65.551 E0.51459
G1 X96.103 Y65.297 E0.52442
G1 X95.845 Y65.086 E0.53439
G1 X95.551 Y64.928 E0.54438
G1 X95.232 Y64.832 E0.55436
G1 X94.9 Y64.799 E0.56434
G1 X94.568 Y64.832 E0.57433
G1 X94.249 Y64.928 E0.5843
G1 X93.955 Y65.086 E0.59429
G1 X93.697 Y65.297 E0.60427
G1 X93.486 Y65.555 E0.61425
G1 X93.328 Y65.849 E0.62424
G1 X93.232 Y66.168 E0.63421
G1 X93.199 Y66.5 E0.6442
G1 X93.232 Y66.832 E0.65418
G1 X93.328 Y67.151 E0.66416
G1 X93.486 Y67.445 E0.67415
G1 X93.701 Y67.707 E0.68429
G1 X93.961 Y67.917 E0.6943
G1 X94.25 Y68.072 E0.70411
G1 X94.574 Y68.168 E0.71423
G0 F6000 X94.49 Y68.599
G1 F2400 E-6.28577
G0 F6000 X94.906 Y68.794
G0 X94.905 Y67.332
G0 X94.9 Y152.668
G0 X94.9 Y151.206
G0 X93.527 Y152.127
G0 X93.106 Y152.757
G0 X92.958 Y153.5
G0 X93.106 Y154.243
G0 X93.527 Y154.873
G0 X94.49 Y155.562
;TYPE:WALL-INNER
G1 F2400 E0.71423
G1 F1200 X94.9 Y155.603 E0.72656
G1 X95.318 Y155.561 E0.73914
G1 X95.712 Y155.439 E0.75149
G1 X96.073 Y155.245 E0.76375
G1 X96.393 Y154.982 E0.77615
G1 X96.652 Y154.661 E0.7885
G1 X96.844 Y154.303 E0.80066
G1 X96.962 Y153.903 E0.81314
G1 X97.003 Y153.493 E0.82548
G1 X96.961 Y153.082 E0.83784
G1 X96.839 Y152.688 E0.85019
G1 X96.645 Y152.328 E0.86243
G1 X96.387 Y152.013 E0.87462
G1 X96.068 Y151.752 E0.88696
G1 X95.705 Y151.557 E0.89929
G1 X95.31 Y151.438 E0.91164
G1 X94.9 Y151.397 E0.92398
G1 X94.49 Y151.438 E0.93631
G1 X94.095 Y151.557 E0.94866
G1 X93.732 Y151.752 E0.96099
G1 X93.413 Y152.013 E0.97333
G1 X93.152 Y152.332 E0.98567
G1 X92.957 Y152.695 E0.998
G1 X92.838 Y153.09 E1.01035
G1 X92.797 Y153.5 E1.02269
G1 X92.838 Y153.91 E1.03502
G1 X92.957 Y154.305 E1.04737
G1 X93.152 Y154.668 E1.05971
G1 X93.413 Y154.988 E1.07207
G1 X93.733 Y155.249 E1.08443
G1 X94.1 Y155.444 E1.09687
G1 X94.49 Y155.562 E1.10907
G0 F6000 X94.568 Y155.168
;TYPE:WALL-OUTER
G1 F1200 X94.9 Y155.201 E1.11905
G1 X95.238 Y155.167 E1.12922
G1 X95.557 Y155.068 E1.13922
G1 X95.849 Y154.911 E1.14914
G1 X96.107 Y154.699 E1.15914
G1 X96.317 Y154.439 E1.16914
G1 X96.472 Y154.15 E1.17896
G1 X96.568 Y153.826 E1.18908
G1 X96.601 Y153.494 E1.19906
G1 X96.567 Y153.162 E1.20905
G1 X96.468 Y152.843 E1.21905
G1 X96.311 Y152.551 E1.22898
G1 X96.103 Y152.297 E1.2388
G1 X95.845 Y152.086 E1.24878
G1 X95.551 Y151.928 E1.25877
G1 X95.232 Y151.832 E1.26874
G1 X94.9 Y151.799 E1.27873
G1 X94.568 Y151.832 E1.28872
G1 X94.249 Y151.928 E1.29869
G1 X93.955 Y152.086 E1.30868
G1 X93.697 Y152.297 E1.31866
G1 X93.486 Y152.555 E1.32863
G1 X93.328 Y152.849 E1.33862
G1 X93.232 Y153.168 E1.3486
G1 X93.199 Y153.5 E1.35858
G1 X93.232 Y153.832 E1.36857
G1 X93.328 Y154.151 E1.37854
G1 X93.486 Y154.445 E1.38853
G1 X93.697 Y154.703 E1.39851
G1 X93.956 Y154.914 E1.40851
G1 X94.254 Y155.073 E1.41862
G1 X94.568 Y155.168 E1.42844
G0 F6000 X94.483 Y155.599
G1 F2400 E-5.57156
G0 F6000 X95.65 Y155.289
G0 X96.278 Y154.869
G0 X96.694 Y154.241
G0 X96.842 Y153.494
G0 X96.522 Y151.878
G0 X95.486 Y152.908
G0 X122.365 Y117.023
G0 X120.93 Y117.023
G0 X121.1 Y118.95
;TYPE:WALL-INNER
G1 F2400 E1.42844
G1 F1200 X125.333 Y118.95 E1.55515
G1 X125.333 Y120.95 E1.61502
G1 X130.767 Y120.95 E1.77768
G1 X130.767 Y118.95 E1.83755
G1 X135 Y118.95 E1.96426
G1 X135 Y101.05 E2.50008
G1 X121.1 Y101.05 E2.91617
G1 X121.1 Y118.95 E3.45199
G0 F6000 X121.5 Y118.55
;TYPE:WALL-OUTER
G1 F1200 X125.733 Y118.55 E3.5787
G1 X125.733 Y120.55 E3.63857
G1 X130.367 Y120.55 E3.77728
G1 X130.367 Y118.55 E3.83715
G1 X134.6 Y118.55 E3.96386
G1 X134.6 Y101.45 E4.47573
G1 X121.5 Y101.45 E4.86787
G1 X121.5 Y118.55 E5.37975
G1 F2400 E-1.62025
G0 F6000 X121.2 Y118.55
G0 X125.137 Y119.146
G0 X126.598 Y119.146
G0 X140.065 Y119.146
G0 X138.59 Y119.146
G0 X138.8 Y156.4
;TYPE:WALL-INNER
G1 F2400 E5.37975
G1 F1200 X81.2 Y156.4 E7.10395
G1 X81.2 Y63.6 E9.88184
G1 X138.8 Y63.6 E11.60604
G1 X138.8 Y156.4 E14.38393
G0 F6000 X139.2 Y156.8
;TYPE:WALL-OUTER
G1 F1200 X80.8 Y156.8 E16.13208
G1 X80.8 Y63.2 E18.93392
G1 X139.2 Y63.2 E20.68207
G1 X139.2 Y156.8 E23.4839
G0 F6000 X138.93 Y156.53
G0 X138.69 Y156.01
G0 X138.41 Y156.01
;TYPE:SKIN
G1 F1200 X81.59 Y156.01 E25.18476
G1 X81.59 Y63.99 E27.9393
G1 X138.41 Y63.99 E29.64015
G1 X138.41 Y156.01 E32.39469
G1 F2400 E25.39469
G0 F6000 X138.69 Y156.01
G0 X138.59 Y121.09
G0 X140.065 Y121.09
G0 X129.514 Y119.697
G0 X130.957 Y121.09
G1 F2400 E32.39469
G0 F6000 X131.157 Y121.34
G1 F1200 X131.157 Y119.34 E32.45456
G1 X135.39 Y119.34 E32.58127
G1 X135.39 Y100.66 E33.14044
G1 X120.71 Y100.66 E33.57987
G1 X120.71 Y119.34 E34.13904
G1 X124.943 Y119.34 E34.26575
G1 X124.943 Y121.34 E34.32562
G1 X131.157 Y121.34 E34.51163
G1 F2400 E27.51163
G0 F6000 X130.877 Y121.09
G0 X128.84 Y121.12
G0 X128.84 Y119.685
G0 X95.668 Y153.179
G0 X97.016 Y152.613
G0 X97.113 Y153.492
G1 F2400 E34.51163
G0 F6000 X97.395 Y153.493
G1 F1200 X97.345 Y153.004 E34.52635
G1 X97.2 Y152.536 E34.54101
G1 X96.971 Y152.11 E34.55549
G1 X96.664 Y151.736 E34.56997
G1 X96.286 Y151.426 E34.58461
G1 X95.855 Y151.195 E34.59925
G1 X95.386 Y151.054 E34.61391
G1 X94.9 Y151.005 E34.62853
G1 X94.414 Y151.054 E34.64315
G1 X93.945 Y151.195 E34.65781
G1 X93.514 Y151.426 E34.67245
G1 X93.136 Y151.736 E34.68708
G1 X92.826 Y152.114 E34.70171
G1 X92.595 Y152.545 E34.71635
G1 X92.454 Y153.014 E34.73101
G1 X92.405 Y153.5 E34.74563
G1 X92.454 Y153.986 E34.76026
G1 X92.595 Y154.455 E34.77492
G1 X92.826 Y154.886 E34.78955
G1 X93.136 Y155.265 E34.80421
G1 X93.516 Y155.575 E34.81889
G1 X93.95 Y155.806 E34.83361
G1 X94.414 Y155.946 E34.84811
G1 X94.9 Y155.995 E34.86274
G1 X95.396 Y155.945 E34.87766
G1 X95.864 Y155.8 E34.89232
G1 X96.291 Y155.571 E34.90683
G1 X96.672 Y155.258 E34.92159
G1 X96.978 Y154.877 E34.93622
G1 X97.207 Y154.452 E34.95067
G1 X97.346 Y153.979 E34.96543
G1 X97.395 Y153.493 E34.98005
G1 F2400 E27.98005
G0 F6000 X97.113 Y153.492
G0 X96.522 Y151.878
G0 X95.486 Y152.908
G0 X94.905 Y67.332
G0 X94.906 Y68.794
G0 X95.749 Y68.545
G1 F2400 E34.98005
G0 F6000 X95.855 Y68.805
G1 F1200 X96.286 Y68.574 E34.99469
G1 X96.664 Y68.264 E35.00932
G1 X96.974 Y67.886 E35.02395
G1 X97.205 Y67.455 E35.03859
G1 X97.346 Y66.986 E35.05325
G1 X97.395 Y66.492 E35.06811
G1 X97.345 Y66.003 E35.08282
G1 X97.2 Y65.536 E35.09746
G1 X96.971 Y65.11 E35.11194
G1 X96.664 Y64.736 E35.12642
G1 X96.286 Y64.426 E35.14106
G1 X95.855 Y64.195 E35.15569
G1 X95.386 Y64.054 E35.17035
G1 X94.9 Y64.005 E35.18498
G1 X94.414 Y64.054 E35.1996
G1 X93.945 Y64.195 E35.21426
G1 X93.514 Y64.426 E35.2289
G1 X93.136 Y64.736 E35.24353
G1 X92.826 Y65.114 E35.25816
G1 X92.595 Y65.545 E35.2728
G1 X92.454 Y66.014 E35.28746
G1 X92.405 Y66.5 E35.30208
G1 X92.454 Y66.986 E35.3167
G1 X92.595 Y67.455 E35.33136
G1 X92.826 Y67.887 E35.34603
G1 X93.142 Y68.271 E35.36091
G1 X93.522 Y68.578 E35.37554
G1 X93.948 Y68.807 E35.39002
G1 X94.421 Y68.946 E35.40477
G1 X94.906 Y68.995 E35.41936
G1 X95.386 Y68.946 E35.43381
G1 X95.855 Y68.805 E35.44847
G1 F2400 E28.44847
G0 F6000 X95.749 Y68.545
G0 X96.807 Y67.774
G0 X95.591 Y66.964
G0 X140.065 Y67.774
G0 X138.59 Y67.774
G0 X138.69 Y64.184
G1 F2400 E35.44847
G0 F6000 X138.289 Y64.184
G1 F1200 X138.214 Y64.109 E35.45164
G0 F6000 X137.648 Y64.109
G1 F1200 X138.289 Y64.75 E35.47878
G0 F6000 X138.289 Y65.316
G1 F1200 X137.083 Y64.109 E35.52985
G0 F6000 X136.517 Y64.109
G1 F1200 X138.289 Y65.881 E35.60487
G0 F6000 X138.289 Y66.447
G1 F1200 X135.951 Y64.109 E35.70384
G0 F6000 X135.386 Y64.109
G1 F1200 X138.289 Y67.013 E35.82676
G0 F6000 X138.289 Y67.578
G1 F1200 X134.82 Y64.109 E35.97361
G0 F6000 X134.254 Y64.109
G1 F1200 X138.289 Y68.144 E36.14443
G0 F6000 X138.289 Y68.71
G1 F1200 X133.689 Y64.109 E36.33918
G0 F6000 X133.123 Y64.109
G1 F1200 X138.289 Y69.275 E36.55787
G0 F6000 X138.289 Y69.841
G1 F1200 X132.557 Y64.109 E36.80053
G0 F6000 X131.992 Y64.109
G1 F1200 X138.289 Y70.407 E37.06712
G0 F6000 X138.289 Y70.973
G1 F1200 X131.426 Y64.109 E37.35768
G0 F6000 X130.86 Y64.109
G1 F1200 X138.289 Y71.538 E37.67217
G0 F6000 X138.289 Y72.104
G1 F1200 X130.295 Y64.109 E38.0106
G0 F6000 X129.729 Y64.109
G1 F1200 X138.289 Y72.67 E38.373
G0 F6000 X138.289 Y73.235
G1 F1200 X129.163 Y64.109 E38.75933
G0 F6000 X128.597 Y64.109
G1 F1200 X138.289 Y73.801 E39.16962
G0 F6000 X138.289 Y74.367
G1 F1200 X128.032 Y64.109 E39.60386
G0 F6000 X127.466 Y64.109
G1 F1200 X138.289 Y74.932 E40.06203
G0 F6000 X138.289 Y75.498
G1 F1200 X126.9 Y64.109 E40.54416
G0 F6000 X126.335 Y64.109
G1 F1200 X138.289 Y76.064 E41.05024
G0 F6000 X138.289 Y76.629
G1 F1200 X125.769 Y64.109 E41.58025
G0 F6000 X125.203 Y64.109
G1 F1200 X138.289 Y77.195 E42.13422
G0 F6000 X138.289 Y77.761
G1 F1200 X124.638 Y64.109 E42.71213
G0 F6000 X124.072 Y64.109
G1 F1200 X138.289 Y78.326 E43.31398
G0 F6000 X138.289 Y78.892
G1 F1200 X123.506 Y64.109 E43.9398
G0 F6000 X122.941 Y64.109
G1 F1200 X138.289 Y79.458 E44.58955
G0 F6000 X138.289 Y80.023
G1 F1200 X122.375 Y64.109 E45.26324
G0 F6000 X121.809 Y64.109
G1 F1200 X138.289 Y80.589 E45.96089
G0 F6000 X138.289 Y81.155
G1 F1200 X121.244 Y64.109 E46.68248
G0 F6000 X120.678 Y64.109
G1 F1200 X138.289 Y81.721 E47.42803
G0 F6000 X138.289 Y82.286
G1 F1200 X120.112 Y64.109 E48.19753
G0 F6000 X119.547 Y64.109
G1 F1200 X138.289 Y82.852 E48.99096
G0 F6000 X138.289 Y83.418
G1 F1200 X118.981 Y64.109 E49.80835
G0 F6000 X118.415 Y64.109
G1 F1200 X138.289 Y83.983 E50.64968
G0 F6000 X138.289 Y84.549
G1 F1200 X117.849 Y64.109 E51.51497
G0 F6000 X117.284 Y64.109
G1 F1200 X138.289 Y85.115 E52.4042
G0 F6000 X138.289 Y85.68
G1 F1200 X116.718 Y64.109 E53.31737
G0 F6000 X116.152 Y64.109
G1 F1200 X138.289 Y86.246 E54.2545
G0 F6000 X138.289 Y86.812
G1 F1200 X115.587 Y64.109 E55.21557
G0 F6000 X115.021 Y64.109
G1 F1200 X138.289 Y87.377 E56.20058
G0 F6000 X138.289 Y87.943
G1 F1200 X114.455 Y64.109 E57.20955
G0 F6000 X113.89 Y64.109
G1 F1200 X138.289 Y88.509 E58.24246
G0 F6000 X138.289 Y89.074
G1 F1200 X113.324 Y64.109 E59.29931
G0 F6000 X112.758 Y64.109
G1 F1200 X138.289 Y89.64 E60.38012
G0 F6000 X138.289 Y90.206
G1 F1200 X112.193 Y64.109 E61.48487
G0 F6000 X111.627 Y64.109
G1 F1200 X138.289 Y90.772 E62.61358
G0 F6000 X138.289 Y91.337
G1 F1200 X111.061 Y64.109 E63.76623
G0 F6000 X110.496 Y64.109
G1 F1200 X138.289 Y91.903 E64.94282
G0 F6000 X138.289 Y92.469
G1 F1200 X109.93 Y64.109 E66.14337
G0 F6000 X109.364 Y64.109
G1 F1200 X138.289 Y93.034 E67.36786
G0 F6000 X138.289 Y93.6
G1 F1200 X108.798 Y64.109 E68.61631
G0 F6000 X108.233 Y64.109
G1 F1200 X138.289 Y94.166 E69.8887
G0 F6000 X138.289 Y94.731
G1 F1200 X107.667 Y64.109 E71.18503
G0 F6000 X107.101 Y64.109
G1 F1200 X138.289 Y95.297 E72.50531
G0 F6000 X138.289 Y95.863
G1 F1200 X106.536 Y64.109 E73.84954
G0 F6000 X105.97 Y64.109
G1 F1200 X138.289 Y96.428 E75.21771
G0 F6000 X138.289 Y96.994
G1 F1200 X105.404 Y64.109 E76.60984
G0 F6000 X104.839 Y64.109
G1 F1200 X138.289 Y97.56 E78.02591
G0 F6000 X138.289 Y98.125
G1 F1200 X104.273 Y64.109 E79.46592
G0 F6000 X103.707 Y64.109
G1 F1200 X138.289 Y98.691 E80.92988
G0 F6000 X138.289 Y99.257
G1 F1200 X103.142 Y64.109 E82.41779
G0 F6000 X102.576 Y64.109
G1 F1200 X138.289 Y99.822 E83.92964
G0 F6000 X138.289 Y100.388
G1 F1200 X102.01 Y64.109 E85.46545
G0 F6000 X101.445 Y64.109
G1 F1200 X138.289 Y100.954 E87.02519
G0 F6000 X138.289 Y101.52
G1 F1200 X100.879 Y64.109 E88.6089
G0 F6000 X100.313 Y64.109
G1 F1200 X138.289 Y102.085 E90.21655
G0 F6000 X138.289 Y102.651
G1 F1200 X99.748 Y64.109 E91.84813
G0 F6000 X99.182 Y64.109
G1 F1200 X138.289 Y103.217 E93.50368
G0 F6000 X138.289 Y103.782
G1 F1200 X135.509 Y101.002 E93.62137
G0 F6000 X135.509 Y101.568
G1 F1200 X138.289 Y104.348 E93.73905
G0 F6000 X138.289 Y104.914
G1 F1200 X135.509 Y102.133 E93.85676
G0 F6000 X135.509 Y102.699
G1 F1200 X138.289 Y105.479 E93.97445
G0 F6000 X138.289 Y106.045
G1 F1200 X135.509 Y103.265 E94.09213
G0 F6000 X135.509 Y103.83
G1 F1200 X138.289 Y106.611 E94.20984
G0 F6000 X138.289 Y107.176
G1 F1200 X135.509 Y104.396 E94.32753
G0 F6000 X135.509 Y104.962
G1 F1200 X138.289 Y107.742 E94.44522
G0 F6000 X138.289 Y108.308
G1 F1200 X135.509 Y105.527 E94.56292
G0 F6000 X135.509 Y106.093
G1 F1200 X138.289 Y108.873 E94.68061
G0 F6000 X138.289 Y109.439
G1 F1200 X135.509 Y106.659 E94.7983
G0 F6000 X135.509 Y107.224
G1 F1200 X138.289 Y110.005 E94.916
G0 F6000 X138.289 Y110.57
G1 F1200 X135.509 Y107.79 E95.03369
G0 F6000 X135.509 Y108.356
G1 F1200 X138.289 Y111.136 E95.15138
G0 F6000 X138.289 Y111.702
G1 F1200 X135.509 Y108.922 E95.26906
G0 F6000 X135.509 Y109.487
G1 F1200 X138.289 Y112.268 E95.38677
G0 F6000 X138.289 Y112.833
G1 F1200 X135.509 Y110.053 E95.50446
G0 F6000 X135.509 Y110.619
G1 F1200 X138.289 Y113.399 E95.62214
G0 F6000 X138.289 Y113.965
G1 F1200 X135.509 Y111.184 E95.73985
G0 F6000 X135.509 Y111.75
G1 F1200 X138.289 Y114.53 E95.85754
G0 F6000 X138.289 Y115.096
G1 F1200 X135.509 Y112.316 E95.97522
G0 F6000 X135.509 Y112.881
G1 F1200 X138.289 Y115.662 E96.09293
G0 F6000 X138.289 Y116.227
G1 F1200 X135.509 Y113.447 E96.21062
G0 F6000 X135.509 Y114.013
G1 F1200 X138.289 Y116.793 E96.3283
G0 F6000 X138.289 Y117.359
G1 F1200 X135.509 Y114.578 E96.44601
G0 F6000 X135.509 Y115.144
G1 F1200 X138.289 Y117.924 E96.5637
G0 F6000 X138.289 Y118.49
G1 F1200 X135.509 Y115.71 E96.68138
G0 F6000 X135.509 Y116.275
G1 F1200 X138.289 Y119.056 E96.79909
G0 F6000 X138.289 Y119.621
G1 F1200 X135.509 Y116.841 E96.91678
G0 F6000 X135.509 Y117.407
G1 F1200 X138.289 Y120.187 E97.03446
G0 F6000 X138.289 Y120.753
G1 F1200 X135.509 Y117.972 E97.15217
G0 F6000 X135.509 Y118.538
G1 F1200 X138.289 Y121.319 E97.26988
G0 F6000 X138.289 Y121.884
G1 F1200 X135.509 Y119.104 E97.38757
G0 F6000 X135.299 Y119.46
G1 F1200 X138.289 Y122.45 E97.51414
G0 F6000 X138.289 Y123.016
G1 F1200 X134.733 Y119.46 E97.66468
G0 F6000 X134.167 Y119.46
G1 F1200 X138.289 Y123.581 E97.83916
G0 F6000 X138.289 Y124.147
G1 F1200 X133.602 Y119.46 E98.03757
G0 F6000 X133.036 Y119.46
G1 F1200 X138.289 Y124.713 E98.25995
G0 F6000 X138.289 Y125.278
G1 F1200 X132.47 Y119.46 E98.50626
G0 F6000 X131.905 Y119.46
G1 F1200 X138.289 Y125.844 E98.77652
G0 F6000 X138.289 Y126.41
G1 F1200 X131.339 Y119.46 E99.07074
G0 F6000 X131.275 Y119.962
G1 F1200 X138.289 Y126.975 E99.36764
G0 F6000 X138.289 Y127.541
G1 F1200 X131.275 Y120.527 E99.66456
G0 F6000 X131.275 Y121.093
