;FLAVOR:Marlin
;TIME:6586
;Filament used: 6.31375m
;Layer height: 0.2
;MINX:69.335
;MINY:67.335
;MINZ:0.2
;MAXX:150.581
;MAXY:152.665
;MAXZ:15
;Generated with Cura_SteamEngine 4.13.1
M140 S60
M105
M190 S60
M104 S195
M105
M109 S195
M82 ;absolute extrusion mode
G28 ;Home
G92 E0 ;Reset Extruder
G1 Z2.0 F3000 ;Move bed down
G1 X10.1 Y20 Z0.28 F5000.0 ;Move to start position
G1 X10.1 Y200.0 Z0.28 F1500.0 E15 ;Draw the first line
G1 X10.4 Y200.0 Z0.28 F5000.0 ;Move to side a little
G1 X10.4 Y20 Z0.28 F1500.0 E30 ;Draw the second line
G92 E0 ;Reset Extruder
G1 Z2.0 F3000 ;Move Bed up
G92 E0
G92 E0
G1 F2400 E-7
;LAYER_COUNT:75
;LAYER:0
M107
G0 F6000 X149.18 Y68.2 Z0.2
;TYPE:SKIRT
G1 F2400 E0
G1 F1200 X149.584 Y68.2 E0.01209
G1 X149.585 Y79.8 E0.35933
G1 X149.181 Y79.8 E0.37142
G1 X149.18 Y68.2 E0.71866
G1 F2400 E-6.28134
G0 F6000 X149.18 Y140.2
G1 F2400 E0.71866
G1 F1200 X149.584 Y140.2 E0.73075
G1 X149.585 Y151.8 E1.07799
G1 X149.181 Y151.8 E1.09008
G1 X149.18 Y140.2 E1.43732
G1 F2400 E-5.56268
;MESH:Door.stl
G0 F6000 X125.666 Y78.315
G0 X125.949 Y79.749
G0 X125.089 Y79.561
;TYPE:WALL-INNER
G1 F2400 E1.43732
G1 F1200 X125.499 Y79.602 E1.44965
G1 X125.911 Y79.561 E1.46204
G1 X126.303 Y79.442 E1.47431
G1 X126.666 Y79.249 E1.48661
G1 X126.99 Y78.984 E1.49914
G1 X127.25 Y78.664 E1.51149
G1 X127.445 Y78.299 E1.52387
G1 X127.561 Y77.907 E1.53611
G1 X127.602 Y77.497 E1.54844
G1 X127.561 Y77.085 E1.56084
G1 X127.441 Y76.693 E1.57311
G1 X127.246 Y76.331 E1.58542
G1 X126.984 Y76.01 E1.59782
G1 X126.664 Y75.75 E1.61016
G1 X126.299 Y75.555 E1.62255
G1 X125.907 Y75.439 E1.63479
G1 X125.497 Y75.398 E1.64712
G1 X125.085 Y75.439 E1.65952
G1 X124.693 Y75.559 E1.67179
G1 X124.33 Y75.755 E1.68414
G1 X124.014 Y76.012 E1.69633
G1 X123.752 Y76.333 E1.70873
G1 X123.558 Y76.696 E1.72105
G1 X123.439 Y77.089 E1.73334
G1 X123.398 Y77.5 E1.74571
G1 X123.439 Y77.911 E1.75807
G1 X123.558 Y78.304 E1.77036
G1 X123.751 Y78.667 E1.78267
G1 X124.013 Y78.987 E1.79505
G1 X124.333 Y79.249 E1.80743
G1 X124.696 Y79.442 E1.81974
G1 X125.089 Y79.561 E1.83203
G0 F6000 X125.167 Y79.167
;TYPE:WALL-OUTER
G1 F1200 X125.499 Y79.2 E1.84202
G1 X125.833 Y79.167 E1.85206
G1 X126.15 Y79.071 E1.86198
G1 X126.443 Y78.915 E1.87191
G1 X126.705 Y78.7 E1.88206
G1 X126.915 Y78.442 E1.89202
G1 X127.073 Y78.146 E1.90206
G1 X127.167 Y77.83 E1.91193
G1 X127.2 Y77.497 E1.92195
G1 X127.167 Y77.164 E1.93196
G1 X127.07 Y76.848 E1.94186
G1 X126.912 Y76.554 E1.95185
G1 X126.7 Y76.295 E1.96187
G1 X126.442 Y76.085 E1.97183
G1 X126.146 Y75.927 E1.98187
G1 X125.83 Y75.833 E1.99174
G1 X125.497 Y75.8 E2.00176
G1 X125.164 Y75.833 E2.01177
G1 X124.848 Y75.93 E2.02167
G1 X124.553 Y76.089 E2.0317
G1 X124.298 Y76.297 E2.04155
G1 X124.086 Y76.556 E2.05157
G1 X123.929 Y76.85 E2.06155
G1 X123.833 Y77.167 E2.07146
G1 X123.8 Y77.5 E2.08148
G1 X123.833 Y77.833 E2.09149
G1 X123.929 Y78.15 E2.10141
G1 X124.086 Y78.444 E2.11139
G1 X124.297 Y78.703 E2.12139
G1 X124.556 Y78.914 E2.13139
G1 X124.85 Y79.071 E2.14136
G1 X125.167 Y79.167 E2.15128
G0 F6000 X125.082 Y79.598
G1 F2400 E-4.84872
G0 F6000 X123.878 Y79.122
G0 X124.911 Y78.089
G0 X87.092 Y78.084
G0 X88.125 Y79.119
G0 X86.089 Y79.561
;TYPE:WALL-INNER
G1 F2400 E2.15128
G1 F1200 X86.499 Y79.602 E2.16361
G1 X86.911 Y79.561 E2.176
G1 X87.304 Y79.442 E2.1883
G1 X87.667 Y79.248 E2.20062
G1 X87.99 Y78.984 E2.2131
G1 X88.25 Y78.665 E2.22542
G1 X88.443 Y78.303 E2.2377
G1 X88.561 Y77.908 E2.25004
G1 X88.602 Y77.497 E2.26241
G1 X88.561 Y77.085 E2.2748
G1 X88.441 Y76.693 E2.28707
G1 X88.246 Y76.331 E2.29938
G1 X87.984 Y76.01 E2.31178
G1 X87.664 Y75.75 E2.32413
G1 X87.299 Y75.555 E2.33651
G1 X86.907 Y75.439 E2.34875
G1 X86.497 Y75.398 E2.36109
G1 X86.085 Y75.439 E2.37348
G1 X85.693 Y75.559 E2.38575
G1 X85.33 Y75.755 E2.3981
G1 X85.014 Y76.012 E2.41029
G1 X84.752 Y76.333 E2.4227
G1 X84.558 Y76.696 E2.43502
G1 X84.439 Y77.089 E2.44731
G1 X84.398 Y77.5 E2.45967
G1 X84.439 Y77.911 E2.47204
G1 X84.558 Y78.304 E2.48433
G1 X84.751 Y78.667 E2.49663
G1 X85.013 Y78.987 E2.50901
G1 X85.333 Y79.249 E2.52139
G1 X85.696 Y79.442 E2.5337
G1 X86.089 Y79.561 E2.54599
G0 F6000 X86.167 Y79.167
;TYPE:WALL-OUTER
G1 F1200 X86.499 Y79.2 E2.55598
G1 X86.833 Y79.167 E2.56603
G1 X87.15 Y79.071 E2.57594
G1 X87.444 Y78.914 E2.58592
G1 X87.705 Y78.7 E2.59602
G1 X87.915 Y78.442 E2.60598
G1 X88.071 Y78.15 E2.61589
G1 X88.167 Y77.83 E2.62589
G1 X88.2 Y77.497 E2.63591
G1 X88.167 Y77.164 E2.64592
G1 X88.07 Y76.848 E2.65582
G1 X87.912 Y76.554 E2.66581
G1 X87.7 Y76.295 E2.67583
G1 X87.442 Y76.085 E2.68579
G1 X87.146 Y75.927 E2.69583
G1 X86.83 Y75.833 E2.7057
G1 X86.497 Y75.8 E2.71572
G1 X86.164 Y75.833 E2.72573
G1 X85.848 Y75.93 E2.73563
G1 X85.553 Y76.089 E2.74566
G1 X85.298 Y76.297 E2.75551
G1 X85.086 Y76.556 E2.76553
G1 X84.929 Y76.85 E2.7755
G1 X84.833 Y77.167 E2.78542
G1 X84.8 Y77.5 E2.79544
G1 X84.833 Y77.833 E2.80545
G1 X84.929 Y78.15 E2.81537
G1 X85.086 Y78.444 E2.82534
G1 X85.297 Y78.703 E2.83534
G1 X85.556 Y78.914 E2.84534
G1 X85.85 Y79.071 E2.85532
G1 X86.167 Y79.167 E2.86524
G0 F6000 X86.082 Y79.598
G1 F2400 E-4.13476
G0 F6000 X86.499 Y79.793
G0 X86.499 Y78.331
G0 X86.496 Y141.669
G0 X86.497 Y140.207
G0 X85.128 Y141.127
G0 X84.707 Y141.758
G0 X84.559 Y142.5
G0 X84.707 Y143.242
G0 X85.127 Y143.873
G0 X86.089 Y144.561
;TYPE:WALL-INNER
G1 F2400 E2.86524
G1 F1200 X86.499 Y144.602 E2.87757
G1 X86.911 Y144.561 E2.88996
G1 X87.304 Y144.442 E2.90226
G1 X87.667 Y144.248 E2.91458
G1 X87.99 Y143.984 E2.92706
G1 X88.25 Y143.664 E2.93941
G1 X88.445 Y143.299 E2.95179
G1 X88.561 Y142.907 E2.96403
G1 X88.602 Y142.497 E2.97636
G1 X88.561 Y142.085 E2.98876
G1 X88.441 Y141.693 E3.00103
G1 X88.246 Y141.331 E3.01334
G1 X87.984 Y141.01 E3.02574
G1 X87.664 Y140.75 E3.03808
G1 X87.299 Y140.555 E3.05047
G1 X86.907 Y140.439 E3.06271
G1 X86.497 Y140.398 E3.07504
G1 X86.085 Y140.439 E3.08744
G1 X85.693 Y140.559 E3.09971
G1 X85.33 Y140.755 E3.11206
G1 X85.014 Y141.012 E3.12425
G1 X84.752 Y141.333 E3.13665
G1 X84.558 Y141.696 E3.14897
G1 X84.439 Y142.089 E3.16127
G1 X84.398 Y142.5 E3.17363
G1 X84.439 Y142.911 E3.18599
G1 X84.558 Y143.304 E3.19828
G1 X84.751 Y143.667 E3.21059
G1 X85.013 Y143.987 E3.22297
G1 X85.333 Y144.249 E3.23535
G1 X85.696 Y144.442 E3.24766
G1 X86.089 Y144.561 E3.25995
G0 F6000 X86.167 Y144.167
;TYPE:WALL-OUTER
G1 F1200 X86.499 Y144.2 E3.26994
G1 X86.833 Y144.167 E3.27998
G1 X87.15 Y144.071 E3.2899
G1 X87.444 Y143.914 E3.29987
G1 X87.705 Y143.7 E3.30998
G1 X87.915 Y143.442 E3.31994
G1 X88.073 Y143.146 E3.32998
G1 X88.167 Y142.83 E3.33985
G1 X88.2 Y142.497 E3.34987
G1 X88.167 Y142.164 E3.35988
G1 X88.07 Y141.848 E3.36978
G1 X87.912 Y141.554 E3.37977
G1 X87.7 Y141.295 E3.38979
G1 X87.442 Y141.085 E3.39974
G1 X87.146 Y140.927 E3.40979
G1 X86.83 Y140.833 E3.41966
G1 X86.497 Y140.8 E3.42967
G1 X86.164 Y140.833 E3.43969
G1 X85.848 Y140.93 E3.44959
G1 X85.553 Y141.089 E3.45962
G1 X85.298 Y141.297 E3.46947
G1 X85.086 Y141.556 E3.47949
G1 X84.929 Y141.85 E3.48946
G1 X84.833 Y142.167 E3.49938
G1 X84.8 Y142.5 E3.5094
G1 X84.833 Y142.833 E3.51941
G1 X84.929 Y143.15 E3.52933
G1 X85.086 Y143.444 E3.5393
G1 X85.297 Y143.703 E3.5493
G1 X85.556 Y143.914 E3.5593
G1 X85.85 Y144.071 E3.56928
G1 X86.167 Y144.167 E3.5792
G0 F6000 X86.082 Y144.598
G1 F2400 E-3.4208
G0 F6000 X87.021 Y144.352
G0 X88.41 Y143.77
G0 X87.193 Y142.96
G0 X124.808 Y142.963
G0 X123.591 Y143.773
G0 X125.089 Y144.561
;TYPE:WALL-INNER
G1 F2400 E3.5792
G1 F1200 X125.499 Y144.602 E3.59153
G1 X125.911 Y144.561 E3.60392
G1 X126.304 Y144.442 E3.61622
G1 X126.667 Y144.248 E3.62854
G1 X126.99 Y143.984 E3.64102
G1 X127.25 Y143.664 E3.65337
G1 X127.445 Y143.299 E3.66575
G1 X127.561 Y142.907 E3.67799
G1 X127.602 Y142.497 E3.69032
G1 X127.561 Y142.085 E3.70272
G1 X127.441 Y141.693 E3.71499
G1 X127.246 Y141.331 E3.7273
G1 X126.984 Y141.01 E3.7397
G1 X126.664 Y140.75 E3.75204
G1 X126.299 Y140.555 E3.76443
G1 X125.907 Y140.439 E3.77667
G1 X125.497 Y140.398 E3.789
G1 X125.085 Y140.439 E3.8014
G1 X124.693 Y140.559 E3.81367
G1 X124.33 Y140.755 E3.82602
G1 X124.014 Y141.012 E3.83821
G1 X123.752 Y141.333 E3.85061
G1 X123.558 Y141.696 E3.86293
G1 X123.439 Y142.089 E3.87522
G1 X123.398 Y142.5 E3.88759
G1 X123.439 Y142.911 E3.89995
G1 X123.558 Y143.304 E3.91224
G1 X123.751 Y143.667 E3.92455
G1 X124.013 Y143.987 E3.93693
G1 X124.333 Y144.249 E3.94931
G1 X124.696 Y144.442 E3.96162
G1 X125.089 Y144.561 E3.97391
G0 F6000 X125.167 Y144.167
;TYPE:WALL-OUTER
G1 F1200 X125.499 Y144.2 E3.9839
G1 X125.833 Y144.167 E3.99394
G1 X126.15 Y144.071 E4.00386
G1 X126.444 Y143.914 E4.01383
G1 X126.705 Y143.7 E4.02394
G1 X126.915 Y143.442 E4.03389
G1 X127.073 Y143.146 E4.04394
G1 X127.167 Y142.83 E4.05381
G1 X127.2 Y142.497 E4.06382
G1 X127.167 Y142.164 E4.07384
G1 X127.07 Y141.848 E4.08374
G1 X126.912 Y141.554 E4.09373
G1 X126.7 Y141.295 E4.10375
G1 X126.442 Y141.085 E4.1137
G1 X126.146 Y140.927 E4.12375
G1 X125.83 Y140.833 E4.13362
G1 X125.497 Y140.8 E4.14363
G1 X125.164 Y140.833 E4.15365
G1 X124.848 Y140.93 E4.16355
G1 X124.553 Y141.089 E4.17358
G1 X124.298 Y141.297 E4.18343
G1 X124.086 Y141.556 E4.19345
G1 X123.929 Y141.85 E4.20342
G1 X123.833 Y142.167 E4.21334
G1 X123.8 Y142.5 E4.22335
G1 X123.833 Y142.833 E4.23337
G1 X123.929 Y143.15 E4.24329
G1 X124.086 Y143.444 E4.25326
G1 X124.297 Y143.703 E4.26326
G1 X124.556 Y143.914 E4.27326
G1 X124.85 Y144.071 E4.28324
G1 X125.167 Y144.167 E4.29315
G0 F6000 X125.082 Y144.598
G1 F2400 E-2.70685
G0 F6000 X126.242 Y144.293
G0 X126.754 Y143.951
G0 X127.749 Y142.945
G0 X126.315 Y142.663
G0 X141.665 Y138.673
G0 X140.23 Y138.673
G0 X140.4 Y140.6
;TYPE:WALL-INNER
G1 F2400 E4.29315
G1 F1200 X147.58 Y140.6 E4.50808
G1 X147.581 Y151.4 E4.83137
G1 X77.111 Y151.4 E6.94083
G1 X76.656 Y151.388 E6.95445
G1 X76.316 Y151.361 E6.96466
G1 X75.998 Y151.318 E6.97427
G1 X75.67 Y151.258 E6.98425
G1 X75.346 Y151.179 E6.99423
G1 X75.002 Y151.077 E7.00497
G1 X74.702 Y150.97 E7.01451
G1 X74.39 Y150.84 E7.02462
G1 X74.091 Y150.698 E7.03453
G1 X73.807 Y150.542 E7.04423
G1 X73.505 Y150.357 E7.05483
G1 X73.228 Y150.167 E7.06489
G1 X72.976 Y149.973 E7.07441
G1 X72.709 Y149.744 E7.08494
G1 X72.476 Y149.523 E7.09455
G1 X72.231 Y149.264 E7.10522
G1 X72.022 Y149.017 E7.11491
G1 X71.824 Y148.759 E7.12464
G1 X71.623 Y148.466 E7.13528
G1 X71.461 Y148.2 E7.1446
G1 X71.3 Y147.904 E7.15469
G1 X71.152 Y147.592 E7.16503
G1 X71.02 Y147.271 E7.17542
G1 X70.916 Y146.975 E7.18481
G1 X70.819 Y146.645 E7.1951
G1 X70.739 Y146.309 E7.20544
G1 X70.682 Y145.999 E7.21488
G1 X70.636 Y145.646 E7.22553
G1 X70.611 Y145.321 E7.23529
G1 X70.6 Y144.895 E7.24805
G1 X70.6 Y75.111 E9.33697
G1 X70.611 Y74.664 E9.35035
G1 X70.637 Y74.341 E9.36005
G1 X70.683 Y73.988 E9.37071
G1 X70.742 Y73.67 E9.38039
G1 X70.819 Y73.353 E9.39016
G1 X70.923 Y73.002 E9.40112
G1 X71.032 Y72.696 E9.41084
G1 X71.161 Y72.388 E9.42083
G1 X71.304 Y72.087 E9.43081
G1 X71.455 Y71.81 E9.44025
G1 X71.642 Y71.506 E9.45094
G1 X71.833 Y71.228 E9.46103
G1 X72.023 Y70.981 E9.47036
G1 X72.241 Y70.726 E9.4804
G1 X72.486 Y70.467 E9.49108
G1 X72.72 Y70.245 E9.50073
G1 X72.983 Y70.022 E9.51105
G1 X73.241 Y69.824 E9.52079
G1 X73.517 Y69.634 E9.53082
G1 X73.812 Y69.454 E9.54116
G1 X74.092 Y69.302 E9.5507
G1 X74.404 Y69.154 E9.56104
G1 X74.719 Y69.024 E9.57124
G1 X75.025 Y68.916 E9.58095
G1 X75.351 Y68.82 E9.59112
G1 X75.68 Y68.741 E9.60125
G1 X76 Y68.682 E9.61099
G1 X76.339 Y68.638 E9.62123
G1 X76.672 Y68.612 E9.63122
G1 X77.12 Y68.6 E9.64464
G1 X147.58 Y68.6 E11.7538
G1 X147.581 Y79.4 E12.07709
G1 X140.4 Y79.4 E12.29204
G1 X140.4 Y140.6 E14.12401
G0 F6000 X140.8 Y140.2
;TYPE:WALL-OUTER
G1 F1200 X147.98 Y140.2 E14.33894
G1 X147.981 Y151.8 E14.68617
G1 X77.101 Y151.8 E16.8079
G1 X76.632 Y151.788 E16.82195
G1 X76.284 Y151.76 E16.8324
G1 X75.935 Y151.713 E16.84294
G1 X75.575 Y151.647 E16.8539
G1 X75.239 Y151.565 E16.86425
G1 X74.888 Y151.461 E16.87521
G1 X74.562 Y151.345 E16.88557
G1 X74.236 Y151.209 E16.89614
G1 X73.903 Y151.051 E16.90717
G1 X73.599 Y150.885 E16.91754
G1 X73.295 Y150.698 E16.92822
G1 X72.994 Y150.492 E16.93914
G1 X72.721 Y150.281 E16.94947
G1 X72.449 Y150.048 E16.96019
G1 X72.185 Y149.798 E16.97108
G1 X71.94 Y149.539 E16.98175
G1 X71.717 Y149.276 E16.99207
G1 X71.494 Y148.985 E17.00304
G1 X71.293 Y148.692 E17.01368
G1 X71.113 Y148.397 E17.02403
G1 X70.938 Y148.075 E17.035
G1 X70.786 Y147.753 E17.04565
G1 X70.65 Y147.424 E17.05631
G1 X70.532 Y147.088 E17.06697
G1 X70.435 Y146.758 E17.07727
G1 X70.35 Y146.402 E17.08822
G1 X70.285 Y146.051 E17.09891
G1 X70.239 Y145.698 E17.10956
G1 X70.212 Y145.352 E17.11995
G1 X70.2 Y144.895 E17.13364
G1 X70.2 Y75.101 E19.22286
G1 X70.212 Y74.632 E19.2369
G1 X70.24 Y74.288 E19.24724
G1 X70.287 Y73.935 E19.2579
G1 X70.353 Y73.575 E19.26885
G1 X70.435 Y73.239 E19.2792
G1 X70.539 Y72.888 E19.29016
G1 X70.655 Y72.562 E19.30052
G1 X70.792 Y72.234 E19.31116
G1 X70.949 Y71.903 E19.32213
G1 X71.114 Y71.6 E19.33245
G1 X71.301 Y71.296 E19.34314
G1 X71.508 Y70.994 E19.3541
G1 X71.719 Y70.721 E19.36443
G1 X71.95 Y70.451 E19.37506
G1 X72.195 Y70.192 E19.38574
G1 X72.461 Y69.94 E19.3967
G1 X72.724 Y69.717 E19.40703
G1 X73.015 Y69.494 E19.418
G1 X73.299 Y69.299 E19.42831
G1 X73.603 Y69.113 E19.43898
G1 X73.921 Y68.94 E19.44982
G1 X74.242 Y68.788 E19.46045
G1 X74.566 Y68.654 E19.47094
G1 X74.912 Y68.532 E19.48193
G1 X75.242 Y68.435 E19.49222
G1 X75.592 Y68.351 E19.503
G1 X75.949 Y68.285 E19.51386
G1 X76.298 Y68.24 E19.5244
G1 X76.648 Y68.212 E19.53491
G1 X77.11 Y68.2 E19.54874
G1 X147.98 Y68.2 E21.67017
G1 X147.981 Y79.8 E22.01741
G1 X140.8 Y79.8 E22.23237
G1 X140.8 Y140.2 E24.04039
G0 F6000 X140.5 Y140.2
G0 X140.26 Y140.74
G0 X140.01 Y140.99
;TYPE:SKIN
G1 F1200 X147.19 Y140.99 E24.25531
G1 X147.191 Y151.01 E24.55525
G1 X77.121 Y151.01 E26.65274
G1 X76.666 Y150.998 E26.66636
G1 X76.365 Y150.975 E26.6754
G1 X76.068 Y150.934 E26.68437
G1 X75.751 Y150.876 E26.69402
G1 X75.448 Y150.802 E26.70336
G1 X75.122 Y150.706 E26.71353
G1 X74.843 Y150.606 E26.7224
G1 X74.553 Y150.485 E26.73181
G1 X74.265 Y150.348 E26.74136
G1 X74.002 Y150.204 E26.75033
G1 X73.717 Y150.029 E26.76034
G1 X73.449 Y149.845 E26.77007
G1 X73.222 Y149.671 E26.77863
G1 X72.976 Y149.46 E26.78834
G1 X72.745 Y149.24 E26.79788
G1 X72.522 Y149.004 E26.8076
G1 X72.332 Y148.779 E26.81642
G1 X72.134 Y148.521 E26.82615
G1 X71.95 Y148.253 E26.83589
G1 X71.804 Y148.013 E26.84429
G1 X71.643 Y147.717 E26.85438
G1 X71.505 Y147.425 E26.86405
G1 X71.381 Y147.123 E26.87382
G1 X71.284 Y146.846 E26.88261
G1 X71.199 Y146.555 E26.89168
G1 X71.119 Y146.219 E26.90202
G1 X71.066 Y145.929 E26.91085
G1 X71.022 Y145.595 E26.92093
G1 X71.001 Y145.311 E26.92945
G1 X70.99 Y144.895 E26.94191
G1 X70.99 Y75.121 E29.03053
G1 X71.001 Y74.674 E29.04392
G1 X71.023 Y74.392 E29.05239
G1 X71.067 Y74.059 E29.06244
G1 X71.124 Y73.751 E29.07182
G1 X71.196 Y73.455 E29.08094
G1 X71.294 Y73.122 E29.09133
G1 X71.391 Y72.846 E29.10008
G1 X71.504 Y72.575 E29.10887
G1 X71.647 Y72.274 E29.11885
G1 X71.798 Y71.997 E29.12829
G1 X71.964 Y71.727 E29.13778
G1 X72.143 Y71.466 E29.14725
G1 X72.332 Y71.219 E29.15656
G1 X72.531 Y70.987 E29.16571
G1 X72.755 Y70.75 E29.17547
G1 X72.989 Y70.528 E29.18513
G1 X73.221 Y70.332 E29.19422
G1 X73.479 Y70.134 E29.20396
G1 X73.72 Y69.967 E29.21273
G1 X74.007 Y69.792 E29.2228
G1 X74.265 Y69.652 E29.23158
G1 X74.566 Y69.509 E29.24156
G1 X74.858 Y69.389 E29.25101
G1 X75.149 Y69.286 E29.26025
G1 X75.451 Y69.197 E29.26967
G1 X75.757 Y69.124 E29.27909
G1 X76.07 Y69.066 E29.28862
G1 X76.379 Y69.026 E29.29795
G1 X76.682 Y69.002 E29.30704
G1 X77.13 Y68.99 E29.32046
G1 X147.19 Y68.99 E31.41764
G1 X147.191 Y79.01 E31.71758
G1 X140.01 Y79.01 E31.93254
G1 X140.01 Y140.99 E33.78786
G1 F2400 E26.78786
G0 F6000 X140.29 Y140.74
G0 X140.23 Y138.673
G0 X141.665 Y138.673
G0 X126.315 Y142.336
G0 X127.749 Y142.046
G1 F2400 E33.78786
G0 F6000 X127.945 Y142.007
G1 F1200 X127.802 Y141.542 E33.80242
G1 X127.572 Y141.113 E33.81699
G1 X127.261 Y140.733 E33.83169
G1 X126.881 Y140.424 E33.84635
G1 X126.448 Y140.192 E33.86106
G1 X125.983 Y140.055 E33.87557
G1 X125.497 Y140.006 E33.89019
G1 X125.007 Y140.055 E33.90493
G1 X124.541 Y140.198 E33.91952
G1 X124.112 Y140.429 E33.93411
