;FLAVOR:Marlin
;TIME:6444
;Filament used: 5.76603m
;Layer height: 0.2
;MINX:65.335
;MINY:64.335
;MINZ:0.2
;MAXX:153.8
;MAXY:155.665
;MAXZ:3
;Generated with Cura_SteamEngine 4.13.1
M140 S60
M105
M190 S60
M104 S195
M105
M109 S195
M82 ;absolute extrusion mode
G28 ;Home
G92 E0 ;Reset Extruder
G1 Z2.0 F3000 ;Move bed down
G1 X10.1 Y20 Z0.28 F5000.0 ;Move to start position
G1 X10.1 Y200.0 Z0.28 F1500.0 E15 ;Draw the first line
G1 X10.4 Y200.0 Z0.28 F5000.0 ;Move to side a little
G1 X10.4 Y20 Z0.28 F1500.0 E30 ;Draw the second line
G92 E0 ;Reset Extruder
G1 Z2.0 F3000 ;Move Bed up
G92 E0
G92 E0
G1 F2400 E-7
;LAYER_COUNT:15
;LAYER:0
M107
;MESH:Plate.stl
G0 F6000 X113.091 Y98.562 Z0.2
;TYPE:WALL-INNER
G1 F2400 E0
G1 F1200 X113.501 Y98.603 E0.01233
G1 X113.903 Y98.563 E0.02443
G1 X114.305 Y98.444 E0.03698
G1 X114.67 Y98.248 E0.04938
G1 X114.987 Y97.987 E0.06167
G1 X115.249 Y97.668 E0.07403
G1 X115.443 Y97.305 E0.08635
G1 X115.563 Y96.912 E0.09865
G1 X115.604 Y96.5 E0.11104
G1 X115.563 Y96.088 E0.12344
G1 X115.443 Y95.695 E0.13574
G1 X115.249 Y95.332 E0.14806
G1 X114.987 Y95.012 E0.16044
G1 X114.664 Y94.75 E0.17289
G1 X114.305 Y94.556 E0.1851
G1 X113.904 Y94.438 E0.19761
G1 X113.501 Y94.397 E0.20974
G1 X113.091 Y94.438 E0.22207
G1 X112.696 Y94.556 E0.23441
G1 X112.332 Y94.752 E0.24679
G1 X112.014 Y95.013 E0.2591
G1 X111.752 Y95.332 E0.27146
G1 X111.558 Y95.695 E0.28378
G1 X111.438 Y96.09 E0.29614
G1 X111.398 Y96.5 E0.30847
G1 X111.438 Y96.91 E0.3208
G1 X111.558 Y97.305 E0.33316
G1 X111.752 Y97.668 E0.34548
G1 X112.014 Y97.987 E0.35784
G1 X112.332 Y98.248 E0.37015
G1 X112.696 Y98.444 E0.38253
G1 X113.091 Y98.562 E0.39487
G0 F6000 X113.169 Y98.168
;TYPE:WALL-OUTER
G1 F1200 X113.501 Y98.201 E0.40485
G1 X113.826 Y98.169 E0.41463
G1 X114.152 Y98.072 E0.42481
G1 X114.446 Y97.914 E0.4348
G1 X114.703 Y97.703 E0.44475
G1 X114.915 Y97.445 E0.45475
G1 X115.072 Y97.151 E0.46473
G1 X115.169 Y96.833 E0.47468
G1 X115.202 Y96.5 E0.4847
G1 X115.169 Y96.167 E0.49471
G1 X115.072 Y95.849 E0.50467
G1 X114.915 Y95.555 E0.51464
G1 X114.703 Y95.297 E0.52464
G1 X114.441 Y95.084 E0.53475
G1 X114.152 Y94.928 E0.54458
G1 X113.827 Y94.832 E0.55472
G1 X113.501 Y94.799 E0.56453
G1 X113.169 Y94.832 E0.57452
G1 X112.85 Y94.928 E0.58449
G1 X112.555 Y95.086 E0.59451
G1 X112.298 Y95.297 E0.60446
G1 X112.086 Y95.555 E0.61446
G1 X111.929 Y95.849 E0.62443
G1 X111.832 Y96.168 E0.63441
G1 X111.8 Y96.5 E0.6444
G1 X111.832 Y96.832 E0.65438
G1 X111.929 Y97.151 E0.66436
G1 X112.086 Y97.445 E0.67434
G1 X112.298 Y97.703 E0.68433
G1 X112.555 Y97.914 E0.69429
G1 X112.85 Y98.072 E0.70431
G1 X113.169 Y98.168 E0.71428
G0 F6000 X113.084 Y98.599
G1 F2400 E-6.28572
G0 F6000 X113.501 Y98.794
G0 X113.502 Y97.332
G0 X113.501 Y122.668
G0 X113.501 Y121.206
G0 X112.128 Y122.127
G0 X111.707 Y122.757
G0 X111.559 Y123.5
G0 X111.707 Y124.243
G0 X112.128 Y124.873
G0 X113.091 Y125.562
;TYPE:WALL-INNER
G1 F2400 E0.71428
G1 F1200 X113.501 Y125.603 E0.72661
G1 X113.903 Y125.563 E0.7387
G1 X114.305 Y125.444 E0.75125
G1 X114.67 Y125.248 E0.76366
G1 X114.992 Y124.982 E0.77616
G1 X115.252 Y124.662 E0.7885
G1 X115.444 Y124.304 E0.80066
G1 X115.563 Y123.905 E0.81312
G1 X115.604 Y123.494 E0.82549
G1 X115.562 Y123.081 E0.83791
G1 X115.44 Y122.689 E0.8502
G1 X115.246 Y122.327 E0.8625
G1 X114.982 Y122.008 E0.87489
G1 X114.665 Y121.75 E0.88713
G1 X114.306 Y121.557 E0.89933
G1 X113.91 Y121.438 E0.91171
G1 X113.501 Y121.397 E0.92401
G1 X113.091 Y121.438 E0.93635
G1 X112.696 Y121.556 E0.94869
G1 X112.332 Y121.752 E0.96106
G1 X112.014 Y122.013 E0.97338
G1 X111.752 Y122.332 E0.98573
G1 X111.558 Y122.695 E0.99805
G1 X111.438 Y123.09 E1.01041
G1 X111.398 Y123.5 E1.02274
G1 X111.438 Y123.91 E1.03507
G1 X111.558 Y124.305 E1.04743
G1 X111.752 Y124.668 E1.05975
G1 X112.014 Y124.987 E1.07211
G1 X112.332 Y125.248 E1.08442
G1 X112.696 Y125.444 E1.0968
G1 X113.091 Y125.562 E1.10914
G0 F6000 X113.169 Y125.168
;TYPE:WALL-OUTER
G1 F1200 X113.501 Y125.201 E1.11913
G1 X113.826 Y125.169 E1.1289
G1 X114.152 Y125.072 E1.13908
G1 X114.446 Y124.914 E1.14907
G1 X114.707 Y124.699 E1.1592
G1 X114.917 Y124.44 E1.16918
G1 X115.072 Y124.151 E1.17899
G1 X115.169 Y123.827 E1.18912
G1 X115.202 Y123.495 E1.1991
G1 X115.168 Y123.162 E1.20912
G1 X115.069 Y122.844 E1.21909
G1 X114.912 Y122.551 E1.22904
G1 X114.699 Y122.293 E1.23906
G1 X114.442 Y122.084 E1.24897
G1 X114.152 Y121.928 E1.25883
G1 X113.832 Y121.832 E1.26883
G1 X113.501 Y121.799 E1.27879
G1 X113.169 Y121.832 E1.28878
G1 X112.85 Y121.928 E1.29875
G1 X112.555 Y122.086 E1.30877
G1 X112.298 Y122.297 E1.31872
G1 X112.086 Y122.555 E1.32872
G1 X111.929 Y122.849 E1.33869
G1 X111.832 Y123.168 E1.34867
G1 X111.8 Y123.5 E1.35866
G1 X111.832 Y123.832 E1.36864
G1 X111.929 Y124.151 E1.37862
G1 X112.086 Y124.445 E1.3886
G1 X112.298 Y124.703 E1.3986
G1 X112.555 Y124.914 E1.40855
G1 X112.85 Y125.072 E1.41857
G1 X113.169 Y125.168 E1.42854
G0 F6000 X113.084 Y125.599
G1 F2400 E-5.57146
G0 F6000 X112.226 Y125.407
G0 X113.042 Y124.195
G0 X65.335 Y125.405
G0 X66.791 Y125.405
G0 X66.617 Y145.511
;TYPE:WALL-INNER
G1 F2400 E1.42854
G1 F1200 X66.6 Y144.933 E1.44585
G1 X66.601 Y75.069 E3.53717
G1 X66.615 Y74.515 E3.55375
G1 X66.655 Y74.015 E3.56877
G1 X66.719 Y73.523 E3.58362
G1 X66.814 Y73.025 E3.5988
G1 X66.921 Y72.576 E3.61261
G1 X67.07 Y72.077 E3.6282
G1 X67.228 Y71.631 E3.64237
G1 X67.421 Y71.164 E3.65749
G1 X67.629 Y70.731 E3.67187
G1 X67.859 Y70.306 E3.68634
G1 X68.125 Y69.874 E3.70152
G1 X68.407 Y69.464 E3.71642
G1 X68.699 Y69.085 E3.73074
G1 X69.01 Y68.72 E3.74509
G1 X69.371 Y68.34 E3.76078
G1 X69.707 Y68.021 E3.77465
G1 X70.103 Y67.685 E3.7902
G1 X70.486 Y67.391 E3.80465
G1 X70.885 Y67.117 E3.81914
G1 X71.31 Y66.858 E3.83404
G1 X71.728 Y66.63 E3.84829
G1 X72.201 Y66.406 E3.86396
G1 X72.648 Y66.222 E3.87843
G1 X73.107 Y66.06 E3.893
G1 X73.589 Y65.918 E3.90804
G1 X74.068 Y65.804 E3.92278
G1 X74.541 Y65.718 E3.93717
G1 X75.035 Y65.654 E3.95208
G1 X75.509 Y65.616 E3.96632
G1 X76.082 Y65.6 E3.98347
G1 X153.4 Y65.6 E6.29792
G1 X153.4 Y154.4 E8.95607
G1 X76.071 Y154.4 E11.27085
G1 X75.492 Y154.383 E11.28819
G1 X74.993 Y154.343 E11.30317
G1 X74.524 Y154.28 E11.31734
G1 X74.038 Y154.19 E11.33213
G1 X73.56 Y154.074 E11.34686
G1 X73.081 Y153.932 E11.36181
G1 X72.613 Y153.765 E11.37668
G1 X72.168 Y153.58 E11.39111
G1 X71.722 Y153.366 E11.40592
G1 X71.281 Y153.125 E11.42096
G1 X70.885 Y152.883 E11.43485
G1 X70.457 Y152.589 E11.4504
G1 X70.081 Y152.298 E11.46463
G1 X69.718 Y151.989 E11.4789
G1 X69.333 Y151.622 E11.49482
G1 X69.019 Y151.29 E11.5085
G1 X68.693 Y150.907 E11.52356
G1 X68.385 Y150.505 E11.53872
G1 X68.107 Y150.1 E11.55342
G1 X67.864 Y149.703 E11.56735
G1 X67.622 Y149.253 E11.58265
G1 X67.426 Y148.844 E11.59622
G1 X67.224 Y148.362 E11.61187
G1 X67.063 Y147.904 E11.6264
G1 X66.92 Y147.415 E11.64165
G1 X66.807 Y146.948 E11.65603
G1 X66.719 Y146.475 E11.67044
G1 X66.652 Y145.967 E11.68577
G1 X66.617 Y145.511 E11.69946
G0 F6000 X66.217 Y145.505
;TYPE:WALL-OUTER
G1 F1200 X66.2 Y144.933 E11.71659
G1 X66.201 Y75.059 E13.80821
G1 X66.216 Y74.483 E13.82546
G1 X66.258 Y73.964 E13.84105
G1 X66.323 Y73.462 E13.8562
G1 X66.421 Y72.95 E13.8718
G1 X66.535 Y72.47 E13.88657
G1 X66.687 Y71.962 E13.90244
G1 X66.858 Y71.478 E13.91781
G1 X67.051 Y71.011 E13.93293
G1 X67.277 Y70.541 E13.94855
G1 X67.518 Y70.096 E13.96369
G1 X67.79 Y69.654 E13.97923
G1 X68.077 Y69.237 E13.99438
G1 X68.394 Y68.826 E14.00992
G1 X68.715 Y68.449 E14.02474
G1 X69.081 Y68.064 E14.04064
G1 X69.448 Y67.716 E14.05578
G1 X69.844 Y67.38 E14.07133
G1 X70.26 Y67.061 E14.08702
G1 X70.659 Y66.787 E14.10151
G1 X71.113 Y66.51 E14.11743
G1 X71.557 Y66.268 E14.13257
G1 X72.03 Y66.044 E14.14823
G1 X72.501 Y65.85 E14.16348
G1 X72.994 Y65.676 E14.17913
G1 X73.476 Y65.534 E14.19417
G1 X73.982 Y65.414 E14.20974
G1 X74.49 Y65.321 E14.2252
G1 X74.995 Y65.256 E14.24044
G1 X75.483 Y65.216 E14.2551
G1 X76.071 Y65.2 E14.2727
G1 X153.8 Y65.2 E16.59945
G1 X153.8 Y154.8 E19.28155
G1 X76.06 Y154.8 E21.60863
G1 X75.468 Y154.783 E21.62636
G1 X74.961 Y154.742 E21.64158
G1 X74.457 Y154.674 E21.65681
G1 X73.942 Y154.579 E21.67248
G1 X73.453 Y154.46 E21.68755
G1 X72.967 Y154.316 E21.70272
G1 X72.479 Y154.142 E21.71823
G1 X71.995 Y153.941 E21.73392
G1 X71.543 Y153.724 E21.74893
G1 X71.083 Y153.473 E21.76461
G1 X70.667 Y153.218 E21.77922
G1 X70.223 Y152.913 E21.79534
G1 X69.826 Y152.606 E21.81037
G1 X69.446 Y152.282 E21.82531
G1 X69.057 Y151.912 E21.84138
G1 X68.715 Y151.551 E21.85627
G1 X68.38 Y151.157 E21.87175
G1 X68.067 Y150.748 E21.88717
G1 X67.772 Y150.318 E21.90278
G1 X67.517 Y149.902 E21.91738
G1 X67.262 Y149.429 E21.93347
G1 X67.055 Y148.997 E21.94781
G1 X67.05 Y148.981 E21.94831
G1 X66.855 Y148.517 E21.96338
G1 X66.681 Y148.023 E21.97905
G1 X66.532 Y147.514 E21.99493
G1 X66.418 Y147.042 E22.00947
G1 X66.322 Y146.527 E22.02515
G1 X66.255 Y146.019 E22.04049
G1 X66.216 Y145.522 E22.05541
G1 X66.217 Y145.505 E22.05592
G0 F6000 X66.656 Y145.511
G0 X67.007 Y145.499
;TYPE:SKIN
G1 F1200 X66.99 Y144.933 E22.07287
G1 X66.991 Y75.079 E24.16389
G1 X67.005 Y74.525 E24.18048
G1 X67.041 Y74.066 E24.19426
G1 X67.104 Y73.585 E24.20878
G1 X67.192 Y73.121 E24.22292
G1 X67.298 Y72.677 E24.23658
G1 X67.438 Y72.207 E24.25126
G1 X67.593 Y71.77 E24.26514
G1 X67.777 Y71.323 E24.27961
G1 X67.972 Y70.916 E24.29312
G1 X68.197 Y70.501 E24.30725
G1 X68.447 Y70.095 E24.32152
G1 X68.728 Y69.685 E24.3364
G1 X68.996 Y69.338 E24.34953
G1 X69.293 Y68.989 E24.36324
G1 X69.64 Y68.623 E24.37834
G1 X69.976 Y68.304 E24.39221
G1 X70.341 Y67.995 E24.40652
G1 X70.716 Y67.707 E24.42068
G1 X71.097 Y67.445 E24.43452
G1 X71.497 Y67.201 E24.44855
G1 X71.907 Y66.977 E24.46253
G1 X72.363 Y66.761 E24.47763
G1 X72.787 Y66.587 E24.49135
G1 X73.231 Y66.43 E24.50545
G1 X73.683 Y66.297 E24.51955
G1 X74.152 Y66.186 E24.53398
G1 X74.611 Y66.102 E24.54795
G1 X75.075 Y66.042 E24.56195
G1 X75.52 Y66.006 E24.57532
G1 X76.093 Y65.99 E24.59248
G1 X153.01 Y65.99 E26.89492
G1 X153.01 Y154.01 E29.52972
G1 X76.083 Y154.01 E31.83246
G1 X75.504 Y153.993 E31.8498
G1 X75.039 Y153.956 E31.86377
G1 X74.595 Y153.896 E31.87718
G1 X74.116 Y153.807 E31.89176
G1 X73.662 Y153.697 E31.90575
G1 X73.201 Y153.561 E31.92013
G1 X72.754 Y153.401 E31.93434
G1 X72.323 Y153.222 E31.94831
G1 X71.909 Y153.023 E31.96206
G1 X71.468 Y152.782 E31.97711
G1 X71.097 Y152.555 E31.99013
G1 X70.678 Y152.268 E32.00533
G1 X70.334 Y152.001 E32.01837
G1 X69.983 Y151.702 E32.03217
G1 X69.602 Y151.339 E32.04792
G1 X69.309 Y151.029 E32.06069
G1 X69.003 Y150.669 E32.07483
G1 X68.7 Y150.273 E32.08976
G1 X68.429 Y149.879 E32.10407
G1 X68.197 Y149.5 E32.11737
G1 X67.965 Y149.068 E32.13205
G1 X67.777 Y148.676 E32.14507
G1 X67.588 Y148.223 E32.15976
G1 X67.431 Y147.775 E32.17397
G1 X67.297 Y147.314 E32.18834
G1 X67.193 Y146.888 E32.20147
G1 X67.103 Y146.403 E32.21623
G1 X67.038 Y145.916 E32.23094
G1 X67.007 Y145.499 E32.24346
G1 F2400 E25.24346
G0 F6000 X66.728 Y145.518
G0 X66.791 Y124.346
G0 X65.335 Y124.346
G0 X112.684 Y123.666
G0 X111.25 Y123.948
G0 X111.456 Y124.348
G1 F2400 E32.24346
G0 F6000 X111.196 Y124.455
G1 F1200 X111.426 Y124.886 E32.25808
G1 X111.737 Y125.264 E32.27273
G1 X112.114 Y125.574 E32.28734
G1 X112.546 Y125.807 E32.30204
G1 X113.015 Y125.946 E32.31668
G1 X113.501 Y125.995 E32.3313
G1 X113.979 Y125.947 E32.34568
G1 X114.454 Y125.807 E32.3605
G1 X114.888 Y125.574 E32.37525
G1 X115.271 Y125.258 E32.39011
G1 X115.578 Y124.879 E32.40471
G1 X115.807 Y124.454 E32.41916
G1 X115.947 Y123.981 E32.43393
G1 X115.996 Y123.494 E32.44858
G1 X115.946 Y123.003 E32.46336
G1 X115.801 Y122.537 E32.47796
G1 X115.572 Y122.109 E32.4925
G1 X115.258 Y121.729 E32.50725
G1 X114.882 Y121.424 E32.52174
G1 X114.456 Y121.195 E32.53622
G1 X113.986 Y121.054 E32.55091
G1 X113.501 Y121.005 E32.5655
G1 X113.015 Y121.054 E32.58012
G1 X112.546 Y121.193 E32.59477
G1 X112.114 Y121.426 E32.60946
G1 X111.737 Y121.736 E32.62407
G1 X111.426 Y122.114 E32.63872
G1 X111.196 Y122.545 E32.65335
G1 X111.054 Y123.014 E32.66801
G1 X111.006 Y123.5 E32.68263
G1 X111.054 Y123.986 E32.69725
G1 X111.196 Y124.455 E32.71192
G1 F2400 E25.71192
G0 F6000 X111.456 Y124.348
G0 X111.596 Y123.122
G0 X112.226 Y121.593
G0 X113.042 Y122.805
G0 X113.042 Y97.195
G0 X112.226 Y98.407
G0 X111.936 Y98.066
G1 F2400 E32.71192
G0 F6000 X111.737 Y98.264
G1 F1200 X112.114 Y98.574 E32.72653
G1 X112.546 Y98.807 E32.74122
G1 X113.015 Y98.946 E32.75587
G1 X113.501 Y98.995 E32.77049
G1 X113.979 Y98.947 E32.78487
G1 X114.454 Y98.807 E32.79969
G1 X114.888 Y98.574 E32.81444
G1 X115.264 Y98.264 E32.82902
G1 X115.575 Y97.886 E32.84368
G1 X115.805 Y97.455 E32.8583
G1 X115.947 Y96.988 E32.87291
G1 X115.996 Y96.5 E32.88759
G1 X115.947 Y96.012 E32.90227
G1 X115.805 Y95.545 E32.91689
G1 X115.575 Y95.114 E32.93151
G1 X115.264 Y94.735 E32.94618
G1 X114.881 Y94.424 E32.96095
G1 X114.455 Y94.193 E32.97546
G1 X113.98 Y94.054 E32.99027
G1 X113.501 Y94.005 E33.00469
G1 X113.015 Y94.054 E33.01931
G1 X112.546 Y94.193 E33.03395
G1 X112.114 Y94.426 E33.04864
G1 X111.737 Y94.736 E33.06325
G1 X111.426 Y95.114 E33.07791
G1 X111.196 Y95.545 E33.09253
G1 X111.054 Y96.014 E33.1072
G1 X111.006 Y96.5 E33.12182
G1 X111.054 Y96.986 E33.13644
G1 X111.196 Y97.455 E33.15111
G1 X111.426 Y97.886 E33.16573
G1 X111.737 Y98.264 E33.18038
G1 F2400 E26.18038
G0 F6000 X111.936 Y98.066
G0 X113.123 Y98.404
G0 X113.872 Y98.405
G0 X114.244 Y98.294
G0 X114.873 Y97.873
G0 X115.294 Y97.243
G0 X115.414 Y96.642
G0 X115.409 Y95.226
G0 X114.193 Y96.037
G0 X115.409 Y64.335
G0 X115.409 Y65.81
G0 X153.29 Y66.34
G1 F2400 E33.18038
G0 F6000 X152.889 Y66.34
G1 F1200 X152.66 Y66.11 E33.1901
G0 F6000 X152.094 Y66.11
G1 F1200 X152.889 Y66.905 E33.22375
G0 F6000 X152.889 Y67.471
G1 F1200 X151.528 Y66.11 E33.28137
G0 F6000 X150.963 Y66.11
G1 F1200 X152.889 Y68.037 E33.36292
G0 F6000 X152.889 Y68.602
G1 F1200 X150.397 Y66.11 E33.46842
G0 F6000 X149.831 Y66.11
G1 F1200 X152.889 Y69.168 E33.59787
G0 F6000 X152.889 Y69.734
G1 F1200 X149.265 Y66.11 E33.75129
G0 F6000 X148.7 Y66.11
G1 F1200 X152.889 Y70.299 E33.92862
G0 F6000 X152.889 Y70.865
G1 F1200 X148.134 Y66.11 E34.12992
G0 F6000 X147.568 Y66.11
G1 F1200 X152.889 Y71.431 E34.35517
G0 F6000 X152.889 Y71.996
G1 F1200 X147.003 Y66.11 E34.60435
G0 F6000 X146.437 Y66.11
G1 F1200 X152.889 Y72.562 E34.87748
G0 F6000 X152.889 Y73.128
G1 F1200 X145.871 Y66.11 E35.17457
G0 F6000 X145.306 Y66.11
G1 F1200 X152.889 Y73.693 E35.49559
G0 F6000 X152.889 Y74.259
G1 F1200 X144.74 Y66.11 E35.84056
G0 F6000 X144.174 Y66.11
G1 F1200 X152.889 Y74.825 E36.20949
G0 F6000 X152.889 Y75.391
G1 F1200 X143.609 Y66.11 E36.60237
G0 F6000 X143.043 Y66.11
G1 F1200 X152.889 Y75.956 E37.01918
G0 F6000 X152.889 Y76.522
G1 F1200 X142.477 Y66.11 E37.45996
G0 F6000 X141.912 Y66.11
G1 F1200 X152.889 Y77.088 E37.92467
G0 F6000 X152.889 Y77.653
G1 F1200 X141.346 Y66.11 E38.41332
G0 F6000 X140.78 Y66.11
G1 F1200 X152.889 Y78.219 E38.92593
G0 F6000 X152.889 Y78.785
G1 F1200 X140.215 Y66.11 E39.46249
G0 F6000 X139.649 Y66.11
G1 F1200 X152.889 Y79.35 E40.02298
G0 F6000 X152.889 Y79.916
G1 F1200 X139.083 Y66.11 E40.60743
G0 F6000 X138.517 Y66.11
G1 F1200 X152.889 Y80.482 E41.21584
G0 F6000 X152.889 Y81.047
G1 F1200 X137.952 Y66.11 E41.84818
G0 F6000 X137.386 Y66.11
G1 F1200 X152.889 Y81.613 E42.50447
G0 F6000 X152.889 Y82.179
G1 F1200 X136.82 Y66.11 E43.18472
G0 F6000 X136.255 Y66.11
G1 F1200 X152.889 Y82.744 E43.88889
G0 F6000 X152.889 Y83.31
G1 F1200 X135.689 Y66.11 E44.61702
G0 F6000 X135.123 Y66.11
G1 F1200 X152.889 Y83.876 E45.36912
G0 F6000 X152.889 Y84.441
G1 F1200 X134.558 Y66.11 E46.14513
G0 F6000 X133.992 Y66.11
G1 F1200 X152.889 Y85.007 E46.9451
G0 F6000 X152.889 Y85.573
G1 F1200 X133.426 Y66.11 E47.76903
G0 F6000 X132.861 Y66.11
G1 F1200 X152.889 Y86.139 E48.6169
G0 F6000 X152.889 Y86.704
G1 F1200 X132.295 Y66.11 E49.48871
G0 F6000 X131.729 Y66.11
G1 F1200 X152.889 Y87.27 E50.38448
G0 F6000 X152.889 Y87.836
G1 F1200 X131.164 Y66.11 E51.30419
G0 F6000 X130.598 Y66.11
G1 F1200 X152.889 Y88.401 E52.24785
G0 F6000 X152.889 Y88.967
G1 F1200 X130.032 Y66.11 E53.21546
G0 F6000 X129.467 Y66.11
G1 F1200 X152.889 Y89.533 E54.20701
G0 F6000 X152.889 Y90.098
