;FLAVOR:Marlin
;TIME:3603
;Filament used: 2.7957m
;Layer height: 0.2
;MINX:87.336
;MINY:74.335
;MINZ:0.2
;MAXX:132.664
;MAXY:145.665
;MAXZ:21
;Generated with Cura_SteamEngine 4.13.1
M140 S60
M105
M190 S60
M104 S195
M105
M109 S195
M82 ;absolute extrusion mode
G28 ;Home
G92 E0 ;Reset Extruder
G1 Z2.0 F3000 ;Move bed down
G1 X10.1 Y20 Z0.28 F5000.0 ;Move to start position
G1 X10.1 Y200.0 Z0.28 F1500.0 E15 ;Draw the first line
G1 X10.4 Y200.0 Z0.28 F5000.0 ;Move to side a little
G1 X10.4 Y20 Z0.28 F1500.0 E30 ;Draw the second line
G92 E0 ;Reset Extruder
G1 Z2.0 F3000 ;Move Bed up
G92 E0
G92 E0
G1 F2400 E-7
;LAYER_COUNT:105
;LAYER:0
M107
G0 F6000 X90.306 Y77.28 Z0.2
;TYPE:SKIRT
G1 F2400 E0
G1 F1200 X90.461 Y77.214 E0.00504
G1 X90.597 Y77.2 E0.00914
G1 X92 Y77.2 E0.05113
G1 X92 Y77.8 E0.06909
G1 X90.603 Y77.8 E0.11091
G1 X90.329 Y77.743 E0.11929
G1 X90.234 Y77.635 E0.12359
G1 X90.204 Y77.504 E0.12762
G1 X90.306 Y77.28 E0.13499
G0 F6000 X90.023 Y76.995
G1 F1200 X90.265 Y76.846 E0.14349
G1 X90.577 Y76.8 E0.15293
G1 X92.4 Y76.801 E0.2075
G1 X92.4 Y78.2 E0.24938
G1 X90.59 Y78.2 E0.30356
G1 X90.278 Y78.157 E0.31299
G1 X90.024 Y78.008 E0.3218
G1 X89.849 Y77.751 E0.33111
G1 X89.807 Y77.452 E0.34015
G1 X89.865 Y77.216 E0.34742
G1 X90.023 Y76.995 E0.35556
G0 F6000 X89.823 Y76.638
G1 F1200 X90.141 Y76.464 E0.36641
G1 X90.557 Y76.4 E0.37901
G1 X92.8 Y76.401 E0.44615
G1 X92.8 Y78.6 E0.51197
G1 X90.566 Y78.6 E0.57885
G1 X90.152 Y78.538 E0.59138
G1 X89.858 Y78.393 E0.60119
G1 X89.59 Y78.113 E0.61279
G1 X89.467 Y77.871 E0.62092
G1 X89.404 Y77.592 E0.62948
G1 X89.41 Y77.396 E0.63535
G1 X89.471 Y77.125 E0.64366
G1 X89.636 Y76.833 E0.6537
G1 X89.823 Y76.638 E0.66179
G0 F6000 X89.583 Y76.317
G1 F1200 X89.825 Y76.164 E0.67036
G1 X90.024 Y76.08 E0.67683
G1 X90.276 Y76.026 E0.68454
G1 X90.538 Y76 E0.69242
G1 X93.2 Y76.001 E0.77211
G1 X93.2 Y79 E0.86188
G1 X90.552 Y79 E0.94115
G1 X90.263 Y78.974 E0.94983
G1 X90.033 Y78.921 E0.9569
G1 X89.774 Y78.811 E0.96532
G1 X89.455 Y78.574 E0.97722
G1 X89.266 Y78.349 E0.98601
G1 X89.085 Y77.998 E0.99783
G1 X89.007 Y77.649 E1.00854
G1 X89.014 Y77.332 E1.01803
G1 X89.088 Y77.003 E1.02813
G1 X89.154 Y76.843 E1.03331
G1 X89.315 Y76.593 E1.04221
G1 X89.583 Y76.317 E1.05372
G0 F6000 X89.165 Y76.151
G1 F1200 X89.345 Y75.994 E1.06087
G1 X89.64 Y75.808 E1.07131
G1 X89.902 Y75.698 E1.07982
G1 X90.214 Y75.63 E1.08938
G1 X90.518 Y75.6 E1.09852
G1 X93.6 Y75.601 E1.19078
G1 X93.6 Y79.4 E1.3045
G1 X90.539 Y79.4 E1.39613
G1 X90.198 Y79.37 E1.40637
G1 X89.908 Y79.303 E1.41528
G1 X89.593 Y79.168 E1.42554
G1 X89.385 Y79.043 E1.43281
G1 X89.168 Y78.855 E1.4414
G1 X88.945 Y78.59 E1.45177
G1 X88.806 Y78.372 E1.45951
G1 X88.701 Y78.115 E1.46782
G1 X88.612 Y77.719 E1.47997
G1 X88.618 Y77.268 E1.49347
G1 X88.704 Y76.884 E1.50525
G1 X88.796 Y76.66 E1.5125
G1 X88.993 Y76.354 E1.52339
G1 X89.165 Y76.151 E1.53135
G0 F6000 X88.881 Y75.868
G1 F1200 X89.103 Y75.674 E1.54018
G1 X89.455 Y75.451 E1.55265
G1 X89.779 Y75.315 E1.56317
G1 X90.153 Y75.234 E1.57463
G1 X90.498 Y75.2 E1.585
G1 X94 Y75.201 E1.68983
G1 X94 Y79.8 E1.8275
G1 X90.515 Y79.8 E1.93182
G1 X90.139 Y79.766 E1.94312
G1 X89.784 Y79.685 E1.95402
G1 X89.412 Y79.526 E1.96613
G1 X89.149 Y79.367 E1.97533
G1 X88.884 Y79.138 E1.98582
G1 X88.621 Y78.826 E1.99803
G1 X88.45 Y78.558 E2.00755
G1 X88.318 Y78.235 E2.01799
G1 X88.215 Y77.774 E2.03213
G1 X88.2 Y77.462 E2.04148
G1 X88.221 Y77.211 E2.04902
G1 X88.321 Y76.765 E2.0627
G1 X88.441 Y76.472 E2.07218
G1 X88.672 Y76.114 E2.08493
G1 X88.881 Y75.868 E2.0946
G1 F2400 E-4.9054
G0 F6000 X94.843 Y74.339
G0 X125.157 Y74.339
G0 X126 Y75.2
G1 F2400 E2.0946
G1 F1200 X129.442 Y75.2 E2.19763
G1 X129.893 Y75.234 E2.21117
G1 X130.197 Y75.31 E2.22055
G1 X130.583 Y75.469 E2.23305
G1 X130.887 Y75.652 E2.24367
G1 X131.103 Y75.837 E2.25218
G1 X131.372 Y76.17 E2.26499
G1 X131.535 Y76.421 E2.27395
G1 X131.558 Y76.483 E2.27593
G1 X131.675 Y76.76 E2.28493
G1 X131.776 Y77.188 E2.2981
G1 X131.8 Y77.464 E2.30639
G1 X131.8 Y77.5 E2.30747
G1 X131.771 Y77.842 E2.31774
G1 X131.682 Y78.233 E2.32975
G1 X131.548 Y78.543 E2.33986
G1 X131.378 Y78.834 E2.34994
G1 X131.119 Y79.132 E2.36176
G1 X130.863 Y79.358 E2.37198
G1 X130.551 Y79.544 E2.38286
G1 X130.241 Y79.674 E2.39292
G1 X129.849 Y79.768 E2.40499
G1 X129.489 Y79.8 E2.41581
G1 X126 Y79.8 E2.52025
G1 X126 Y75.2 E2.65794
G0 F6000 X126.4 Y75.6
G1 F1200 X129.426 Y75.6 E2.74852
G1 X129.83 Y75.63 E2.76065
G1 X130.068 Y75.69 E2.768
G1 X130.405 Y75.829 E2.77891
G1 X130.653 Y75.978 E2.78757
G1 X130.813 Y76.115 E2.79388
G1 X131.049 Y76.407 E2.80511
G1 X131.189 Y76.638 E2.8132
G1 X131.295 Y76.889 E2.82136
G1 X131.378 Y77.244 E2.83227
G1 X131.399 Y77.484 E2.83948
G1 X131.374 Y77.783 E2.84846
G1 X131.3 Y78.109 E2.85847
G1 X131.19 Y78.363 E2.86675
G1 X131.052 Y78.599 E2.87494
G1 X130.829 Y78.855 E2.8851
G1 X130.628 Y79.033 E2.89314
G1 X130.372 Y79.185 E2.90205
G1 X130.115 Y79.293 E2.91039
G1 X129.789 Y79.371 E2.92043
G1 X129.464 Y79.4 E2.9302
G1 X126.4 Y79.4 E3.02191
G1 X126.4 Y75.6 E3.13566
G0 F6000 X126.8 Y76
G1 F1200 X129.41 Y76 E3.21379
G1 X129.767 Y76.027 E3.22451
G1 X129.948 Y76.072 E3.23009
G1 X130.222 Y76.185 E3.23896
G1 X130.523 Y76.394 E3.24993
G1 X130.727 Y76.645 E3.25962
G1 X130.914 Y77.013 E3.27197
G1 X130.983 Y77.309 E3.28107
G1 X130.978 Y77.721 E3.2934
G1 X130.918 Y77.984 E3.30148
G1 X130.724 Y78.368 E3.31436
G1 X130.55 Y78.567 E3.32227
G1 X130.19 Y78.828 E3.33558
G1 X129.991 Y78.911 E3.34203
G1 X129.722 Y78.976 E3.35032
G1 X129.45 Y79 E3.35849
G1 X126.8 Y79 E3.43782
G1 X126.8 Y76 E3.52762
G0 F6000 X127.2 Y76.4
G1 F1200 X129.394 Y76.4 E3.5933
G1 X129.703 Y76.423 E3.60257
G1 X130.043 Y76.544 E3.61337
G1 X130.233 Y76.672 E3.62023
G1 X130.406 Y76.885 E3.62845
G1 X130.532 Y77.139 E3.63693
G1 X130.596 Y77.487 E3.64752
G1 X130.537 Y77.859 E3.6588
G1 X130.399 Y78.13 E3.6679
G1 X130.157 Y78.381 E3.67834
G1 X129.861 Y78.532 E3.68829
G1 X129.438 Y78.6 E3.70111
G1 X127.2 Y78.6 E3.7681
G1 X127.2 Y76.4 E3.83396
G0 F6000 X127.6 Y76.8
G1 F1200 X129.377 Y76.8 E3.88715
G1 X129.64 Y76.82 E3.89505
G1 X129.944 Y76.952 E3.90497
G1 X130.106 Y77.157 E3.91279
G1 X130.191 Y77.438 E3.92158
G1 X130.155 Y77.732 E3.93044
G1 X129.978 Y78.005 E3.94018
G1 X129.74 Y78.149 E3.94851
G1 X129.413 Y78.2 E3.95842
G1 X127.6 Y78.2 E4.01269
G1 X127.6 Y76.8 E4.05459
G0 F6000 X128 Y77.2
G1 F1200 X129.362 Y77.2 E4.09536
G1 X129.682 Y77.261 E4.10512
G1 X129.768 Y77.386 E4.10966
G1 X129.774 Y77.606 E4.11625
G1 X129.649 Y77.753 E4.12202
G1 X129.399 Y77.8 E4.12964
G1 X128 Y77.8 E4.17151
G1 X128 Y77.2 E4.18947
G1 F2400 E-2.81053
G0 F6000 X126 Y140.2
G1 F2400 E4.18947
G1 F1200 X129.442 Y140.2 E4.29251
G1 X129.893 Y140.234 E4.30605
G1 X130.197 Y140.31 E4.31543
G1 X130.583 Y140.469 E4.32792
G1 X130.887 Y140.652 E4.33854
G1 X131.103 Y140.837 E4.34706
G1 X131.372 Y141.17 E4.35987
G1 X131.535 Y141.421 E4.36883
G1 X131.558 Y141.483 E4.37081
G1 X131.675 Y141.76 E4.37981
G1 X131.776 Y142.188 E4.39297
G1 X131.8 Y142.464 E4.40127
G1 X131.8 Y142.5 E4.40235
G1 X131.771 Y142.842 E4.41262
G1 X131.682 Y143.233 E4.42462
G1 X131.548 Y143.543 E4.43473
G1 X131.378 Y143.834 E4.44482
G1 X131.119 Y144.132 E4.45664
G1 X130.863 Y144.358 E4.46686
G1 X130.551 Y144.544 E4.47774
G1 X130.241 Y144.674 E4.4878
G1 X129.849 Y144.768 E4.49986
G1 X129.489 Y144.8 E4.51068
G1 X126 Y144.8 E4.61512
G1 X126 Y140.2 E4.75282
G0 F6000 X126.4 Y140.6
G1 F1200 X129.426 Y140.6 E4.8434
G1 X129.83 Y140.63 E4.85553
G1 X130.068 Y140.69 E4.86287
G1 X130.405 Y140.829 E4.87379
G1 X130.653 Y140.978 E4.88245
G1 X130.813 Y141.115 E4.88875
G1 X131.049 Y141.407 E4.89999
G1 X131.189 Y141.638 E4.90808
G1 X131.295 Y141.889 E4.91623
G1 X131.378 Y142.244 E4.92715
G1 X131.399 Y142.484 E4.93436
G1 X131.374 Y142.783 E4.94334
G1 X131.3 Y143.109 E4.95335
G1 X131.19 Y143.363 E4.96163
G1 X131.052 Y143.599 E4.96982
G1 X130.829 Y143.855 E4.97998
G1 X130.628 Y144.033 E4.98802
G1 X130.372 Y144.185 E4.99693
G1 X130.115 Y144.293 E5.00527
G1 X129.789 Y144.371 E5.01531
G1 X129.464 Y144.4 E5.02507
G1 X126.4 Y144.4 E5.11679
G1 X126.4 Y140.6 E5.23054
G0 F6000 X126.8 Y141
G1 F1200 X129.41 Y141 E5.30867
G1 X129.767 Y141.027 E5.31939
G1 X129.948 Y141.072 E5.32497
G1 X130.222 Y141.185 E5.33384
G1 X130.523 Y141.394 E5.34481
G1 X130.727 Y141.645 E5.35449
G1 X130.914 Y142.013 E5.36685
G1 X130.983 Y142.309 E5.37595
G1 X130.978 Y142.721 E5.38828
G1 X130.918 Y142.984 E5.39636
G1 X130.724 Y143.368 E5.40923
G1 X130.55 Y143.567 E5.41715
G1 X130.19 Y143.828 E5.43046
G1 X129.991 Y143.911 E5.43691
G1 X129.722 Y143.976 E5.4452
G1 X129.45 Y144 E5.45337
G1 X126.8 Y144 E5.53269
G1 X126.8 Y141 E5.6225
G0 F6000 X127.2 Y141.4
G1 F1200 X129.394 Y141.4 E5.68817
G1 X129.703 Y141.423 E5.69745
G1 X130.043 Y141.544 E5.70825
G1 X130.233 Y141.672 E5.71511
G1 X130.406 Y141.885 E5.72332
G1 X130.532 Y142.139 E5.73181
G1 X130.596 Y142.487 E5.7424
G1 X130.537 Y142.859 E5.75368
G1 X130.399 Y143.13 E5.76278
G1 X130.157 Y143.381 E5.77322
G1 X129.861 Y143.532 E5.78316
G1 X129.438 Y143.6 E5.79599
G1 X127.2 Y143.6 E5.86298
G1 X127.2 Y141.4 E5.92884
G0 F6000 X127.6 Y141.8
G1 F1200 X129.377 Y141.8 E5.98203
G1 X129.64 Y141.82 E5.98992
G1 X129.944 Y141.952 E5.99984
G1 X130.106 Y142.157 E6.00767
G1 X130.191 Y142.438 E6.01645
G1 X130.155 Y142.732 E6.02532
G1 X129.978 Y143.005 E6.03506
G1 X129.74 Y143.149 E6.04339
G1 X129.413 Y143.2 E6.05329
G1 X127.6 Y143.2 E6.10756
G1 X127.6 Y141.8 E6.14947
G0 F6000 X128 Y142.2
G1 F1200 X129.362 Y142.2 E6.19024
G1 X129.682 Y142.261 E6.19999
G1 X129.768 Y142.386 E6.20454
G1 X129.774 Y142.606 E6.21112
G1 X129.649 Y142.753 E6.2169
G1 X129.399 Y142.8 E6.22451
G1 X128 Y142.8 E6.26639
G1 X128 Y142.2 E6.28435
G1 F2400 E-0.71565
G0 F6000 X125.661 Y145.157
G0 X125.157 Y145.661
G0 X94.843 Y145.661
G0 X90.597 Y142.2
G1 F2400 E6.28435
G1 F1200 X92 Y142.2 E6.32635
G1 X92 Y142.8 E6.34431
G1 X90.603 Y142.8 E6.38613
G1 X90.329 Y142.743 E6.39451
G1 X90.234 Y142.635 E6.39881
G1 X90.204 Y142.504 E6.40283
G1 X90.306 Y142.28 E6.4102
G1 X90.461 Y142.214 E6.41524
G1 X90.597 Y142.2 E6.41934
G0 F6000 X90.577 Y141.8
G1 F1200 X92.4 Y141.801 E6.47391
G1 X92.4 Y143.2 E6.51579
G1 X90.59 Y143.2 E6.56997
G1 X90.278 Y143.157 E6.57939
G1 X90.024 Y143.008 E6.58821
G1 X89.849 Y142.751 E6.59752
G1 X89.807 Y142.452 E6.60655
G1 X89.865 Y142.216 E6.61383
G1 X90.023 Y141.995 E6.62196
G1 X90.265 Y141.846 E6.63047
G1 X90.577 Y141.8 E6.63991
G0 F6000 X90.557 Y141.4
G1 F1200 X92.8 Y141.401 E6.70705
G1 X92.8 Y143.6 E6.77288
G1 X90.566 Y143.6 E6.83975
G1 X90.152 Y143.538 E6.85228
G1 X89.858 Y143.393 E6.86209
G1 X89.59 Y143.113 E6.87369
G1 X89.467 Y142.871 E6.88182
G1 X89.404 Y142.592 E6.89038
G1 X89.41 Y142.396 E6.89625
G1 X89.471 Y142.125 E6.90457
G1 X89.636 Y141.833 E6.91461
G1 X89.823 Y141.638 E6.92269
G1 X90.141 Y141.464 E6.93355
G1 X90.557 Y141.4 E6.94614
G0 F6000 X90.538 Y141
G1 F1200 X93.2 Y141.001 E7.02583
G1 X93.2 Y144 E7.1156
G1 X90.552 Y144 E7.19487
G1 X90.263 Y143.974 E7.20355
G1 X90.033 Y143.921 E7.21062
G1 X89.774 Y143.811 E7.21904
G1 X89.455 Y143.574 E7.23094
G1 X89.266 Y143.349 E7.23973
G1 X89.085 Y142.998 E7.25155
G1 X89.007 Y142.649 E7.26226
G1 X89.014 Y142.332 E7.27175
G1 X89.088 Y142.003 E7.28185
G1 X89.154 Y141.843 E7.28703
G1 X89.315 Y141.593 E7.29593
G1 X89.583 Y141.317 E7.30744
G1 X89.825 Y141.164 E7.31601
G1 X90.024 Y141.08 E7.32248
G1 X90.276 Y141.026 E7.33019
G1 X90.538 Y141 E7.33808
G0 F6000 X90.518 Y140.6
G1 F1200 X93.6 Y140.601 E7.43033
G1 X93.6 Y144.4 E7.54405
G1 X90.539 Y144.4 E7.63568
G1 X90.198 Y144.37 E7.64593
G1 X89.908 Y144.303 E7.65484
G1 X89.593 Y144.168 E7.6651
G1 X89.385 Y144.043 E7.67236
G1 X89.168 Y143.855 E7.68095
G1 X88.945 Y143.59 E7.69132
G1 X88.806 Y143.372 E7.69906
G1 X88.701 Y143.115 E7.70737
G1 X88.612 Y142.719 E7.71952
G1 X88.618 Y142.268 E7.73302
G1 X88.704 Y141.884 E7.7448
G1 X88.796 Y141.66 E7.75205
G1 X88.993 Y141.354 E7.76294
G1 X89.165 Y141.151 E7.77091
G1 X89.345 Y140.994 E7.77806
G1 X89.64 Y140.808 E7.7885
G1 X89.902 Y140.698 E7.797
G1 X90.214 Y140.63 E7.80656
G1 X90.518 Y140.6 E7.81571
G0 F6000 X90.498 Y140.2
G1 F1200 X94 Y140.201 E7.92054
G1 X94 Y144.8 E8.0582
G1 X90.515 Y144.8 E8.16252
G1 X90.139 Y144.766 E8.17383
G1 X89.784 Y144.685 E8.18472
G1 X89.412 Y144.526 E8.19683
G1 X89.149 Y144.367 E8.20603
G1 X88.884 Y144.138 E8.21652
G1 X88.621 Y143.826 E8.22873
G1 X88.45 Y143.558 E8.23825
G1 X88.318 Y143.235 E8.24869
G1 X88.215 Y142.774 E8.26283
G1 X88.2 Y142.462 E8.27218
G1 X88.221 Y142.211 E8.27972
G1 X88.321 Y141.765 E8.29341
G1 X88.441 Y141.472 E8.30288
G1 X88.672 Y141.114 E8.31564
G1 X88.881 Y140.868 E8.3253
G1 X89.103 Y140.674 E8.33413
G1 X89.455 Y140.451 E8.3466
G1 X89.779 Y140.315 E8.35712
G1 X90.153 Y140.234 E8.36857
G1 X90.498 Y140.2 E8.37895
G1 F2400 E1.37895
;MESH:UltraSonicHolder.stl
G0 F6000 X107.864 Y104.018
G0 X107.448 Y105.413
G0 X109.157 Y105.559
;TYPE:WALL-INNER
G1 F2400 E8.37895
G1 F1200 X110 Y105.6 E8.40421
G1 X110.843 Y105.559 E8.42948
G1 X111.678 Y105.435 E8.45475
G1 X112.496 Y105.231 E8.47998
G1 X113.291 Y104.946 E8.50526
G1 X114.054 Y104.585 E8.53053
G1 X114.778 Y104.152 E8.55578
G1 X115.456 Y103.649 E8.58105
G1 X116.082 Y103.082 E8.60634
G1 X116.649 Y102.456 E8.63162
G1 X117.152 Y101.778 E8.65689
G1 X117.585 Y101.054 E8.68214
G1 X117.946 Y100.291 E8.70741
G1 X118.231 Y99.496 E8.73269
G1 X118.435 Y98.678 E8.75793
G1 X118.559 Y97.843 E8.7832
G1 X118.6 Y97 E8.80846
G1 X118.559 Y96.157 E8.83372
G1 X118.435 Y95.322 E8.85899
G1 X118.231 Y94.504 E8.88423
G1 X117.946 Y93.709 E8.90951
G1 X117.585 Y92.946 E8.93478
G1 X117.152 Y92.222 E8.96003
G1 X116.649 Y91.544 E8.9853
G1 X116.082 Y90.918 E9.01058
G1 X115.456 Y90.351 E9.03587
G1 X114.778 Y89.848 E9.06114
G1 X114.054 Y89.415 E9.08639
G1 X113.291 Y89.054 E9.11166
G1 X112.496 Y88.769 E9.13694
G1 X111.678 Y88.565 E9.16217
G1 X110.843 Y88.441 E9.18744
G1 X110 Y88.4 E9.21271
G1 X109.157 Y88.441 E9.23797
G1 X108.322 Y88.565 E9.26324
G1 X107.504 Y88.769 E9.28848
G1 X106.709 Y89.054 E9.31376
G1 X105.946 Y89.415 E9.33902
G1 X105.222 Y89.848 E9.36428
G1 X104.544 Y90.351 E9.38955
G1 X103.918 Y90.918 E9.41483
G1 X103.351 Y91.544 E9.44011
G1 X102.848 Y92.222 E9.46538
G1 X102.415 Y92.946 E9.49064
G1 X102.054 Y93.709 E9.5159
G1 X101.769 Y94.504 E9.54118
G1 X101.565 Y95.322 E9.56642
G1 X101.441 Y96.157 E9.59169
G1 X101.4 Y97 E9.61695
G1 X101.441 Y97.843 E9.64222
G1 X101.565 Y98.678 E9.66749
G1 X101.769 Y99.496 E9.69272
G1 X102.054 Y100.291 E9.718
G1 X102.415 Y101.054 E9.74327
G1 X102.848 Y101.778 E9.76852
G1 X103.351 Y102.456 E9.79379
G1 X103.918 Y103.082 E9.81908
G1 X104.544 Y103.649 E9.84436
G1 X105.222 Y104.152 E9.86963
G1 X105.946 Y104.585 E9.89488
G1 X106.709 Y104.946 E9.92015
G1 X107.504 Y105.231 E9.94543
G1 X108.322 Y105.435 E9.97067
G1 X109.157 Y105.559 E9.99593
G0 F6000 X109.196 Y105.16
;TYPE:WALL-OUTER
G1 F1200 X110 Y105.2 E10.02003
G1 X110.804 Y105.16 E10.04413
G1 X111.6 Y105.042 E10.06822
G1 X112.38 Y104.848 E10.09228
G1 X113.138 Y104.576 E10.11638
G1 X113.865 Y104.232 E10.14046
G1 X114.556 Y103.819 E10.16456
G1 X115.202 Y103.339 E10.18865
G1 X115.799 Y102.799 E10.21274
G1 X116.339 Y102.202 E10.23684
G1 X116.819 Y101.556 E10.26093
G1 X117.232 Y100.865 E10.28503
G1 X117.576 Y100.138 E10.3091
G1 X117.848 Y99.38 E10.33321
G1 X118.042 Y98.6 E10.35727
G1 X118.16 Y97.804 E10.38136
G1 X118.2 Y97 E10.40546
G1 X118.16 Y96.196 E10.42955
G1 X118.042 Y95.4 E10.45364
G1 X117.848 Y94.62 E10.4777
G1 X117.576 Y93.862 E10.50181
G1 X117.232 Y93.135 E10.52588
G1 X116.819 Y92.444 E10.54998
G1 X116.339 Y91.798 E10.57407
G1 X115.799 Y91.201 E10.59817
G1 X115.202 Y90.661 E10.62226
G1 X114.556 Y90.181 E10.64636
G1 X113.865 Y89.768 E10.67045
G1 X113.138 Y89.424 E10.69453
G1 X112.38 Y89.152 E10.71863
G1 X111.6 Y88.958 E10.74269
G1 X110.804 Y88.84 E10.76678
G1 X110 Y88.8 E10.79088
G1 X109.196 Y88.84 E10.81498
G1 X108.4 Y88.958 E10.83906
G1 X107.62 Y89.152 E10.86312
G1 X106.862 Y89.424 E10.88723
G1 X106.135 Y89.768 E10.91131
G1 X105.444 Y90.181 E10.9354
G1 X104.798 Y90.661 E10.95949
G1 X104.201 Y91.201 E10.98359
G1 X103.661 Y91.798 E11.00769
G1 X103.181 Y92.444 E11.03178
G1 X102.768 Y93.135 E11.05588
G1 X102.424 Y93.862 E11.07995
G1 X102.152 Y94.62 E11.10406
G1 X101.958 Y95.4 E11.12812
