;FLAVOR:Marlin
;TIME:1745
;Filament used: 1.48409m
;Layer height: 0.2
;MINX:92.44
;MINY:92.201
;MINZ:0.2
;MAXX:127.627
;MAXY:127.799
;MAXZ:9.6
;Generated with Cura_SteamEngine 4.13.1
M140 S60
M105
M190 S60
M104 S195
M105
M109 S195
M82 ;absolute extrusion mode
G28 ;Home
G92 E0 ;Reset Extruder
G1 Z2.0 F3000 ;Move bed down
G1 X10.1 Y20 Z0.28 F5000.0 ;Move to start position
G1 X10.1 Y200.0 Z0.28 F1500.0 E15 ;Draw the first line
G1 X10.4 Y200.0 Z0.28 F5000.0 ;Move to side a little
G1 X10.4 Y20 Z0.28 F1500.0 E30 ;Draw the second line
G92 E0 ;Reset Extruder
G1 Z2.0 F3000 ;Move Bed up
G92 E0
G92 E0
G1 F2400 E-7
;LAYER_COUNT:48
;LAYER:0
M107
;MESH:CableHolder.stl
G0 F6000 X108.978 Y117.488 Z0.2
;TYPE:WALL-INNER
G1 F2400 E0
G1 F1200 X109.411 Y117.522 E0.013
G1 X110.24 Y117.521 E0.03782
G1 X110.66 Y117.488 E0.05043
G1 X111.115 Y117.377 E0.06445
G1 X111.526 Y117.207 E0.07776
G1 X111.915 Y116.968 E0.09143
G1 X112.263 Y116.672 E0.1051
G1 X112.559 Y116.324 E0.11878
G1 X112.798 Y115.935 E0.13245
G1 X112.974 Y115.512 E0.14616
G1 X113.079 Y115.068 E0.15982
G1 X113.114 Y114.636 E0.17279
G1 X113.114 Y105.348 E0.45082
G1 X113.079 Y104.917 E0.46376
G1 X112.974 Y104.472 E0.47745
G1 X112.798 Y104.05 E0.49114
G1 X112.559 Y103.661 E0.5048
G1 X112.263 Y103.314 E0.51846
G1 X111.915 Y103.016 E0.53217
G1 X111.525 Y102.778 E0.54585
G1 X111.103 Y102.602 E0.55953
G1 X110.659 Y102.497 E0.57319
G1 X110.228 Y102.462 E0.58614
G1 X109.41 Y102.462 E0.61062
G1 X108.978 Y102.497 E0.6236
G1 X108.534 Y102.602 E0.63725
G1 X108.112 Y102.778 E0.65094
G1 X107.722 Y103.016 E0.66462
G1 X107.374 Y103.314 E0.67833
G1 X107.078 Y103.661 E0.69198
G1 X106.838 Y104.051 E0.70569
G1 X106.661 Y104.486 E0.71975
G1 X106.558 Y104.917 E0.73301
G1 X106.524 Y105.348 E0.74596
G1 X106.525 Y114.648 E1.02434
G1 X106.558 Y115.069 E1.03698
G1 X106.669 Y115.524 E1.051
G1 X106.839 Y115.935 E1.06432
G1 X107.079 Y116.325 E1.07803
G1 X107.385 Y116.68 E1.09205
G1 X107.722 Y116.967 E1.1053
G1 X108.112 Y117.208 E1.11903
G1 X108.547 Y117.385 E1.13309
G1 X108.978 Y117.488 E1.14635
G0 F6000 X109.041 Y117.092
;TYPE:WALL-OUTER
G1 F1200 X109.426 Y117.122 E1.15791
G1 X110.224 Y117.121 E1.1818
G1 X110.597 Y117.092 E1.193
G1 X110.99 Y116.996 E1.20511
G1 X111.343 Y116.85 E1.21654
G1 X111.679 Y116.643 E1.22836
G1 X111.979 Y116.388 E1.24014
G1 X112.234 Y116.088 E1.25193
G1 X112.441 Y115.752 E1.26374
G1 X112.592 Y115.388 E1.27554
G1 X112.683 Y115.005 E1.28732
G1 X112.714 Y114.62 E1.29888
G1 X112.714 Y105.364 E1.57595
G1 X112.683 Y104.98 E1.58749
G1 X112.592 Y104.596 E1.5993
G1 X112.441 Y104.233 E1.61107
G1 X112.234 Y103.897 E1.62288
G1 X111.979 Y103.597 E1.63467
G1 X111.679 Y103.341 E1.64647
G1 X111.343 Y103.135 E1.65827
G1 X110.979 Y102.984 E1.67007
G1 X110.596 Y102.893 E1.68185
G1 X110.212 Y102.862 E1.69338
G1 X109.426 Y102.862 E1.71691
G1 X109.041 Y102.893 E1.72847
G1 X108.658 Y102.984 E1.74026
G1 X108.294 Y103.135 E1.75205
G1 X107.958 Y103.341 E1.76385
G1 X107.658 Y103.597 E1.77566
G1 X107.403 Y103.897 E1.78744
G1 X107.196 Y104.233 E1.79926
G1 X107.043 Y104.609 E1.81141
G1 X106.954 Y104.98 E1.82283
G1 X106.924 Y105.364 E1.83436
G1 X106.925 Y114.632 E2.11179
G1 X106.954 Y115.006 E2.12302
G1 X107.05 Y115.399 E2.13513
G1 X107.196 Y115.752 E2.14656
G1 X107.403 Y116.088 E2.15837
G1 X107.668 Y116.396 E2.17054
G1 X107.958 Y116.643 E2.18194
G1 X108.294 Y116.85 E2.19375
G1 X108.67 Y117.003 E2.2059
G1 X109.041 Y117.092 E2.21732
G0 F6000 X108.973 Y117.526
G1 F2400 E-4.78268
G0 F6000 X107.817 Y116.837
G0 X107.209 Y116.229
G0 X106.821 Y115.473
G0 X106.7 Y114.725
G0 X106.315 Y105.943
G0 X107.789 Y105.942
G0 X99.2 Y107.613
G0 X100.069 Y106.417
G0 X98.39 Y105.943
;TYPE:WALL-INNER
G1 F2400 E2.21732
G1 F1200 X97.836 Y105.9 E2.23396
G1 X92.979 Y105.9 E2.37935
G1 X93.754 Y103.343 E2.45933
G1 X95.362 Y100.337 E2.56138
G1 X97.526 Y97.698 E2.66353
G1 X100.164 Y95.535 E2.76565
G1 X103.17 Y93.926 E2.86771
G1 X106.433 Y92.937 E2.96978
G1 X109.828 Y92.603 E3.07189
G1 X113.222 Y92.937 E3.17398
G1 X116.485 Y93.926 E3.27604
G1 X119.491 Y95.535 E3.3781
G1 X122.13 Y97.698 E3.48024
G1 X124.293 Y100.337 E3.58238
G1 X125.901 Y103.343 E3.68443
G1 X126.891 Y106.605 E3.78648
G1 X127.225 Y110 E3.88859
G1 X126.891 Y113.395 E3.99071
G1 X125.901 Y116.657 E4.09275
G1 X124.293 Y119.663 E4.1948
G1 X122.13 Y122.302 E4.29694
G1 X119.491 Y124.465 E4.39908
G1 X116.485 Y126.074 E4.50114
G1 X113.222 Y127.063 E4.6032
G1 X109.828 Y127.397 E4.70529
G1 X106.433 Y127.063 E4.80741
G1 X103.17 Y126.074 E4.90947
G1 X100.164 Y124.465 E5.01153
G1 X97.526 Y122.302 E5.11365
G1 X95.362 Y119.663 E5.21581
G1 X93.754 Y116.657 E5.31786
G1 X92.981 Y114.101 E5.39779
G1 X97.867 Y114.099 E5.54405
G1 X98.391 Y114.057 E5.55978
G1 X98.941 Y113.926 E5.57671
G1 X99.463 Y113.709 E5.59363
G1 X99.945 Y113.413 E5.61056
G1 X100.375 Y113.047 E5.62747
G1 X100.741 Y112.617 E5.64437
G1 X101.037 Y112.135 E5.6613
G1 X101.254 Y111.613 E5.67822
G1 X101.385 Y111.063 E5.69515
G1 X101.428 Y110.524 E5.71133
G1 X101.428 Y109.476 E5.7427
G1 X101.385 Y108.937 E5.75889
G1 X101.254 Y108.387 E5.77581
G1 X101.037 Y107.865 E5.79274
G1 X100.741 Y107.383 E5.80967
G1 X100.375 Y106.953 E5.82657
G1 X99.945 Y106.587 E5.84347
G1 X99.463 Y106.291 E5.8604
G1 X98.941 Y106.074 E5.87733
G1 X98.39 Y105.943 E5.89428
G0 F6000 X98.328 Y106.339
;TYPE:WALL-OUTER
G1 F1200 X97.821 Y106.3 E5.9095
G1 X92.44 Y106.3 E6.07058
G1 X93.383 Y103.188 E6.16791
G1 X95.026 Y100.115 E6.27222
G1 X97.242 Y97.414 E6.37681
G1 X99.942 Y95.199 E6.48135
G1 X103.015 Y93.555 E6.58567
G1 X106.353 Y92.543 E6.69008
G1 X109.828 Y92.201 E6.7946
G1 X113.302 Y92.543 E6.8991
G1 X116.64 Y93.555 E7.00351
G1 X119.713 Y95.199 E7.10783
G1 X122.414 Y97.414 E7.2124
G1 X124.629 Y100.115 E7.31696
G1 X126.272 Y103.188 E7.42127
G1 X127.285 Y106.525 E7.52566
G1 X127.627 Y110 E7.63018
G1 X127.285 Y113.475 E7.73471
G1 X126.272 Y116.812 E7.8391
G1 X124.629 Y119.885 E7.94341
G1 X122.414 Y122.586 E8.04797
G1 X119.713 Y124.801 E8.15253
G1 X116.64 Y126.445 E8.25686
G1 X113.302 Y127.457 E8.36127
G1 X109.828 Y127.799 E8.46576
G1 X106.353 Y127.457 E8.57029
G1 X103.015 Y126.445 E8.6747
G1 X99.942 Y124.801 E8.77902
G1 X97.242 Y122.586 E8.88356
G1 X95.026 Y119.885 E8.98814
G1 X93.383 Y116.812 E9.09245
G1 X92.442 Y113.701 E9.18974
G1 X97.851 Y113.699 E9.35166
G1 X98.328 Y113.661 E9.36598
G1 X98.817 Y113.544 E9.38103
G1 X99.281 Y113.352 E9.39606
G1 X99.709 Y113.089 E9.4111
G1 X100.091 Y112.763 E9.42613
G1 X100.417 Y112.381 E9.44117
G1 X100.68 Y111.953 E9.4562
G1 X100.872 Y111.489 E9.47123
G1 X100.989 Y111 E9.48629
G1 X101.028 Y110.508 E9.50106
G1 X101.028 Y109.492 E9.53147
G1 X100.989 Y109 E9.54625
G1 X100.872 Y108.511 E9.5613
G1 X100.68 Y108.047 E9.57633
G1 X100.417 Y107.619 E9.59137
G1 X100.091 Y107.237 E9.6064
G1 X99.709 Y106.911 E9.62143
G1 X99.281 Y106.648 E9.63647
G1 X98.817 Y106.456 E9.6515
G1 X98.328 Y106.339 E9.66655
G0 F6000 X98.396 Y105.905
G0 X98.45 Y105.557
;TYPE:SKIN
G1 F1200 X97.851 Y105.51 E9.68454
G1 X93.504 Y105.51 E9.81466
G1 X94.115 Y103.494 E9.87772
G1 X95.688 Y100.555 E9.9775
G1 X97.803 Y97.975 E10.07737
G1 X100.385 Y95.858 E10.17731
G1 X103.317 Y94.288 E10.27687
G1 X106.508 Y93.321 E10.37668
G1 X109.828 Y92.995 E10.47654
G1 X113.147 Y93.321 E10.57637
G1 X116.338 Y94.288 E10.67618
G1 X119.27 Y95.858 E10.77574
G1 X121.853 Y97.975 E10.87571
G1 X123.967 Y100.555 E10.97555
G1 X125.54 Y103.494 E11.07534
G1 X126.506 Y106.676 E11.17488
G1 X126.833 Y110 E11.27486
G1 X126.507 Y113.32 E11.37472
G1 X125.54 Y116.506 E11.47439
G1 X123.967 Y119.445 E11.57417
G1 X121.853 Y122.025 E11.67402
G1 X119.27 Y124.142 E11.77399
G1 X116.338 Y125.712 E11.87354
G1 X113.147 Y126.679 E11.97335
G1 X109.828 Y127.005 E12.07318
G1 X106.508 Y126.679 E12.17304
G1 X103.317 Y125.712 E12.27285
G1 X100.385 Y124.142 E12.37241
G1 X97.803 Y122.025 E12.47236
G1 X95.688 Y119.445 E12.57222
G1 X94.115 Y116.506 E12.67201
G1 X93.506 Y114.491 E12.73502
G1 X97.883 Y114.489 E12.86604
G1 X98.452 Y114.443 E12.88313
G1 X99.062 Y114.298 E12.9019
G1 X99.641 Y114.058 E12.92066
G1 X100.175 Y113.729 E12.93943
G1 X100.652 Y113.324 E12.95816
G1 X101.057 Y112.847 E12.97689
G1 X101.386 Y112.313 E12.99567
G1 X101.626 Y111.734 E13.01443
G1 X101.771 Y111.124 E13.0332
G1 X101.818 Y110.54 E13.05074
G1 X101.818 Y109.46 E13.08307
G1 X101.771 Y108.876 E13.1006
G1 X101.626 Y108.266 E13.11937
G1 X101.386 Y107.687 E13.13814
G1 X101.057 Y107.153 E13.15691
G1 X100.652 Y106.676 E13.17564
G1 X100.175 Y106.271 E13.19437
G1 X99.641 Y105.942 E13.21315
G1 X99.062 Y105.702 E13.23191
G1 X98.45 Y105.557 E13.25074
G1 F2400 E6.25074
G0 F6000 X98.408 Y105.833
G0 X100.069 Y106.417
G0 X99.2 Y107.613
G0 X107.789 Y106.416
G0 X106.315 Y106.417
G0 X106.415 Y105.344
G1 F2400 E13.25074
G0 F6000 X106.134 Y105.332
G1 F1200 X106.135 Y114.663 E13.53005
G1 X106.172 Y115.131 E13.5441
G1 X106.297 Y115.645 E13.55994
G1 X106.49 Y116.113 E13.57509
G1 X106.763 Y116.556 E13.59067
G1 X107.11 Y116.957 E13.60654
G1 X107.492 Y117.283 E13.62158
G1 X107.935 Y117.557 E13.63717
G1 X108.428 Y117.757 E13.65309
G1 X108.917 Y117.874 E13.66814
G1 X109.396 Y117.912 E13.68253
G1 X110.256 Y117.911 E13.70827
G1 X110.722 Y117.874 E13.72227
G1 X111.236 Y117.749 E13.7381
G1 X111.704 Y117.556 E13.75325
G1 X112.145 Y117.284 E13.76876
G1 X112.54 Y116.949 E13.78427
G1 X112.875 Y116.554 E13.79977
G1 X113.147 Y116.113 E13.81528
G1 X113.346 Y115.633 E13.83083
G1 X113.465 Y115.129 E13.84634
G1 X113.504 Y114.652 E13.86066
G1 X113.504 Y105.332 E14.13965
G1 X113.465 Y104.856 E14.15395
G1 X113.346 Y104.351 E14.16948
G1 X113.147 Y103.872 E14.185
G1 X112.875 Y103.431 E14.20051
G1 X112.54 Y103.037 E14.21599
G1 X112.145 Y102.7 E14.23154
G1 X111.703 Y102.429 E14.24706
G1 X111.224 Y102.23 E14.26258
G1 X110.72 Y102.111 E14.27808
G1 X110.244 Y102.072 E14.29238
G1 X109.394 Y102.072 E14.31782
G1 X108.917 Y102.111 E14.33215
G1 X108.413 Y102.23 E14.34765
G1 X107.934 Y102.429 E14.36318
G1 X107.492 Y102.7 E14.3787
G1 X107.097 Y103.037 E14.39424
G1 X106.762 Y103.431 E14.40972
G1 X106.489 Y103.874 E14.4253
G1 X106.289 Y104.367 E14.44122
G1 X106.172 Y104.856 E14.45628
G1 X106.134 Y105.332 E14.47057
G1 F2400 E7.47057
G0 F6000 X106.415 Y105.344
G0 X107.209 Y103.756
G0 X107.817 Y103.147
G0 X108.584 Y102.755
G0 X109.417 Y102.623
G0 X110.633 Y102.656
G0 X111.452 Y102.921
G0 X112.016 Y103.33
G0 X113.155 Y104.413
G0 X111.765 Y104.861
G0 X122.915 Y96.708
G0 X121.981 Y97.847
G0 X124.279 Y100.544
G1 F2400 E14.47057
G0 F6000 X123.925 Y100.732
G1 F1200 X119.093 Y95.899 E14.67514
G0 F6000 X119.282 Y95.548
G0 X118.062 Y94.895
G0 X117.873 Y95.246
G1 F1200 X124.577 Y101.949 E14.95893
G0 F6000 X124.93 Y101.761
G0 X125.582 Y102.979
G0 X125.229 Y103.167
G1 F1200 X116.654 Y94.593 E15.32191
G0 F6000 X116.842 Y94.242
G0 X115.838 Y93.846
G0 X115.722 Y94.226
G1 F1200 X125.599 Y104.103 E15.74004
G0 F6000 X125.846 Y104.916
G1 F1200 X114.91 Y93.98 E16.20299
G0 F6000 X114.099 Y93.734
G1 F1200 X126.093 Y105.728 E16.71074
G0 F6000 X126.339 Y106.54
G1 F1200 X113.287 Y93.488 E17.26327
G0 F6000 X112.623 Y93.39
G1 F1200 X126.437 Y107.203 E17.84804
G0 F6000 X126.498 Y107.83
G1 F1200 X111.996 Y93.328 E18.46196
G0 F6000 X111.369 Y93.267
G1 F1200 X126.56 Y108.458 E19.10504
G0 F6000 X126.621 Y109.085
G1 F1200 X110.742 Y93.205 E19.77727
G0 F6000 X110.114 Y93.144
G1 F1200 X126.683 Y109.713 E20.47869
G0 F6000 X126.684 Y110.279
G1 F1200 X109.548 Y93.143 E21.20412
G0 F6000 X109.033 Y93.193
G1 F1200 X126.634 Y110.795 E21.94924
G0 F6000 X126.583 Y111.309
G1 F1200 X108.518 Y93.244 E22.71399
G0 F6000 X108.002 Y93.294
G1 F1200 X126.533 Y111.825 E23.49847
G0 F6000 X126.483 Y112.34
G1 F1200 X107.487 Y93.345 E24.30261
G0 F6000 X106.971 Y93.395
G1 F1200 X126.432 Y112.856 E25.12646
G0 F6000 X126.37 Y113.359
G1 F1200 X106.468 Y93.457 E25.96898
G0 F6000 X106.034 Y93.589
G1 F1200 X126.239 Y113.793 E26.8243
G0 F6000 X126.107 Y114.228
G1 F1200 X105.6 Y93.72 E27.69245
G0 F6000 X105.165 Y93.852
G1 F1200 X125.975 Y114.661 E28.57338
G0 F6000 X125.843 Y115.095
G1 F1200 X104.731 Y93.983 E29.46712
G0 F6000 X104.298 Y94.115
G1 F1200 X125.712 Y115.529 E30.37364
G0 F6000 X125.58 Y115.963
G1 F1200 X112.939 Y103.323 E30.90876
G0 F6000 X112.243 Y102.626
G1 F1200 X103.864 Y94.247 E31.26347
G0 F6000 X103.429 Y94.378
G1 F1200 X111.136 Y102.085 E31.58973
G0 F6000 X110.453 Y101.968
G1 F1200 X103.051 Y94.566 E31.90308
G0 F6000 X102.682 Y94.762
G1 F1200 X109.87 Y101.951 E32.20739
G0 F6000 X109.312 Y101.958
G1 F1200 X102.314 Y94.96 E32.50364
G0 F6000 X101.945 Y95.157
G1 F1200 X108.802 Y102.014 E32.79392
G0 F6000 X108.348 Y102.126
G1 F1200 X101.577 Y95.354 E33.08058
G0 F6000 X101.208 Y95.552
G1 F1200 X107.948 Y102.291 E33.36588
G0 F6000 X107.589 Y102.497
G1 F1200 X100.84 Y95.749 E33.65157
G0 F6000 X100.472 Y95.946
G1 F1200 X107.262 Y102.736 E33.93901
G0 F6000 X106.965 Y103.005
G1 F1200 X100.158 Y96.199 E34.22715
G0 F6000 X99.847 Y96.453
G1 F1200 X106.705 Y103.311 E34.51748
G0 F6000 X106.483 Y103.654
G1 F1200 X99.537 Y96.708 E34.81152
G0 F6000 X99.226 Y96.963
G1 F1200 X106.294 Y104.031 E35.11073
G0 F6000 X106.145 Y104.448
G1 F1200 X98.915 Y97.217 E35.41682
G0 F6000 X98.604 Y97.473
G1 F1200 X106.046 Y104.915 E35.73187
G0 F6000 X106.013 Y105.448
G1 F1200 X98.293 Y97.727 E36.0587
G0 F6000 X97.982 Y97.982
G1 F1200 X106.013 Y106.013 E36.39868
G0 F6000 X106.013 Y106.579
G1 F1200 X97.71 Y98.275 E36.75019
G0 F6000 X97.455 Y98.586
G1 F1200 X106.013 Y107.145 E37.1125
G0 F6000 X106.013 Y107.71
G1 F1200 X97.2 Y98.897 E37.48559
G0 F6000 X96.945 Y99.208
G1 F1200 X106.013 Y108.276 E37.86946
G0 F6000 X106.014 Y108.842
G1 F1200 X96.691 Y99.519 E38.26414
G0 F6000 X96.435 Y99.83
G1 F1200 X106.014 Y109.408 E38.66963
G0 F6000 X106.014 Y109.974
G1 F1200 X96.181 Y100.141 E39.08589
G0 F6000 X95.926 Y100.452
G1 F1200 X106.014 Y110.539 E39.51292
G0 F6000 X106.014 Y111.105
G1 F1200 X95.697 Y100.788 E39.94968
G0 F6000 X95.5 Y101.157
G1 F1200 X106.015 Y111.671 E40.39479
G0 F6000 X106.015 Y112.237
G1 F1200 X101.551 Y107.774 E40.58374
G0 F6000 X101.833 Y108.621
G1 F1200 X106.015 Y112.803 E40.76078
G0 F6000 X106.015 Y113.369
G1 F1200 X101.923 Y109.276 E40.93403
G0 F6000 X101.937 Y109.857
G1 F1200 X106.015 Y113.934 E41.10664
G0 F6000 X106.015 Y114.5
G1 F1200 X101.937 Y110.423 E41.27926
G0 F6000 X101.903 Y110.954
G1 F1200 X106.049 Y115.1 E41.45477
G0 F6000 X106.266 Y115.883
G1 F1200 X101.819 Y111.436 E41.64303
G0 F6000 X101.696 Y111.878
G1 F1200 X115.621 Y125.803 E42.23252
G0 F6000 X116.054 Y125.671
G1 F1200 X108.161 Y117.777 E42.56668
G0 F6000 X108.945 Y117.996
G1 F1200 X116.459 Y125.51 E42.88477
G0 F6000 X116.827 Y125.312
G1 F1200 X109.545 Y118.03 E43.19304
G0 F6000 X110.111 Y118.03
G1 F1200 X117.195 Y125.115 E43.49295
G0 F6000 X117.564 Y124.918
G1 F1200 X110.645 Y117.999 E43.78585
G0 F6000 X111.113 Y117.901
G1 F1200 X117.932 Y124.72 E44.07452
G0 F6000 X118.301 Y124.523
G1 F1200 X111.533 Y117.755 E44.36103
G0 F6000 X111.912 Y117.569
G1 F1200 X118.67 Y124.327 E44.64712
G0 F6000 X119.038 Y124.129
G1 F1200 X112.256 Y117.347 E44.93423
G0 F6000 X112.562 Y117.087
G1 F1200 X119.374 Y123.899 E45.2226
G0 F6000 X119.685 Y123.645
G1 F1200 X112.83 Y116.789 E45.51281
G0 F6000 X113.069 Y116.464
G1 F1200 X119.996 Y123.39 E45.80604
G0 F6000 X120.307 Y123.135
G1 F1200 X113.278 Y116.106 E46.1036
G0 F6000 X113.444 Y115.707
G1 F1200 X120.618 Y122.881 E46.4073
G0 F6000 X120.928 Y122.625
G1 F1200 X113.557 Y115.254 E46.71933
G0 F6000 X113.615 Y114.747
G1 F1200 X121.239 Y122.371 E47.04208
G0 F6000 X121.55 Y122.116
G1 F1200 X113.623 Y114.189 E47.37766
G0 F6000 X113.623 Y113.623
G1 F1200 X121.845 Y121.845 E47.72572
G0 F6000 X122.1 Y121.534
G1 F1200 X113.623 Y113.057 E48.08458
G0 F6000 X113.623 Y112.492
G1 F1200 X122.354 Y121.223 E48.45419
G0 F6000 X122.609 Y120.912
G1 F1200 X113.623 Y111.926 E48.8346
G0 F6000 X113.623 Y111.36
G1 F1200 X122.864 Y120.601 E49.2258
G0 F6000 X123.119 Y120.29
G1 F1200 X113.623 Y110.795 E49.62778
G0 F6000 X113.623 Y110.229
G1 F1200 X123.373 Y119.979 E50.04052
G0 F6000 X123.628 Y119.668
G1 F1200 X113.623 Y109.663 E50.46407
G0 F6000 X113.623 Y109.098
G1 F1200 X123.88 Y119.354 E50.89826
G0 F6000 X124.077 Y118.986
G1 F1200 X113.623 Y108.532 E51.34081
G0 F6000 X113.623 Y107.966
