;FLAVOR:Marlin
;TIME:12478
;Filament used: 11.8129m
;Layer height: 0.2
;MINX:62.7
;MINY:70.2
;MINZ:0.2
;MAXX:157.656
;MAXY:150.665
;MAXZ:30
;Generated with Cura_SteamEngine 4.13.1
M140 S50
M105
M190 S50
M104 S195
M105
M109 S195
M82 ;absolute extrusion mode
G28 ;Home
G92 E0 ;Reset Extruder
G1 Z2.0 F3000 ;Move bed down
G1 X10.1 Y20 Z0.28 F5000.0 ;Move to start position
G1 X10.1 Y200.0 Z0.28 F1500.0 E15 ;Draw the first line
G1 X10.4 Y200.0 Z0.28 F5000.0 ;Move to side a little
G1 X10.4 Y20 Z0.28 F1500.0 E30 ;Draw the second line
G92 E0 ;Reset Extruder
G1 Z2.0 F3000 ;Move Bed up
G92 E0
G92 E0
G1 F2400 E-7
;LAYER_COUNT:150
;LAYER:0
M107
;MESH:dish.stl
G0 F6000 X147.206 Y149.4 Z0.2
;TYPE:WALL-INNER
G1 F2400 E0
G1 F1200 X72.795 Y149.4 E2.22743
G1 X71.263 Y149.274 E2.27344
G1 X69.789 Y148.9 E2.31896
G1 X68.39 Y148.29 E2.36465
G1 X67.102 Y147.46 E2.41052
G1 X65.943 Y146.418 E2.45717
G1 X64.958 Y145.204 E2.50397
G1 X64.157 Y143.83 E2.55157
G1 X63.579 Y142.358 E2.59891
G1 X63.221 Y140.789 E2.64709
G1 X63.1 Y139.174 E2.69557
G1 X63.1 Y80.827 E4.44213
G1 X63.221 Y79.211 E4.49064
G1 X63.579 Y77.642 E4.53881
G1 X64.157 Y76.17 E4.58615
G1 X64.958 Y74.796 E4.63376
G1 X65.943 Y73.582 E4.68056
G1 X67.102 Y72.54 E4.72721
G1 X68.39 Y71.71 E4.77308
G1 X69.789 Y71.1 E4.81876
G1 X71.263 Y70.726 E4.86429
G1 X72.794 Y70.6 E4.91027
G1 X147.205 Y70.6 E7.1377
G1 X148.737 Y70.726 E7.18371
G1 X150.211 Y71.1 E7.22923
G1 X151.61 Y71.71 E7.27492
G1 X152.898 Y72.54 E7.32078
G1 X154.057 Y73.582 E7.36744
G1 X155.042 Y74.796 E7.41424
G1 X155.843 Y76.17 E7.46184
G1 X156.421 Y77.642 E7.50918
G1 X156.779 Y79.211 E7.55736
G1 X156.9 Y80.826 E7.60583
G1 X156.9 Y139.173 E9.3524
G1 X156.779 Y140.789 E9.40091
G1 X156.421 Y142.358 E9.44908
G1 X155.843 Y143.83 E9.49642
G1 X155.042 Y145.204 E9.54403
G1 X154.057 Y146.418 E9.59083
G1 X152.898 Y147.46 E9.63748
G1 X151.61 Y148.29 E9.68335
G1 X150.211 Y148.9 E9.72903
G1 X148.737 Y149.274 E9.77455
G1 X147.206 Y149.4 E9.82054
G0 F6000 X147.227 Y149.8
;TYPE:WALL-OUTER
G1 F1200 X72.774 Y149.8 E12.04922
G1 X71.198 Y149.67 E12.09656
G1 X69.658 Y149.28 E12.14411
G1 X68.202 Y148.645 E12.19166
G1 X66.858 Y147.779 E12.23952
G1 X65.651 Y146.693 E12.28812
G1 X64.628 Y145.433 E12.33671
G1 X63.798 Y144.008 E12.38607
G1 X63.195 Y142.474 E12.43541
G1 X62.824 Y140.848 E12.48534
G1 X62.7 Y139.191 E12.53507
G1 X62.7 Y80.81 E14.28266
G1 X62.824 Y79.152 E14.33243
G1 X63.195 Y77.526 E14.38235
G1 X63.798 Y75.992 E14.43169
G1 X64.628 Y74.567 E14.48106
G1 X65.651 Y73.307 E14.52964
G1 X66.858 Y72.221 E14.57824
G1 X68.202 Y71.355 E14.6261
G1 X69.658 Y70.72 E14.67365
G1 X71.198 Y70.33 E14.7212
G1 X72.773 Y70.2 E14.76851
G1 X147.226 Y70.2 E16.9972
G1 X148.802 Y70.33 E17.04453
G1 X150.342 Y70.72 E17.09209
G1 X151.798 Y71.355 E17.13963
G1 X153.142 Y72.221 E17.18749
G1 X154.349 Y73.307 E17.2361
G1 X155.372 Y74.567 E17.28468
G1 X156.202 Y75.992 E17.33404
G1 X156.805 Y77.526 E17.38338
G1 X157.176 Y79.152 E17.43331
G1 X157.3 Y80.809 E17.48305
G1 X157.3 Y139.19 E19.23063
G1 X157.176 Y140.848 E19.2804
G1 X156.805 Y142.474 E19.33032
G1 X156.202 Y144.008 E19.37966
G1 X155.372 Y145.433 E19.42903
G1 X154.349 Y146.693 E19.47761
G1 X153.142 Y147.779 E19.52621
G1 X151.798 Y148.645 E19.57407
G1 X150.342 Y149.28 E19.62162
G1 X148.802 Y149.67 E19.66918
G1 X147.227 Y149.8 E19.71648
G0 F6000 X147.209 Y149.361
G0 X147.198 Y149.01
;TYPE:SKIN
G1 F1200 X72.803 Y149.01 E21.94343
G1 X71.332 Y148.889 E21.98761
G1 X69.914 Y148.53 E22.0314
G1 X68.577 Y147.946 E22.07507
G1 X67.34 Y147.15 E22.1191
G1 X66.228 Y146.149 E22.16389
G1 X65.28 Y144.982 E22.2089
G1 X64.507 Y143.657 E22.25482
G1 X63.952 Y142.241 E22.30034
G1 X63.607 Y140.727 E22.34683
G1 X63.49 Y139.174 E22.39344
G1 X63.49 Y80.827 E24.14001
G1 X63.607 Y79.273 E24.18666
G1 X63.952 Y77.759 E24.23314
G1 X64.507 Y76.343 E24.27867
G1 X65.28 Y75.018 E24.32459
G1 X66.228 Y73.851 E24.36959
G1 X67.34 Y72.85 E24.41438
G1 X68.577 Y72.054 E24.45841
G1 X69.914 Y71.47 E24.50209
G1 X71.332 Y71.111 E24.54587
G1 X72.802 Y70.99 E24.59002
G1 X147.197 Y70.99 E26.81697
G1 X148.668 Y71.111 E26.86116
G1 X150.086 Y71.47 E26.90494
G1 X151.423 Y72.054 E26.94861
G1 X152.66 Y72.85 E26.99265
G1 X153.772 Y73.851 E27.03743
G1 X154.72 Y75.018 E27.08244
G1 X155.493 Y76.343 E27.12836
G1 X156.048 Y77.759 E27.17389
G1 X156.393 Y79.273 E27.22037
G1 X156.51 Y80.826 E27.26699
G1 X156.51 Y139.173 E29.01355
G1 X156.393 Y140.727 E29.0602
G1 X156.048 Y142.241 E29.10668
G1 X155.493 Y143.657 E29.15221
G1 X154.72 Y144.982 E29.19813
G1 X153.772 Y146.149 E29.24314
G1 X152.66 Y147.15 E29.28792
G1 X151.423 Y147.946 E29.33196
G1 X150.086 Y148.53 E29.37563
G1 X148.668 Y148.889 E29.41941
G1 X147.198 Y149.01 E29.46357
G1 F2400 E22.46357
G0 F6000 X147.198 Y149.29
G0 X148.703 Y149.106
G0 X150.16 Y148.736
G0 X151.523 Y148.142
G0 X152.799 Y147.32
G0 X153.932 Y146.301
G0 X154.901 Y145.106
G0 X155.69 Y143.755
G0 X156.256 Y142.311
G0 X156.611 Y140.758
G0 X156.729 Y139.174
G0 X156.729 Y80.825
G0 X156.611 Y79.242
G0 X156.292 Y77.845
G0 X155.439 Y75.696
G1 F2400 E29.46357
G0 F6000 X155.093 Y75.897
G1 F1200 X151.348 Y72.152 E29.6221
G0 F6000 X151.509 Y71.786
G0 X150.502 Y71.347
G0 X150.342 Y71.712
G1 F1200 X155.615 Y76.985 E29.84533
G0 F6000 X155.955 Y77.89
G1 F1200 X149.513 Y71.448 E30.11804
G0 F6000 X148.756 Y71.257
G1 F1200 X156.121 Y78.622 E30.42982
G0 F6000 X156.277 Y79.344
G1 F1200 X148.119 Y71.186 E30.77518
G0 F6000 X147.503 Y71.135
G1 F1200 X156.323 Y79.956 E31.14858
G0 F6000 X156.369 Y80.567
G1 F1200 X146.912 Y71.11 E31.54892
G0 F6000 X146.346 Y71.11
G1 F1200 X156.389 Y81.153 E31.97408
G0 F6000 X156.389 Y81.718
G1 F1200 X145.78 Y71.11 E32.42317
G0 F6000 X145.214 Y71.11
G1 F1200 X156.389 Y82.284 E32.89622
G0 F6000 X156.389 Y82.85
G1 F1200 X144.649 Y71.11 E33.39321
G0 F6000 X144.083 Y71.11
G1 F1200 X156.389 Y83.415 E33.91414
G0 F6000 X156.389 Y83.981
G1 F1200 X143.517 Y71.11 E34.45904
G0 F6000 X142.952 Y71.11
G1 F1200 X156.389 Y84.547 E35.02787
G0 F6000 X156.389 Y85.113
G1 F1200 X142.386 Y71.11 E35.62066
G0 F6000 X141.82 Y71.11
G1 F1200 X156.389 Y85.678 E36.23739
G0 F6000 X156.389 Y86.244
G1 F1200 X141.255 Y71.11 E36.87806
G0 F6000 X140.689 Y71.11
G1 F1200 X156.389 Y86.81 E37.5427
G0 F6000 X156.389 Y87.375
G1 F1200 X140.123 Y71.11 E38.23127
G0 F6000 X139.558 Y71.11
G1 F1200 X156.389 Y87.941 E38.94378
G0 F6000 X156.389 Y88.507
G1 F1200 X138.992 Y71.11 E39.68025
G0 F6000 X138.426 Y71.11
G1 F1200 X156.389 Y89.072 E40.44066
G0 F6000 X156.389 Y89.638
G1 F1200 X137.861 Y71.11 E41.22501
G0 F6000 X137.295 Y71.11
G1 F1200 X156.389 Y90.204 E42.03332
G0 F6000 X156.389 Y90.769
G1 F1200 X136.729 Y71.11 E42.86557
G0 F6000 X136.164 Y71.11
G1 F1200 X156.389 Y91.335 E43.72176
G0 F6000 X156.389 Y91.901
G1 F1200 X135.598 Y71.11 E44.60191
G0 F6000 X135.032 Y71.11
G1 F1200 X156.389 Y92.466 E45.506
G0 F6000 X156.389 Y93.032
G1 F1200 X134.466 Y71.11 E46.43405
G0 F6000 X133.901 Y71.11
G1 F1200 X156.389 Y93.598 E47.38604
G0 F6000 X156.389 Y94.163
G1 F1200 X133.335 Y71.11 E48.36197
G0 F6000 X132.769 Y71.11
G1 F1200 X156.389 Y94.729 E49.36186
G0 F6000 X156.389 Y95.295
G1 F1200 X132.204 Y71.11 E50.38569
G0 F6000 X131.638 Y71.11
G1 F1200 X156.389 Y95.861 E51.43348
G0 F6000 X156.389 Y96.426
G1 F1200 X131.072 Y71.11 E52.50521
G0 F6000 X130.507 Y71.11
G1 F1200 X156.389 Y96.992 E53.60088
G0 F6000 X156.389 Y97.558
G1 F1200 X129.941 Y71.11 E54.72051
G0 F6000 X129.375 Y71.11
G1 F1200 X156.389 Y98.123 E55.86408
G0 F6000 X156.389 Y98.689
G1 F1200 X128.81 Y71.11 E57.03159
G0 F6000 X128.244 Y71.11
G1 F1200 X156.389 Y99.255 E58.22306
G0 F6000 X156.389 Y99.82
G1 F1200 X127.678 Y71.11 E59.43846
G0 F6000 X127.113 Y71.11
G1 F1200 X156.389 Y100.386 E60.67781
G0 F6000 X156.389 Y100.952
G1 F1200 X126.547 Y71.11 E61.94112
G0 F6000 X125.981 Y71.11
G1 F1200 X156.389 Y101.517 E63.22837
G0 F6000 X156.389 Y102.083
G1 F1200 X125.415 Y71.11 E64.53958
G0 F6000 X124.85 Y71.11
G1 F1200 X156.389 Y102.649 E65.87473
G0 F6000 X156.389 Y103.214
G1 F1200 X124.284 Y71.11 E67.23381
G0 F6000 X123.718 Y71.11
G1 F1200 X156.389 Y103.78 E68.61686
G0 F6000 X156.389 Y104.346
G1 F1200 X123.153 Y71.11 E70.02385
G0 F6000 X122.587 Y71.11
G1 F1200 X156.389 Y104.912 E71.4548
G0 F6000 X156.389 Y105.477
G1 F1200 X122.021 Y71.11 E72.90968
G0 F6000 X121.456 Y71.11
G1 F1200 X156.389 Y106.043 E74.38851
G0 F6000 X156.389 Y106.609
G1 F1200 X120.89 Y71.11 E75.8913
G0 F6000 X120.324 Y71.11
G1 F1200 X156.389 Y107.174 E77.41803
G0 F6000 X156.389 Y107.74
G1 F1200 X119.759 Y71.11 E78.96869
G0 F6000 X119.193 Y71.11
G1 F1200 X156.389 Y108.306 E80.54332
G0 F6000 X156.389 Y108.871
G1 F1200 X118.627 Y71.11 E82.14189
G0 F6000 X118.062 Y71.11
G1 F1200 X156.389 Y109.437 E83.76439
G0 F6000 X156.389 Y110.003
G1 F1200 X117.496 Y71.11 E85.41086
G0 F6000 X116.93 Y71.11
G1 F1200 X156.389 Y110.568 E87.08127
G0 F6000 X156.389 Y111.134
G1 F1200 X116.365 Y71.11 E88.77561
G0 F6000 X115.799 Y71.11
G1 F1200 X156.389 Y111.7 E90.49392
G0 F6000 X156.389 Y112.265
G1 F1200 X115.233 Y71.11 E92.23616
G0 F6000 X114.667 Y71.11
G1 F1200 X156.389 Y112.831 E94.00237
G0 F6000 X156.389 Y113.397
G1 F1200 X114.102 Y71.11 E95.79252
G0 F6000 X113.536 Y71.11
G1 F1200 X156.389 Y113.962 E97.6066
G0 F6000 X156.389 Y114.528
G1 F1200 X112.97 Y71.11 E99.44465
G0 F6000 X112.405 Y71.11
G1 F1200 X156.389 Y115.094 E101.30663
G0 F6000 X156.389 Y115.66
G1 F1200 X111.839 Y71.11 E103.19258
G0 F6000 X111.273 Y71.11
G1 F1200 X156.389 Y116.225 E105.10246
G0 F6000 X156.389 Y116.791
G1 F1200 X110.708 Y71.11 E107.03629
G0 F6000 X110.142 Y71.11
G1 F1200 X156.389 Y117.357 E108.99407
G0 F6000 X156.389 Y117.922
G1 F1200 X109.576 Y71.11 E110.9758
G0 F6000 X109.011 Y71.11
G1 F1200 X156.389 Y118.488 E112.98146
G0 F6000 X156.389 Y119.054
G1 F1200 X108.445 Y71.11 E115.01109
G0 F6000 X107.879 Y71.11
G1 F1200 X156.389 Y119.619 E117.06465
G0 F6000 X156.389 Y120.185
G1 F1200 X107.314 Y71.11 E119.14216
G0 F6000 X106.748 Y71.11
G1 F1200 X156.389 Y120.751 E121.24362
G0 F6000 X156.389 Y121.316
G1 F1200 X106.182 Y71.11 E123.36902
G0 F6000 X105.617 Y71.11
G1 F1200 X156.389 Y121.882 E125.51837
G0 F6000 X156.389 Y122.448
G1 F1200 X105.051 Y71.11 E127.69167
G0 F6000 X104.485 Y71.11
G1 F1200 X156.389 Y123.013 E129.88891
G0 F6000 X156.389 Y123.579
G1 F1200 X103.919 Y71.11 E132.11012
G0 F6000 X103.354 Y71.11
G1 F1200 X156.389 Y124.145 E134.35526
G0 F6000 X156.389 Y124.711
G1 F1200 X102.788 Y71.11 E136.62437
G0 F6000 X102.222 Y71.11
G1 F1200 X156.389 Y125.276 E138.91741
G0 F6000 X156.389 Y125.842
G1 F1200 X101.657 Y71.11 E141.23439
G0 F6000 X101.091 Y71.11
G1 F1200 X156.389 Y126.408 E143.57534
G0 F6000 X156.389 Y126.973
G1 F1200 X100.525 Y71.11 E145.94022
G0 F6000 X99.96 Y71.11
G1 F1200 X156.389 Y127.539 E148.32904
G0 F6000 X156.389 Y128.105
G1 F1200 X99.394 Y71.11 E150.74182
G0 F6000 X98.828 Y71.11
G1 F1200 X156.389 Y128.67 E153.17855
G0 F6000 X156.389 Y129.236
G1 F1200 X98.263 Y71.11 E155.63921
G0 F6000 X97.697 Y71.11
G1 F1200 X156.389 Y129.802 E158.12383
G0 F6000 X156.389 Y130.367
G1 F1200 X97.131 Y71.11 E160.63239
G0 F6000 X96.566 Y71.11
G1 F1200 X156.389 Y130.933 E163.16489
G0 F6000 X156.389 Y131.499
G1 F1200 X96 Y71.11 E165.72136
G0 F6000 X95.434 Y71.11
G1 F1200 X156.389 Y132.064 E168.30176
G0 F6000 X156.389 Y132.63
G1 F1200 X94.868 Y71.11 E170.90612
G0 F6000 X94.303 Y71.11
G1 F1200 X156.389 Y133.196 E173.53442
G0 F6000 X156.389 Y133.761
G1 F1200 X93.737 Y71.11 E176.18666
G0 F6000 X93.171 Y71.11
G1 F1200 X156.389 Y134.327 E178.86286
G0 F6000 X156.389 Y134.893
G1 F1200 X92.606 Y71.11 E181.56301
G0 F6000 X92.04 Y71.11
G1 F1200 X156.389 Y135.459 E184.28711
G0 F6000 X156.389 Y136.024
G1 F1200 X91.474 Y71.11 E187.03515
G0 F6000 X90.909 Y71.11
G1 F1200 X156.389 Y136.59 E189.80713
G0 F6000 X156.389 Y137.156
G1 F1200 X90.343 Y71.11 E192.60307
G0 F6000 X89.777 Y71.11
G1 F1200 X156.389 Y137.721 E195.42295
G0 F6000 X156.389 Y138.287
G1 F1200 X89.212 Y71.11 E198.26677
G0 F6000 X88.646 Y71.11
G1 F1200 X156.389 Y138.853 E201.13455
G0 F6000 X156.372 Y139.401
G1 F1200 X88.08 Y71.11 E204.02555
G0 F6000 X87.515 Y71.11
G1 F1200 X156.332 Y139.927 E206.9388
G0 F6000 X156.293 Y140.454
G1 F1200 X86.949 Y71.11 E209.87436
G0 F6000 X86.383 Y71.11
G1 F1200 X156.219 Y140.946 E212.83074
G0 F6000 X156.114 Y141.406
G1 F1200 X85.818 Y71.11 E215.8066
G0 F6000 X85.252 Y71.11
G1 F1200 X156.009 Y141.867 E218.80197
G0 F6000 X155.89 Y142.313
G1 F1200 X84.686 Y71.11 E221.81624
G0 F6000 X84.12 Y71.11
G1 F1200 X155.731 Y142.72 E224.84775
G0 F6000 X155.571 Y143.126
G1 F1200 X83.555 Y71.11 E227.89642
G0 F6000 X82.989 Y71.11
G1 F1200 X155.412 Y143.533 E230.96232
G0 F6000 X155.212 Y143.899
G1 F1200 X82.423 Y71.11 E234.04371
G0 F6000 X81.858 Y71.11
G1 F1200 X155.004 Y144.256 E237.14022
G0 F6000 X154.795 Y144.613
G1 F1200 X81.292 Y71.11 E240.25184
G0 F6000 X80.726 Y71.11
G1 F1200 X154.58 Y144.963 E243.3783
G0 F6000 X154.326 Y145.275
G1 F1200 X80.161 Y71.11 E246.51794
G0 F6000 X79.595 Y71.11
G1 F1200 X154.072 Y145.587 E249.6708
G0 F6000 X153.819 Y145.9
G1 F1200 X79.029 Y71.11 E252.8369
G0 F6000 X78.464 Y71.11
G1 F1200 X153.544 Y146.19 E256.01528
G0 F6000 X153.247 Y146.458
G1 F1200 X77.898 Y71.11 E259.20503
G0 F6000 X77.332 Y71.11
G1 F1200 X152.949 Y146.726 E262.40612
G0 F6000 X152.651 Y146.994
G1 F1200 X76.767 Y71.11 E265.61853
G0 F6000 X76.201 Y71.11
G1 F1200 X152.317 Y147.226 E268.84077
G0 F6000 X151.973 Y147.448
G1 F1200 X75.635 Y71.11 E272.07241
G0 F6000 X75.069 Y71.11
G1 F1200 X151.629 Y147.669 E275.31342
G0 F6000 X151.273 Y147.879
G1 F1200 X74.504 Y71.11 E278.5633
G0 F6000 X73.938 Y71.11
G1 F1200 X150.88 Y148.051 E281.82048
G0 F6000 X150.486 Y148.223
G1 F1200 X73.372 Y71.11 E285.08495
G0 F6000 X72.807 Y71.11
G1 F1200 X150.093 Y148.396 E288.35671
G0 F6000 X149.647 Y148.516
G1 F1200 X72.283 Y71.152 E291.63178
G0 F6000 X71.761 Y71.195
G1 F1200 X149.195 Y148.63 E294.90983
G0 F6000 X148.744 Y148.744
G1 F1200 X71.254 Y71.254 E298.19024
G0 F6000 X70.803 Y71.368
G1 F1200 X148.237 Y148.803 E301.46829
G0 F6000 X147.715 Y148.846
G1 F1200 X70.351 Y71.482 E304.74336
G0 F6000 X69.905 Y71.603
G1 F1200 X147.192 Y148.889 E308.01515
G0 F6000 X146.626 Y148.889
G1 F1200 X69.512 Y71.775 E311.27963
G0 F6000 X69.118 Y71.947
G1 F1200 X146.06 Y148.889 E314.53684
G0 F6000 X145.494 Y148.889
G1 F1200 X68.725 Y72.119 E317.78674
G0 F6000 X68.37 Y72.329
G1 F1200 X144.929 Y148.889 E321.02775
G0 F6000 X144.363 Y148.889
G1 F1200 X68.025 Y72.551 E324.25939
G0 F6000 X67.681 Y72.772
G1 F1200 X143.797 Y148.889 E327.48164
G0 F6000 X143.232 Y148.889
G1 F1200 X67.347 Y73.004 E330.6941
G0 F6000 X67.049 Y73.272
G1 F1200 X142.666 Y148.889 E333.89521
G0 F6000 X142.1 Y148.889
G1 F1200 X66.752 Y73.54 E337.08496
G0 F6000 X66.454 Y73.808
G1 F1200 X141.535 Y148.889 E340.26338
G0 F6000 X140.969 Y148.889
G1 F1200 X66.179 Y74.099 E343.42949
G0 F6000 X65.926 Y74.411
G1 F1200 X140.403 Y148.889 E346.58236
G0 F6000 X139.838 Y148.889
G1 F1200 X65.672 Y74.723 E349.72205
G0 F6000 X65.418 Y75.035
G1 F1200 X139.272 Y148.889 E352.84853
G0 F6000 X138.706 Y148.889
G1 F1200 X65.203 Y75.386 E355.96015
G0 F6000 X64.995 Y75.743
G1 F1200 X138.141 Y148.889 E359.05665
G0 F6000 X137.575 Y148.889
G1 F1200 X64.786 Y76.1 E362.13805
G0 F6000 X64.586 Y76.465
G1 F1200 X137.009 Y148.889 E365.20397
G0 F6000 X136.444 Y148.889
G1 F1200 X64.427 Y76.872 E368.25268
G0 F6000 X64.268 Y77.278
G1 F1200 X135.878 Y148.889 E371.28419
G0 F6000 X135.312 Y148.889
G1 F1200 X64.109 Y77.685 E374.29846
G0 F6000 X63.989 Y78.131
G1 F1200 X134.746 Y148.889 E377.29386
G0 F6000 X134.181 Y148.889
G1 F1200 X63.884 Y78.592 E380.26976
G0 F6000 X63.779 Y79.053
G1 F1200 X133.615 Y148.889 E383.22614
G0 F6000 X133.049 Y148.889
G1 F1200 X63.706 Y79.545 E386.16167
G0 F6000 X63.666 Y80.071
G1 F1200 X132.484 Y148.889 E389.07496
G0 F6000 X131.918 Y148.889
G1 F1200 X63.626 Y80.597 E391.96599
G0 F6000 X63.609 Y81.146
G1 F1200 X131.352 Y148.889 E394.83377
G0 F6000 X130.787 Y148.889
G1 F1200 X63.609 Y81.711 E397.67763
G0 F6000 X63.609 Y82.277
G1 F1200 X130.221 Y148.889 E400.49753
G0 F6000 X129.655 Y148.889
G1 F1200 X63.609 Y82.843 E403.29347
G0 F6000 X63.609 Y83.408
G1 F1200 X129.09 Y148.889 E406.06549
G0 F6000 X128.524 Y148.889
G1 F1200 X63.609 Y83.974 E408.81356
