;FLAVOR:Marlin
;TIME:9207
;Filament used: 8.67905m
;Layer height: 0.2
;MINX:59.335
;MINY:70.2
;MINZ:0.2
;MAXX:159.8
;MAXY:150.665
;MAXZ:30.8
;Generated with Cura_SteamEngine 4.13.1
M140 S50
M105
M190 S50
M104 S195
M105
M109 S195
M82 ;absolute extrusion mode
G28 ;Home
G92 E0 ;Reset Extruder
G1 Z2.0 F3000 ;Move bed down
G1 X10.1 Y20 Z0.28 F5000.0 ;Move to start position
G1 X10.1 Y200.0 Z0.28 F1500.0 E15 ;Draw the first line
G1 X10.4 Y200.0 Z0.28 F5000.0 ;Move to side a little
G1 X10.4 Y20 Z0.28 F1500.0 E30 ;Draw the second line
G92 E0 ;Reset Extruder
G1 Z2.0 F3000 ;Move Bed up
G92 E0
G92 E0
G1 F2400 E-7
;LAYER_COUNT:154
;LAYER:0
M107
;MESH:scale_pad.stl
G0 F6000 X159.4 Y149.4 Z0.2
;TYPE:WALL-INNER
G1 F2400 E0
G1 F1200 X60.6 Y149.4 E2.95749
G1 X60.6 Y70.6 E5.3163
G1 X159.4 Y70.6 E8.27379
G1 X159.4 Y149.4 E10.6326
G0 F6000 X159.8 Y149.8
;TYPE:WALL-OUTER
G1 F1200 X60.2 Y149.8 E13.61404
G1 X60.2 Y70.2 E15.99679
G1 X159.8 Y70.2 E18.97823
G1 X159.8 Y149.8 E21.36099
G0 F6000 X159.53 Y149.53
G0 X159.29 Y149.01
G0 X159.01 Y149.01
;TYPE:SKIN
G1 F1200 X60.99 Y149.01 E24.29513
G1 X60.99 Y70.99 E26.63059
G1 X159.01 Y70.99 E29.56473
G1 X159.01 Y149.01 E31.90019
G1 F2400 E24.90019
G0 F6000 X159.29 Y149.01
G0 X159.29 Y71.208
G1 F2400 E31.90019
G0 F6000 X158.889 Y71.208
G1 F1200 X158.791 Y71.11 E31.90434
G0 F6000 X158.225 Y71.11
G1 F1200 X158.889 Y71.774 E31.93245
G0 F6000 X158.889 Y72.339
G1 F1200 X157.66 Y71.11 E31.98448
G0 F6000 X157.094 Y71.11
G1 F1200 X158.889 Y72.905 E32.06047
G0 F6000 X158.889 Y73.471
G1 F1200 X156.528 Y71.11 E32.16042
G0 F6000 X155.963 Y71.11
G1 F1200 X158.889 Y74.036 E32.28428
G0 F6000 X158.889 Y74.602
G1 F1200 X155.397 Y71.11 E32.43211
G0 F6000 X154.831 Y71.11
G1 F1200 X158.889 Y75.168 E32.6039
G0 F6000 X158.889 Y75.733
G1 F1200 X154.265 Y71.11 E32.79963
G0 F6000 X153.7 Y71.11
G1 F1200 X158.889 Y76.299 E33.0193
G0 F6000 X158.889 Y76.865
G1 F1200 X153.134 Y71.11 E33.26292
G0 F6000 X152.568 Y71.11
G1 F1200 X158.889 Y77.431 E33.53051
G0 F6000 X158.889 Y77.996
G1 F1200 X152.003 Y71.11 E33.82202
G0 F6000 X151.437 Y71.11
G1 F1200 X158.889 Y78.562 E34.13749
G0 F6000 X158.889 Y79.128
G1 F1200 X150.871 Y71.11 E34.47691
G0 F6000 X150.306 Y71.11
G1 F1200 X158.889 Y79.693 E34.84026
G0 F6000 X158.889 Y80.259
G1 F1200 X149.74 Y71.11 E35.22757
G0 F6000 X149.174 Y71.11
G1 F1200 X158.889 Y80.825 E35.63883
G0 F6000 X158.889 Y81.39
G1 F1200 X148.609 Y71.11 E36.07402
G0 F6000 X148.043 Y71.11
G1 F1200 X158.889 Y81.956 E36.53317
G0 F6000 X158.889 Y82.522
G1 F1200 X147.477 Y71.11 E37.01627
G0 F6000 X146.912 Y71.11
G1 F1200 X158.889 Y83.087 E37.5233
G0 F6000 X158.889 Y83.653
G1 F1200 X146.346 Y71.11 E38.05428
G0 F6000 X145.78 Y71.11
G1 F1200 X158.889 Y84.219 E38.60923
G0 F6000 X158.889 Y84.784
G1 F1200 X145.214 Y71.11 E39.18812
G0 F6000 X144.649 Y71.11
G1 F1200 X158.889 Y85.35 E39.79094
G0 F6000 X158.889 Y85.916
G1 F1200 X144.083 Y71.11 E40.41773
G0 F6000 X143.517 Y71.11
G1 F1200 X158.889 Y86.481 E41.06845
G0 F6000 X158.889 Y87.047
G1 F1200 X142.952 Y71.11 E41.74312
G0 F6000 X142.386 Y71.11
G1 F1200 X158.889 Y87.613 E42.44174
G0 F6000 X158.889 Y88.179
G1 F1200 X141.82 Y71.11 E43.16433
G0 F6000 X141.255 Y71.11
G1 F1200 X158.889 Y88.744 E43.91083
G0 F6000 X158.889 Y89.31
G1 F1200 X140.689 Y71.11 E44.6813
G0 F6000 X140.123 Y71.11
G1 F1200 X158.889 Y89.876 E45.47572
G0 F6000 X158.889 Y90.441
G1 F1200 X139.558 Y71.11 E46.29407
G0 F6000 X138.992 Y71.11
G1 F1200 X158.889 Y91.007 E47.13637
G0 F6000 X158.889 Y91.573
G1 F1200 X138.426 Y71.11 E48.00264
G0 F6000 X137.861 Y71.11
G1 F1200 X158.889 Y92.138 E48.89282
G0 F6000 X158.889 Y92.704
G1 F1200 X137.295 Y71.11 E49.80696
G0 F6000 X136.729 Y71.11
G1 F1200 X158.889 Y93.27 E50.74507
G0 F6000 X158.889 Y93.835
G1 F1200 X136.164 Y71.11 E51.70709
G0 F6000 X135.598 Y71.11
G1 F1200 X158.889 Y94.401 E52.69308
G0 F6000 X158.889 Y94.967
G1 F1200 X135.032 Y71.11 E53.70302
G0 F6000 X134.466 Y71.11
G1 F1200 X158.889 Y95.532 E54.7369
G0 F6000 X158.889 Y96.098
G1 F1200 X133.901 Y71.11 E55.79473
G0 F6000 X133.335 Y71.11
G1 F1200 X158.889 Y96.664 E56.87651
G0 F6000 X158.889 Y97.23
G1 F1200 X132.769 Y71.11 E57.98225
G0 F6000 X132.204 Y71.11
G1 F1200 X158.889 Y97.795 E59.11192
G0 F6000 X158.889 Y98.361
G1 F1200 X131.638 Y71.11 E60.26554
G0 F6000 X131.072 Y71.11
G1 F1200 X158.889 Y98.927 E61.44312
G0 F6000 X158.889 Y99.492
G1 F1200 X130.507 Y71.11 E62.64463
G0 F6000 X129.941 Y71.11
G1 F1200 X158.889 Y100.058 E63.87009
G0 F6000 X158.889 Y100.624
G1 F1200 X129.375 Y71.11 E65.11951
G0 F6000 X128.81 Y71.11
G1 F1200 X158.889 Y101.189 E66.39285
G0 F6000 X158.889 Y101.755
G1 F1200 X128.244 Y71.11 E67.69016
G0 F6000 X127.678 Y71.11
G1 F1200 X158.889 Y102.321 E69.01142
G0 F6000 X158.889 Y102.886
G1 F1200 X127.113 Y71.11 E70.3566
G0 F6000 X126.547 Y71.11
G1 F1200 X158.889 Y103.452 E71.72574
G0 F6000 X158.889 Y104.018
G1 F1200 X125.981 Y71.11 E73.11884
G0 F6000 X125.415 Y71.11
G1 F1200 X158.889 Y104.583 E74.53589
G0 F6000 X158.889 Y105.149
G1 F1200 X124.85 Y71.11 E75.97687
G0 F6000 X124.284 Y71.11
G1 F1200 X158.889 Y105.715 E77.44181
G0 F6000 X158.889 Y106.28
G1 F1200 X123.718 Y71.11 E78.93069
G0 F6000 X123.153 Y71.11
G1 F1200 X158.889 Y106.846 E80.44351
G0 F6000 X158.889 Y107.412
G1 F1200 X122.587 Y71.11 E81.98029
G0 F6000 X122.021 Y71.11
G1 F1200 X158.889 Y107.978 E83.54103
G0 F6000 X158.889 Y108.543
G1 F1200 X121.456 Y71.11 E85.12569
G0 F6000 X120.89 Y71.11
G1 F1200 X158.889 Y109.109 E86.73431
G0 F6000 X158.889 Y109.675
G1 F1200 X120.324 Y71.11 E88.3669
G0 F6000 X119.759 Y71.11
G1 F1200 X158.889 Y110.24 E90.0234
G0 F6000 X158.889 Y110.806
G1 F1200 X119.193 Y71.11 E91.70386
G0 F6000 X118.627 Y71.11
G1 F1200 X158.889 Y111.372 E93.40828
G0 F6000 X158.889 Y111.937
G1 F1200 X118.062 Y71.11 E95.13662
G0 F6000 X117.496 Y71.11
G1 F1200 X158.889 Y112.503 E96.88892
G0 F6000 X158.889 Y113.069
G1 F1200 X116.93 Y71.11 E98.66518
G0 F6000 X116.365 Y71.11
G1 F1200 X158.889 Y113.634 E100.46535
G0 F6000 X158.889 Y114.2
G1 F1200 X115.799 Y71.11 E102.28949
G0 F6000 X115.233 Y71.11
G1 F1200 X158.889 Y114.766 E104.13759
G0 F6000 X158.889 Y115.331
G1 F1200 X114.667 Y71.11 E106.00963
G0 F6000 X114.102 Y71.11
G1 F1200 X158.889 Y115.897 E107.90561
G0 F6000 X158.889 Y116.463
G1 F1200 X113.536 Y71.11 E109.82555
G0 F6000 X112.97 Y71.11
G1 F1200 X158.889 Y117.029 E111.76945
G0 F6000 X158.889 Y117.594
G1 F1200 X112.405 Y71.11 E113.73727
G0 F6000 X111.839 Y71.11
G1 F1200 X158.889 Y118.16 E115.72905
G0 F6000 X158.889 Y118.726
G1 F1200 X111.273 Y71.11 E117.74479
G0 F6000 X110.708 Y71.11
G1 F1200 X158.889 Y119.291 E119.78445
G0 F6000 X158.889 Y119.857
G1 F1200 X110.142 Y71.11 E121.84807
G0 F6000 X109.576 Y71.11
G1 F1200 X158.889 Y120.423 E123.93564
G0 F6000 X158.889 Y120.988
G1 F1200 X109.011 Y71.11 E126.04714
G0 F6000 X108.445 Y71.11
G1 F1200 X158.889 Y121.554 E128.1826
G0 F6000 X158.889 Y122.12
G1 F1200 X107.879 Y71.11 E130.34202
G0 F6000 X107.314 Y71.11
G1 F1200 X158.889 Y122.685 E132.52536
G0 F6000 X158.889 Y123.251
G1 F1200 X106.748 Y71.11 E134.73265
G0 F6000 X106.182 Y71.11
G1 F1200 X158.889 Y123.817 E136.96391
G0 F6000 X158.889 Y124.382
G1 F1200 X105.617 Y71.11 E139.21909
G0 F6000 X105.051 Y71.11
G1 F1200 X158.889 Y124.948 E141.49822
G0 F6000 X158.889 Y125.514
G1 F1200 X104.485 Y71.11 E143.80132
G0 F6000 X103.919 Y71.11
G1 F1200 X158.889 Y126.079 E146.12836
G0 F6000 X158.889 Y126.645
G1 F1200 X103.354 Y71.11 E148.47934
G0 F6000 X102.788 Y71.11
G1 F1200 X158.889 Y127.211 E150.85427
G0 F6000 X158.889 Y127.777
G1 F1200 X102.222 Y71.11 E153.25317
G0 F6000 X101.657 Y71.11
G1 F1200 X158.889 Y128.342 E155.67599
G0 F6000 X158.889 Y128.908
G1 F1200 X101.091 Y71.11 E158.12276
G0 F6000 X100.525 Y71.11
G1 F1200 X158.889 Y129.474 E160.5935
G0 F6000 X158.889 Y130.039
G1 F1200 X99.96 Y71.11 E163.08816
G0 F6000 X99.394 Y71.11
G1 F1200 X158.889 Y130.605 E165.60677
G0 F6000 X158.889 Y131.171
G1 F1200 X98.828 Y71.11 E168.14935
G0 F6000 X98.263 Y71.11
G1 F1200 X158.889 Y131.736 E170.71584
G0 F6000 X158.889 Y132.302
G1 F1200 X97.697 Y71.11 E173.3063
G0 F6000 X97.131 Y71.11
G1 F1200 X158.889 Y132.868 E175.92072
G0 F6000 X158.889 Y133.433
G1 F1200 X96.566 Y71.11 E178.55905
G0 F6000 X96 Y71.11
G1 F1200 X158.889 Y133.999 E181.22135
G0 F6000 X158.889 Y134.565
G1 F1200 X95.434 Y71.11 E183.9076
G0 F6000 X94.868 Y71.11
G1 F1200 X158.889 Y135.13 E186.6178
G0 F6000 X158.889 Y135.696
G1 F1200 X94.303 Y71.11 E189.35193
G0 F6000 X93.737 Y71.11
G1 F1200 X158.889 Y136.262 E192.11003
G0 F6000 X158.889 Y136.827
G1 F1200 X93.171 Y71.11 E194.89206
G0 F6000 X92.606 Y71.11
G1 F1200 X158.889 Y137.393 E197.69804
G0 F6000 X158.889 Y137.959
G1 F1200 X92.04 Y71.11 E200.52797
G0 F6000 X91.474 Y71.11
G1 F1200 X158.889 Y138.525 E203.38187
G0 F6000 X158.889 Y139.09
G1 F1200 X90.909 Y71.11 E206.25968
G0 F6000 X90.343 Y71.11
G1 F1200 X158.889 Y139.656 E209.16145
G0 F6000 X158.889 Y140.222
G1 F1200 X89.777 Y71.11 E212.08719
G0 F6000 X89.212 Y71.11
G1 F1200 X158.889 Y140.787 E215.03684
G0 F6000 X158.889 Y141.353
G1 F1200 X88.646 Y71.11 E218.01046
G0 F6000 X88.08 Y71.11
G1 F1200 X158.889 Y141.919 E221.00803
G0 F6000 X158.889 Y142.484
G1 F1200 X87.515 Y71.11 E224.02952
G0 F6000 X86.949 Y71.11
G1 F1200 X158.889 Y143.05 E227.07498
G0 F6000 X158.889 Y143.616
G1 F1200 X86.383 Y71.11 E230.14439
G0 F6000 X85.818 Y71.11
G1 F1200 X158.889 Y144.181 E233.23772
G0 F6000 X158.889 Y144.747
G1 F1200 X85.252 Y71.11 E236.35502
G0 F6000 X84.686 Y71.11
G1 F1200 X158.889 Y145.313 E239.49627
G0 F6000 X158.889 Y145.878
G1 F1200 X84.12 Y71.11 E242.66146
G0 F6000 X83.555 Y71.11
G1 F1200 X158.889 Y146.444 E245.85059
G0 F6000 X158.889 Y147.01
G1 F1200 X82.989 Y71.11 E249.06369
G0 F6000 X82.423 Y71.11
G1 F1200 X158.889 Y147.576 E252.30074
G0 F6000 X158.889 Y148.141
G1 F1200 X81.858 Y71.11 E255.56171
G0 F6000 X81.292 Y71.11
G1 F1200 X158.889 Y148.707 E258.84664
G0 F6000 X158.505 Y148.889
G1 F1200 X80.726 Y71.11 E262.13928
G0 F6000 X80.161 Y71.11
G1 F1200 X157.94 Y148.889 E265.43192
G0 F6000 X157.374 Y148.889
G1 F1200 X79.595 Y71.11 E268.72456
G0 F6000 X79.029 Y71.11
G1 F1200 X156.808 Y148.889 E272.01719
G0 F6000 X156.243 Y148.889
G1 F1200 X78.464 Y71.11 E275.30983
G0 F6000 X77.898 Y71.11
G1 F1200 X155.677 Y148.889 E278.60247
G0 F6000 X155.111 Y148.889
G1 F1200 X77.332 Y71.11 E281.8951
G0 F6000 X76.767 Y71.11
G1 F1200 X154.545 Y148.889 E285.18772
G0 F6000 X153.98 Y148.889
G1 F1200 X76.201 Y71.11 E288.48036
G0 F6000 X75.635 Y71.11
G1 F1200 X153.414 Y148.889 E291.77299
G0 F6000 X152.848 Y148.889
G1 F1200 X75.069 Y71.11 E295.06563
G0 F6000 X74.504 Y71.11
G1 F1200 X152.283 Y148.889 E298.35827
G0 F6000 X151.717 Y148.889
G1 F1200 X73.938 Y71.11 E301.65091
G0 F6000 X73.372 Y71.11
G1 F1200 X151.151 Y148.889 E304.94354
G0 F6000 X150.586 Y148.889
G1 F1200 X72.807 Y71.11 E308.23618
G0 F6000 X72.241 Y71.11
G1 F1200 X150.02 Y148.889 E311.52882
G0 F6000 X149.454 Y148.889
G1 F1200 X71.675 Y71.11 E314.82145
G0 F6000 X71.11 Y71.11
G1 F1200 X148.889 Y148.889 E318.11409
G0 F6000 X148.323 Y148.889
G1 F1200 X70.544 Y71.11 E321.40673
G0 F6000 X69.978 Y71.11
G1 F1200 X147.757 Y148.889 E324.69937
G0 F6000 X147.192 Y148.889
G1 F1200 X69.413 Y71.11 E327.992
G0 F6000 X68.847 Y71.11
G1 F1200 X146.626 Y148.889 E331.28464
G0 F6000 X146.06 Y148.889
G1 F1200 X68.281 Y71.11 E334.57728
G0 F6000 X67.716 Y71.11
G1 F1200 X145.494 Y148.889 E337.86989
G0 F6000 X144.929 Y148.889
G1 F1200 X67.15 Y71.11 E341.16253
G0 F6000 X66.584 Y71.11
G1 F1200 X144.363 Y148.889 E344.45517
G0 F6000 X143.797 Y148.889
G1 F1200 X66.019 Y71.11 E347.74778
G0 F6000 X65.453 Y71.11
G1 F1200 X143.232 Y148.889 E351.04042
G0 F6000 X142.666 Y148.889
G1 F1200 X64.887 Y71.11 E354.33306
G0 F6000 X64.321 Y71.11
G1 F1200 X142.1 Y148.889 E357.62569
G0 F6000 X141.535 Y148.889
G1 F1200 X63.756 Y71.11 E360.91833
G0 F6000 X63.19 Y71.11
G1 F1200 X140.969 Y148.889 E364.21097
G0 F6000 X140.403 Y148.889
G1 F1200 X62.624 Y71.11 E367.50361
G0 F6000 X62.059 Y71.11
G1 F1200 X139.838 Y148.889 E370.79624
G0 F6000 X139.272 Y148.889
G1 F1200 X61.493 Y71.11 E374.08888
G0 F6000 X61.109 Y71.291
G1 F1200 X138.706 Y148.889 E377.37383
G0 F6000 X138.141 Y148.889
G1 F1200 X61.109 Y71.857 E380.63485
G0 F6000 X61.109 Y72.423
G1 F1200 X137.575 Y148.889 E383.8719
G0 F6000 X137.009 Y148.889
G1 F1200 X61.109 Y72.988 E387.08502
G0 F6000 X61.109 Y73.554
G1 F1200 X136.444 Y148.889 E390.27419
G0 F6000 X135.878 Y148.889
G1 F1200 X61.109 Y74.12 E393.4394
G0 F6000 X61.109 Y74.686
G1 F1200 X135.312 Y148.889 E396.58066
G0 F6000 X134.746 Y148.889
G1 F1200 X61.109 Y75.251 E399.69797
G0 F6000 X61.109 Y75.817
G1 F1200 X134.181 Y148.889 E402.79135
G0 F6000 X133.615 Y148.889
G1 F1200 X61.109 Y76.383 E405.86076
G0 F6000 X61.109 Y76.948
G1 F1200 X133.049 Y148.889 E408.90624
G0 F6000 X132.484 Y148.889
G1 F1200 X61.109 Y77.514 E411.92777
G0 F6000 X61.109 Y78.08
G1 F1200 X131.918 Y148.889 E414.92534
G0 F6000 X131.352 Y148.889
G1 F1200 X61.109 Y78.645 E417.89898
G0 F6000 X61.109 Y79.211
G1 F1200 X130.787 Y148.889 E420.84868
G0 F6000 X130.221 Y148.889
G1 F1200 X61.109 Y79.777 E423.77441
G0 F6000 X61.109 Y80.342
G1 F1200 X129.655 Y148.889 E426.67621
G0 F6000 X129.09 Y148.889
G1 F1200 X61.109 Y80.908 E429.55406
G0 F6000 X61.109 Y81.474
G1 F1200 X128.524 Y148.889 E432.40796
G0 F6000 X127.958 Y148.889
G1 F1200 X61.109 Y82.039 E435.23791
G0 F6000 X61.109 Y82.605
G1 F1200 X127.393 Y148.889 E438.04393
G0 F6000 X126.827 Y148.889
G1 F1200 X61.109 Y83.171 E440.82599
G0 F6000 X61.109 Y83.736
G1 F1200 X126.261 Y148.889 E443.5841
G0 F6000 X125.696 Y148.889
G1 F1200 X61.109 Y84.302 E446.31828
G0 F6000 X61.109 Y84.868
G1 F1200 X125.13 Y148.889 E449.0285
G0 F6000 X124.564 Y148.889
G1 F1200 X61.109 Y85.434 E451.71475
G0 F6000 X61.109 Y85.999
G1 F1200 X123.998 Y148.889 E454.37707
G0 F6000 X123.433 Y148.889
G1 F1200 X61.109 Y86.565 E457.01544
G0 F6000 X61.109 Y87.131
G1 F1200 X122.867 Y148.889 E459.62986
G0 F6000 X122.301 Y148.889
G1 F1200 X61.109 Y87.696 E462.22034
G0 F6000 X61.109 Y88.262
G1 F1200 X121.736 Y148.889 E464.78688
G0 F6000 X121.17 Y148.889
G1 F1200 X61.109 Y88.828 E467.32945
G0 F6000 X61.109 Y89.393
G1 F1200 X120.604 Y148.889 E469.84809
G0 F6000 X120.039 Y148.889
G1 F1200 X61.109 Y89.959 E472.34279
G0 F6000 X61.109 Y90.525
G1 F1200 X119.473 Y148.889 E474.81352
G0 F6000 X118.907 Y148.889
G1 F1200 X61.109 Y91.09 E477.26032
G0 F6000 X61.109 Y91.656
G1 F1200 X118.342 Y148.889 E479.68318
G0 F6000 X117.776 Y148.889
G1 F1200 X61.109 Y92.222 E482.08208
G0 F6000 X61.109 Y92.787
G1 F1200 X117.21 Y148.889 E484.45704
G0 F6000 X116.645 Y148.889
G1 F1200 X61.109 Y93.353 E486.80806
G0 F6000 X61.109 Y93.919
G1 F1200 X116.079 Y148.889 E489.13511
G0 F6000 X115.513 Y148.889
G1 F1200 X61.109 Y94.485 E491.43821
G0 F6000 X61.109 Y95.05
G1 F1200 X114.947 Y148.889 E493.71737
G0 F6000 X114.382 Y148.889
G1 F1200 X61.109 Y95.616 E495.97259
G0 F6000 X61.109 Y96.182
G1 F1200 X113.816 Y148.889 E498.20385
G0 F6000 X113.25 Y148.889
G1 F1200 X61.109 Y96.747 E500.41116
G0 F6000 X61.109 Y97.313
G1 F1200 X112.685 Y148.889 E502.59454
G0 F6000 X112.119 Y148.889
G1 F1200 X61.109 Y97.879 E504.75396
G0 F6000 X61.109 Y98.444
G1 F1200 X111.553 Y148.889 E506.88944
G0 F6000 X110.988 Y148.889
G1 F1200 X61.109 Y99.01 E509.00098
G0 F6000 X61.109 Y99.576
G1 F1200 X110.422 Y148.889 E511.08856
G0 F6000 X109.856 Y148.889
G1 F1200 X61.109 Y100.141 E513.1522
G0 F6000 X61.109 Y100.707
G1 F1200 X109.291 Y148.889 E515.1919
G0 F6000 X108.725 Y148.889
G1 F1200 X61.109 Y101.273 E517.20764
G0 F6000 X61.109 Y101.838
G1 F1200 X108.159 Y148.889 E519.19944
G0 F6000 X107.594 Y148.889
G1 F1200 X61.109 Y102.404 E521.1673
G0 F6000 X61.109 Y102.97
G1 F1200 X107.028 Y148.889 E523.1112
G0 F6000 X106.462 Y148.889
G1 F1200 X61.109 Y103.535 E525.03116
G0 F6000 X61.109 Y104.101
G1 F1200 X105.897 Y148.889 E526.92718
G0 F6000 X105.331 Y148.889
G1 F1200 X61.109 Y104.667 E528.79924
G0 F6000 X61.109 Y105.233
G1 F1200 X104.765 Y148.889 E530.64734
G0 F6000 X104.199 Y148.889
G1 F1200 X61.109 Y105.798 E532.4715
G0 F6000 X61.109 Y106.364
G1 F1200 X103.634 Y148.889 E534.27172
G0 F6000 X103.068 Y148.889
G1 F1200 X61.109 Y106.93 E536.04799
G0 F6000 X61.109 Y107.495
G1 F1200 X102.502 Y148.889 E537.80031
