;FLAVOR:Marlin
;TIME:13039
;Filament used: 12.3364m
;Layer height: 0.2
;MINX:59.467
;MINY:70.2
;MINZ:0.2
;MAXX:159.8
;MAXY:150.665
;MAXZ:30
;Generated with Cura_SteamEngine 4.13.1
M140 S50
M105
M190 S50
M104 S195
M105
M109 S195
M82 ;absolute extrusion mode
G28 ;Home
G92 E0 ;Reset Extruder
G1 Z2.0 F3000 ;Move bed down
G1 X10.1 Y20 Z0.28 F5000.0 ;Move to start position
G1 X10.1 Y200.0 Z0.28 F1500.0 E15 ;Draw the first line
G1 X10.4 Y200.0 Z0.28 F5000.0 ;Move to side a little
G1 X10.4 Y20 Z0.28 F1500.0 E30 ;Draw the second line
G92 E0 ;Reset Extruder
G1 Z2.0 F3000 ;Move Bed up
G92 E0
G92 E0
G1 F2400 E-7
;LAYER_COUNT:150
;LAYER:0
M107
;MESH:dish.stl
G0 F6000 X149.17 Y149.4 Z0.2
;TYPE:WALL-INNER
G1 F2400 E0
G1 F1200 X70.831 Y149.4 E2.34501
G1 X69.21 Y149.272 E2.39368
G1 X67.663 Y148.901 E2.4413
G1 X66.172 Y148.283 E2.48962
G1 X64.809 Y147.449 E2.53745
G1 X63.592 Y146.408 E2.58539
G1 X62.551 Y145.191 E2.63333
G1 X61.717 Y143.828 E2.68116
G1 X61.099 Y142.337 E2.72947
G1 X60.728 Y140.79 E2.7771
G1 X60.6 Y139.173 E2.82565
G1 X60.6 Y80.828 E4.57216
G1 X60.728 Y79.21 E4.62074
G1 X61.099 Y77.663 E4.66836
G1 X61.717 Y76.172 E4.71668
G1 X62.551 Y74.809 E4.76451
G1 X63.592 Y73.592 E4.81245
G1 X64.809 Y72.551 E4.86039
G1 X66.172 Y71.717 E4.90822
G1 X67.663 Y71.099 E4.95653
G1 X69.21 Y70.728 E5.00415
G1 X70.83 Y70.6 E5.0528
G1 X149.169 Y70.6 E7.39781
G1 X150.79 Y70.728 E7.44648
G1 X152.337 Y71.099 E7.4941
G1 X153.828 Y71.717 E7.54242
G1 X155.191 Y72.551 E7.59025
G1 X156.408 Y73.592 E7.63819
G1 X157.449 Y74.809 E7.68613
G1 X158.283 Y76.172 E7.73396
G1 X158.901 Y77.663 E7.78227
G1 X159.272 Y79.21 E7.82989
G1 X159.4 Y80.827 E7.87845
G1 X159.4 Y139.172 E9.62496
G1 X159.272 Y140.79 E9.67354
G1 X158.901 Y142.337 E9.72116
G1 X158.283 Y143.828 E9.76948
G1 X157.449 Y145.191 E9.81731
G1 X156.408 Y146.408 E9.86525
G1 X155.191 Y147.449 E9.91319
G1 X153.828 Y148.283 E9.96102
G1 X152.337 Y148.901 E10.00933
G1 X150.79 Y149.272 E10.05695
G1 X149.17 Y149.4 E10.1056
G0 F6000 X149.188 Y149.8
;TYPE:WALL-OUTER
G1 F1200 X70.813 Y149.8 E12.45168
G1 X69.149 Y149.669 E12.50165
G1 X67.536 Y149.282 E12.5513
G1 X65.992 Y148.642 E12.60133
G1 X64.573 Y147.773 E12.65114
G1 X63.308 Y146.692 E12.70095
G1 X62.227 Y145.427 E12.75076
G1 X61.358 Y144.008 E12.80057
G1 X60.718 Y142.464 E12.8506
G1 X60.331 Y140.851 E12.90026
G1 X60.2 Y139.191 E12.9501
G1 X60.2 Y80.81 E14.69768
G1 X60.331 Y79.149 E14.74756
G1 X60.718 Y77.536 E14.79721
G1 X61.358 Y75.992 E14.84725
G1 X62.227 Y74.573 E14.89705
G1 X63.308 Y73.308 E14.94686
G1 X64.573 Y72.227 E14.99667
G1 X65.992 Y71.358 E15.04648
G1 X67.536 Y70.718 E15.09651
G1 X69.149 Y70.331 E15.14617
G1 X70.812 Y70.2 E15.1961
G1 X149.187 Y70.2 E17.54219
G1 X150.851 Y70.331 E17.59215
G1 X152.464 Y70.718 E17.64181
G1 X154.008 Y71.358 E17.69184
G1 X155.427 Y72.227 E17.74165
G1 X156.692 Y73.308 E17.79146
G1 X157.773 Y74.573 E17.84127
G1 X158.642 Y75.992 E17.89108
G1 X159.282 Y77.536 E17.94111
G1 X159.669 Y79.149 E17.99076
G1 X159.8 Y80.809 E18.04061
G1 X159.8 Y139.19 E19.78819
G1 X159.669 Y140.851 E19.83806
G1 X159.282 Y142.464 E19.88772
G1 X158.642 Y144.008 E19.93775
G1 X157.773 Y145.427 E19.98756
G1 X156.692 Y146.692 E20.03737
G1 X155.427 Y147.773 E20.08718
G1 X154.008 Y148.642 E20.13699
G1 X152.464 Y149.282 E20.18702
G1 X150.851 Y149.669 E20.23667
G1 X149.188 Y149.8 E20.28661
G0 F6000 X149.171 Y149.361
G0 X149.165 Y149.01
;TYPE:SKIN
G1 F1200 X70.836 Y149.01 E22.63132
G1 X69.274 Y148.886 E22.67822
G1 X67.786 Y148.53 E22.72402
G1 X66.35 Y147.934 E22.77056
G1 X65.039 Y147.132 E22.81656
G1 X63.869 Y146.131 E22.86266
G1 X62.868 Y144.961 E22.90875
G1 X62.066 Y143.65 E22.95475
G1 X61.47 Y142.214 E23.00129
G1 X61.114 Y140.726 E23.04709
G1 X60.99 Y139.173 E23.09373
G1 X60.99 Y80.828 E24.84023
G1 X61.114 Y79.274 E24.8869
G1 X61.47 Y77.786 E24.9327
G1 X62.066 Y76.35 E24.97924
G1 X62.868 Y75.039 E25.02524
G1 X63.869 Y73.869 E25.07134
G1 X65.039 Y72.868 E25.11743
G1 X66.35 Y72.066 E25.16343
G1 X67.786 Y71.47 E25.20997
G1 X69.274 Y71.114 E25.25577
G1 X70.835 Y70.99 E25.30265
G1 X149.164 Y70.99 E27.64736
G1 X150.726 Y71.114 E27.69426
G1 X152.214 Y71.47 E27.74006
G1 X153.65 Y72.066 E27.7866
G1 X154.961 Y72.868 E27.8326
G1 X156.131 Y73.869 E27.8787
G1 X157.132 Y75.039 E27.92479
G1 X157.934 Y76.35 E27.97079
G1 X158.53 Y77.786 E28.01733
G1 X158.886 Y79.274 E28.06313
G1 X159.01 Y80.827 E28.10977
G1 X159.01 Y139.172 E29.85627
G1 X158.886 Y140.726 E29.90294
G1 X158.53 Y142.214 E29.94874
G1 X157.934 Y143.65 E29.99528
G1 X157.132 Y144.961 E30.04128
G1 X156.131 Y146.131 E30.08738
G1 X154.961 Y147.132 E30.13347
G1 X153.65 Y147.934 E30.17947
G1 X152.214 Y148.53 E30.22601
G1 X150.726 Y148.886 E30.27181
G1 X149.165 Y149.01 E30.31869
G1 F2400 E23.31869
G0 F6000 X149.186 Y149.288
G0 X150.762 Y149.103
G0 X152.284 Y148.739
G0 X153.749 Y148.131
G0 X155.087 Y147.312
G0 X156.287 Y146.287
G0 X157.312 Y145.087
G0 X158.131 Y143.749
G0 X158.739 Y142.284
G0 X159.103 Y140.762
G0 X159.229 Y139.173
G0 X159.229 Y80.826
G0 X159.103 Y79.238
G0 X158.739 Y77.716
G0 X158.131 Y76.251
G0 X157.667 Y75.493
G0 X156.743 Y74.155
G1 F2400 E30.31869
G0 F6000 X156.438 Y74.414
G1 F1200 X155.585 Y73.561 E30.3548
G0 F6000 X155.845 Y73.257
G0 X153.9 Y71.891
G0 X153.691 Y72.232
G1 F1200 X157.767 Y76.308 E30.52735
G0 F6000 X158.109 Y76.099
G0 X158.571 Y77.154
G0 X158.201 Y77.307
G1 F1200 X152.692 Y71.799 E30.76054
G0 F6000 X151.83 Y71.503
G1 F1200 X158.497 Y78.169 E31.04275
G0 F6000 X158.675 Y78.913
G1 F1200 X151.086 Y71.325 E31.364
G0 F6000 X150.405 Y71.209
G1 F1200 X158.791 Y79.595 E31.71901
G0 F6000 X158.84 Y80.209
G1 F1200 X149.79 Y71.16 E32.1021
G0 F6000 X149.176 Y71.111
G1 F1200 X158.889 Y80.824 E32.51328
G0 F6000 X158.889 Y81.39
G1 F1200 X148.609 Y71.11 E32.94847
G0 F6000 X148.043 Y71.11
G1 F1200 X158.889 Y81.955 E33.40759
G0 F6000 X158.889 Y82.521
G1 F1200 X147.477 Y71.11 E33.89068
G0 F6000 X146.912 Y71.11
G1 F1200 X158.889 Y83.087 E34.3977
G0 F6000 X158.889 Y83.652
G1 F1200 X146.346 Y71.11 E34.92867
G0 F6000 X145.78 Y71.11
G1 F1200 X158.889 Y84.218 E35.48359
G0 F6000 X158.889 Y84.784
G1 F1200 X145.214 Y71.11 E36.06248
G0 F6000 X144.649 Y71.11
G1 F1200 X158.889 Y85.349 E36.66528
G0 F6000 X158.889 Y85.915
G1 F1200 X144.083 Y71.11 E37.29205
G0 F6000 X143.517 Y71.11
G1 F1200 X158.889 Y86.481 E37.94278
G0 F6000 X158.889 Y87.046
G1 F1200 X142.952 Y71.11 E38.61742
G0 F6000 X142.386 Y71.11
G1 F1200 X158.889 Y87.612 E39.31602
G0 F6000 X158.889 Y88.178
G1 F1200 X141.82 Y71.11 E40.03859
G0 F6000 X141.255 Y71.11
G1 F1200 X158.889 Y88.744 E40.78509
G0 F6000 X158.889 Y89.309
G1 F1200 X140.689 Y71.11 E41.55554
G0 F6000 X140.123 Y71.11
G1 F1200 X158.889 Y89.875 E42.34994
G0 F6000 X158.889 Y90.441
G1 F1200 X139.558 Y71.11 E43.16828
G0 F6000 X138.992 Y71.11
G1 F1200 X158.889 Y91.006 E44.01057
G0 F6000 X158.889 Y91.572
G1 F1200 X138.426 Y71.11 E44.87681
G0 F6000 X137.861 Y71.11
G1 F1200 X158.889 Y92.138 E45.767
G0 F6000 X158.889 Y92.703
G1 F1200 X137.295 Y71.11 E46.68112
G0 F6000 X136.729 Y71.11
G1 F1200 X158.889 Y93.269 E47.6192
G0 F6000 X158.889 Y93.835
G1 F1200 X136.164 Y71.11 E48.58122
G0 F6000 X135.598 Y71.11
G1 F1200 X158.889 Y94.4 E49.56719
G0 F6000 X158.889 Y94.966
G1 F1200 X135.032 Y71.11 E50.57711
G0 F6000 X134.466 Y71.11
G1 F1200 X158.889 Y95.532 E51.61099
G0 F6000 X158.889 Y96.097
G1 F1200 X133.901 Y71.11 E52.6688
G0 F6000 X133.335 Y71.11
G1 F1200 X158.889 Y96.663 E53.75056
G0 F6000 X158.889 Y97.229
G1 F1200 X132.769 Y71.11 E54.85628
G0 F6000 X132.204 Y71.11
G1 F1200 X158.889 Y97.794 E55.98592
G0 F6000 X158.889 Y98.36
G1 F1200 X131.638 Y71.11 E57.13952
G0 F6000 X131.072 Y71.11
G1 F1200 X158.889 Y98.926 E58.31709
G0 F6000 X158.889 Y99.492
G1 F1200 X130.507 Y71.11 E59.51859
G0 F6000 X129.941 Y71.11
G1 F1200 X158.889 Y100.057 E60.74403
G0 F6000 X158.889 Y100.623
G1 F1200 X129.375 Y71.11 E61.99343
G0 F6000 X128.81 Y71.11
G1 F1200 X158.889 Y101.189 E63.26677
G0 F6000 X158.889 Y101.754
G1 F1200 X128.244 Y71.11 E64.56405
G0 F6000 X127.678 Y71.11
G1 F1200 X158.889 Y102.32 E65.8853
G0 F6000 X158.889 Y102.886
G1 F1200 X127.113 Y71.11 E67.23048
G0 F6000 X126.547 Y71.11
G1 F1200 X158.889 Y103.451 E68.5996
G0 F6000 X158.889 Y104.017
G1 F1200 X125.981 Y71.11 E69.99268
G0 F6000 X125.415 Y71.11
G1 F1200 X158.889 Y104.583 E71.40972
G0 F6000 X158.889 Y105.148
G1 F1200 X124.85 Y71.11 E72.85068
G0 F6000 X124.284 Y71.11
G1 F1200 X158.889 Y105.714 E74.3156
G0 F6000 X158.889 Y106.28
G1 F1200 X123.718 Y71.11 E75.80448
G0 F6000 X123.153 Y71.11
G1 F1200 X158.889 Y106.845 E77.31728
G0 F6000 X158.889 Y107.411
G1 F1200 X122.587 Y71.11 E78.85404
G0 F6000 X122.021 Y71.11
G1 F1200 X158.889 Y107.977 E80.41476
G0 F6000 X158.889 Y108.543
G1 F1200 X121.456 Y71.11 E81.99942
G0 F6000 X120.89 Y71.11
G1 F1200 X158.889 Y109.108 E83.60802
G0 F6000 X158.889 Y109.674
G1 F1200 X120.324 Y71.11 E85.24058
G0 F6000 X119.759 Y71.11
G1 F1200 X158.889 Y110.24 E86.89708
G0 F6000 X158.889 Y110.805
G1 F1200 X119.193 Y71.11 E88.57752
G0 F6000 X118.627 Y71.11
G1 F1200 X158.889 Y111.371 E90.28192
G0 F6000 X158.889 Y111.937
G1 F1200 X118.062 Y71.11 E92.01026
G0 F6000 X117.496 Y71.11
G1 F1200 X158.889 Y112.502 E93.76254
G0 F6000 X158.889 Y113.068
G1 F1200 X116.93 Y71.11 E95.53878
G0 F6000 X116.365 Y71.11
G1 F1200 X158.889 Y113.634 E97.33896
G0 F6000 X158.889 Y114.199
G1 F1200 X115.799 Y71.11 E99.16308
G0 F6000 X115.233 Y71.11
G1 F1200 X158.889 Y114.765 E101.01115
G0 F6000 X158.889 Y115.331
G1 F1200 X114.667 Y71.11 E102.88319
G0 F6000 X114.102 Y71.11
G1 F1200 X158.889 Y115.896 E104.77915
G0 F6000 X158.889 Y116.462
G1 F1200 X113.536 Y71.11 E106.69907
G0 F6000 X112.97 Y71.11
G1 F1200 X158.889 Y117.028 E108.64295
G0 F6000 X158.889 Y117.593
G1 F1200 X112.405 Y71.11 E110.61075
G0 F6000 X111.839 Y71.11
G1 F1200 X158.889 Y118.159 E112.6025
G0 F6000 X158.889 Y118.725
G1 F1200 X111.273 Y71.11 E114.61822
G0 F6000 X110.708 Y71.11
G1 F1200 X158.889 Y119.291 E116.65788
G0 F6000 X158.889 Y119.856
G1 F1200 X110.142 Y71.11 E118.72148
G0 F6000 X109.576 Y71.11
G1 F1200 X158.889 Y120.422 E120.80904
G0 F6000 X158.889 Y120.988
G1 F1200 X109.011 Y71.11 E122.92053
G0 F6000 X108.445 Y71.11
G1 F1200 X158.889 Y121.553 E125.05597
G0 F6000 X158.889 Y122.119
G1 F1200 X107.879 Y71.11 E127.21537
G0 F6000 X107.314 Y71.11
G1 F1200 X158.889 Y122.685 E129.3987
G0 F6000 X158.889 Y123.25
G1 F1200 X106.748 Y71.11 E131.60598
G0 F6000 X106.182 Y71.11
G1 F1200 X158.889 Y123.816 E133.83722
G0 F6000 X158.889 Y124.382
G1 F1200 X105.617 Y71.11 E136.09239
G0 F6000 X105.051 Y71.11
G1 F1200 X158.889 Y124.947 E138.37151
G0 F6000 X158.889 Y125.513
G1 F1200 X104.485 Y71.11 E140.67459
G0 F6000 X103.919 Y71.11
G1 F1200 X158.889 Y126.079 E143.00162
G0 F6000 X158.889 Y126.644
G1 F1200 X103.354 Y71.11 E145.35258
G0 F6000 X102.788 Y71.11
G1 F1200 X158.889 Y127.21 E147.72749
G0 F6000 X158.889 Y127.776
G1 F1200 X102.222 Y71.11 E150.12637
G0 F6000 X101.657 Y71.11
G1 F1200 X158.889 Y128.342 E152.54919
G0 F6000 X158.889 Y128.907
G1 F1200 X101.091 Y71.11 E154.99594
G0 F6000 X100.525 Y71.11
G1 F1200 X158.889 Y129.473 E157.46666
G0 F6000 X158.889 Y130.039
G1 F1200 X99.96 Y71.11 E159.96131
G0 F6000 X99.394 Y71.11
G1 F1200 X158.889 Y130.604 E162.47991
G0 F6000 X158.889 Y131.17
G1 F1200 X98.828 Y71.11 E165.02246
G0 F6000 X98.263 Y71.11
G1 F1200 X158.889 Y131.736 E167.58896
G0 F6000 X158.889 Y132.301
G1 F1200 X97.697 Y71.11 E170.17939
G0 F6000 X97.131 Y71.11
G1 F1200 X158.889 Y132.867 E172.79379
G0 F6000 X158.889 Y133.433
G1 F1200 X96.566 Y71.11 E175.43212
G0 F6000 X96 Y71.11
G1 F1200 X158.889 Y133.998 E178.0944
G0 F6000 X158.889 Y134.564
G1 F1200 X95.434 Y71.11 E180.78063
G0 F6000 X94.868 Y71.11
G1 F1200 X158.889 Y135.13 E183.49083
G0 F6000 X158.889 Y135.695
G1 F1200 X94.303 Y71.11 E186.22494
G0 F6000 X93.737 Y71.11
G1 F1200 X158.889 Y136.261 E188.98302
G0 F6000 X158.889 Y136.827
G1 F1200 X93.171 Y71.11 E191.76505
G0 F6000 X92.606 Y71.11
G1 F1200 X158.889 Y137.392 E194.571
G0 F6000 X158.889 Y137.958
G1 F1200 X92.04 Y71.11 E197.40092
G0 F6000 X91.474 Y71.11
G1 F1200 X158.889 Y138.524 E200.25479
G0 F6000 X158.889 Y139.09
G1 F1200 X90.909 Y71.11 E203.1326
G0 F6000 X90.343 Y71.11
G1 F1200 X158.853 Y139.62 E206.03285
G0 F6000 X158.811 Y140.144
G1 F1200 X89.777 Y71.11 E208.95529
G0 F6000 X89.212 Y71.11
G1 F1200 X158.77 Y140.668 E211.8999
G0 F6000 X158.665 Y141.129
G1 F1200 X88.646 Y71.11 E214.86403
G0 F6000 X88.08 Y71.11
G1 F1200 X158.555 Y141.585 E217.84747
G0 F6000 X158.446 Y142.041
G1 F1200 X87.515 Y71.11 E220.85021
G0 F6000 X86.949 Y71.11
G1 F1200 X158.297 Y142.457 E223.87058
G0 F6000 X158.131 Y142.858
G1 F1200 X86.383 Y71.11 E226.90791
G0 F6000 X85.818 Y71.11
G1 F1200 X157.966 Y143.258 E229.96216
G0 F6000 X157.792 Y143.65
G1 F1200 X85.252 Y71.11 E233.03302
G0 F6000 X84.686 Y71.11
G1 F1200 X157.578 Y144.001 E236.11875
G0 F6000 X157.363 Y144.352
G1 F1200 X84.12 Y71.11 E239.21934
G0 F6000 X83.555 Y71.11
G1 F1200 X157.148 Y144.703 E242.33477
G0 F6000 X156.912 Y145.033
G1 F1200 X82.989 Y71.11 E245.46417
G0 F6000 X82.423 Y71.11
G1 F1200 X156.651 Y145.338 E248.60648
G0 F6000 X156.39 Y145.642
G1 F1200 X81.858 Y71.11 E251.76167
G0 F6000 X81.292 Y71.11
G1 F1200 X156.129 Y145.947 E254.92976
G0 F6000 X155.838 Y146.221
G1 F1200 X80.726 Y71.11 E258.10947
G0 F6000 X80.161 Y71.11
G1 F1200 X155.533 Y146.482 E261.30021
G0 F6000 X155.229 Y146.743
G1 F1200 X79.595 Y71.11 E264.50202
G0 F6000 X79.029 Y71.11
G1 F1200 X154.924 Y147.004 E267.71488
G0 F6000 X154.578 Y147.224
G1 F1200 X78.464 Y71.11 E270.93704
G0 F6000 X77.898 Y71.11
G1 F1200 X154.227 Y147.438 E274.16827
G0 F6000 X153.876 Y147.653
G1 F1200 X77.332 Y71.11 E277.4086
G0 F6000 X76.767 Y71.11
G1 F1200 X153.515 Y147.858 E280.6576
G0 F6000 X153.115 Y148.024
G1 F1200 X76.201 Y71.11 E283.91361
G0 F6000 X75.635 Y71.11
G1 F1200 X152.715 Y148.189 E287.17664
G0 F6000 X152.315 Y148.355
G1 F1200 X75.069 Y71.11 E290.44669
G0 F6000 X74.504 Y71.11
G1 F1200 X151.879 Y148.485 E293.72223
G0 F6000 X151.422 Y148.594
G1 F1200 X73.938 Y71.11 E297.00237
G0 F6000 X73.372 Y71.11
G1 F1200 X150.966 Y148.703 E300.28716
G0 F6000 X150.482 Y148.785
G1 F1200 X72.807 Y71.11 E303.57539
G0 F6000 X72.241 Y71.11
G1 F1200 X149.958 Y148.826 E306.86538
G0 F6000 X149.433 Y148.867
G1 F1200 X71.675 Y71.11 E310.15711
G0 F6000 X71.11 Y71.11
G1 F1200 X148.889 Y148.889 E313.44975
G0 F6000 X148.323 Y148.889
G1 F1200 X70.565 Y71.131 E316.7415
G0 F6000 X70.041 Y71.172
G1 F1200 X147.757 Y148.889 E320.03149
G0 F6000 X147.192 Y148.889
G1 F1200 X69.517 Y71.214 E323.31972
G0 F6000 X69.032 Y71.295
G1 F1200 X146.626 Y148.889 E326.60453
G0 F6000 X146.06 Y148.889
G1 F1200 X68.576 Y71.405 E329.88468
G0 F6000 X68.119 Y71.513
G1 F1200 X145.494 Y148.889 E333.16023
G0 F6000 X144.929 Y148.889
G1 F1200 X67.683 Y71.643 E336.43031
G0 F6000 X67.284 Y71.809
G1 F1200 X144.363 Y148.889 E339.69333
G0 F6000 X143.797 Y148.889
G1 F1200 X66.883 Y71.974 E342.94937
G0 F6000 X66.484 Y72.141
G1 F1200 X143.232 Y148.889 E346.19836
G0 F6000 X142.666 Y148.889
G1 F1200 X66.122 Y72.345 E349.43872
G0 F6000 X65.772 Y72.56
G1 F1200 X142.1 Y148.889 E352.66995
G0 F6000 X141.535 Y148.889
G1 F1200 X65.42 Y72.774 E355.89215
G0 F6000 X65.075 Y72.994
G1 F1200 X140.969 Y148.889 E359.10501
G0 F6000 X140.403 Y148.889
G1 F1200 X64.77 Y73.255 E362.30682
G0 F6000 X64.465 Y73.516
G1 F1200 X139.838 Y148.889 E365.4976
G0 F6000 X139.272 Y148.889
G1 F1200 X64.16 Y73.777 E368.67733
G0 F6000 X63.869 Y74.051
G1 F1200 X138.706 Y148.889 E371.84545
G0 F6000 X138.141 Y148.889
G1 F1200 X63.608 Y74.356 E375.00067
G0 F6000 X63.347 Y74.661
G1 F1200 X137.575 Y148.889 E378.14298
G0 F6000 X137.009 Y148.889
G1 F1200 X63.086 Y74.966 E381.27238
G0 F6000 X62.85 Y75.295
G1 F1200 X136.444 Y148.889 E384.38786
G0 F6000 X135.878 Y148.889
G1 F1200 X62.636 Y75.646 E387.48845
G0 F6000 X62.421 Y75.997
G1 F1200 X135.312 Y148.889 E390.57418
G0 F6000 X134.746 Y148.889
G1 F1200 X62.207 Y76.349 E393.64501
G0 F6000 X62.033 Y76.74
G1 F1200 X134.181 Y148.889 E396.69929
G0 F6000 X133.615 Y148.889
G1 F1200 X61.867 Y77.141 E399.73662
G0 F6000 X61.702 Y77.541
G1 F1200 X133.049 Y148.889 E402.75699
G0 F6000 X132.484 Y148.889
G1 F1200 X61.552 Y77.957 E405.75977
G0 F6000 X61.443 Y78.413
