;FLAVOR:Marlin
;TIME:8970
;Filament used: 8.05622m
;Layer height: 0.2
;MINX:56.73
;MINY:56.73
;MINZ:0.2
;MAXX:163.27
;MAXY:163.27
;MAXZ:24.8
;Generated with Cura_SteamEngine 4.13.1
M140 S50
M105
M190 S50
M104 S195
M105
M109 S195
M82 ;absolute extrusion mode
G28 ;Home
G92 E0 ;Reset Extruder
G1 Z2.0 F3000 ;Move bed down
G1 X10.1 Y20 Z0.28 F5000.0 ;Move to start position
G1 X10.1 Y200.0 Z0.28 F1500.0 E15 ;Draw the first line
G1 X10.4 Y200.0 Z0.28 F5000.0 ;Move to side a little
G1 X10.4 Y20 Z0.28 F1500.0 E30 ;Draw the second line
G92 E0 ;Reset Extruder
G1 Z2.0 F3000 ;Move Bed up
G92 E0
G92 E0
G1 F2400 E-7
;LAYER_COUNT:124
;LAYER:0
M107
;MESH:cover.stl
G0 F6000 X120.315 Y161.853 Z0.2
;TYPE:WALL-INNER
G1 F2400 E0
G1 F1200 X110 Y162.868 E0.31026
G1 X99.685 Y161.853 E0.62052
G1 X89.768 Y158.845 E0.93074
G1 X80.63 Y153.959 E1.24092
G1 X72.616 Y147.384 E1.55122
G1 X66.041 Y139.37 E1.86152
G1 X61.155 Y130.232 E2.1717
G1 X58.147 Y120.315 E2.48191
G1 X57.132 Y110 E2.79217
G1 X58.147 Y99.685 E3.10244
G1 X61.155 Y89.768 E3.41265
G1 X66.041 Y80.63 E3.72283
G1 X72.616 Y72.616 E4.03313
G1 X80.63 Y66.041 E4.34343
G1 X89.768 Y61.155 E4.65361
G1 X99.685 Y58.147 E4.96383
G1 X110 Y57.132 E5.27409
G1 X120.315 Y58.147 E5.58435
G1 X130.232 Y61.155 E5.89456
G1 X139.37 Y66.041 E6.20475
G1 X147.384 Y72.616 E6.51504
G1 X153.959 Y80.63 E6.82534
G1 X158.845 Y89.768 E7.13553
G1 X161.853 Y99.685 E7.44574
G1 X162.868 Y110 E7.756
G1 X161.853 Y120.315 E8.06626
G1 X158.845 Y130.232 E8.37647
G1 X153.959 Y139.37 E8.68666
G1 X147.384 Y147.384 E8.99696
G1 X139.37 Y153.959 E9.30726
G1 X130.232 Y158.845 E9.61744
G1 X120.315 Y161.853 E9.92765
G0 F6000 X120.395 Y162.247
;TYPE:WALL-OUTER
G1 F1200 X110 Y163.27 E10.24032
G1 X99.605 Y162.247 E10.55299
G1 X89.613 Y159.216 E10.86555
G1 X80.408 Y154.295 E11.178
G1 X72.332 Y147.668 E11.49072
G1 X65.705 Y139.592 E11.80344
G1 X60.784 Y130.387 E12.11588
G1 X57.753 Y120.395 E12.42844
G1 X56.73 Y110 E12.74111
G1 X57.753 Y99.605 E13.05378
G1 X60.784 Y89.613 E13.36634
G1 X65.705 Y80.408 E13.67879
G1 X72.332 Y72.332 E13.99151
G1 X80.408 Y65.705 E14.30423
G1 X89.613 Y60.784 E14.61668
G1 X99.605 Y57.753 E14.92924
G1 X110 Y56.73 E15.24191
G1 X120.395 Y57.753 E15.55457
G1 X130.387 Y60.784 E15.86713
G1 X139.592 Y65.705 E16.17958
G1 X147.668 Y72.332 E16.4923
G1 X154.295 Y80.408 E16.80502
G1 X159.216 Y89.613 E17.11747
G1 X162.247 Y99.605 E17.43003
G1 X163.27 Y110 E17.7427
G1 X162.247 Y120.395 E18.05537
G1 X159.216 Y130.387 E18.36793
G1 X154.295 Y139.592 E18.68037
G1 X147.668 Y147.668 E18.99309
G1 X139.592 Y154.295 E19.30581
G1 X130.387 Y159.216 E19.61826
G1 X120.395 Y162.247 E19.93082
G0 F6000 X120.31 Y161.816
G0 X120.24 Y161.469
;TYPE:SKIN
G1 F1200 X110 Y162.476 E20.23883
G1 X99.76 Y161.469 E20.54683
G1 X89.919 Y158.484 E20.85467
G1 X80.851 Y153.634 E21.16249
G1 X72.893 Y147.107 E21.47059
G1 X66.366 Y139.149 E21.77868
G1 X61.516 Y130.081 E22.0865
G1 X58.531 Y120.24 E22.39434
G1 X57.524 Y110 E22.70234
G1 X58.531 Y99.76 E23.01035
G1 X61.516 Y89.919 E23.31818
G1 X66.366 Y80.851 E23.62601
G1 X72.893 Y72.893 E23.9341
G1 X80.851 Y66.366 E24.24219
G1 X89.919 Y61.516 E24.55002
G1 X99.76 Y58.531 E24.85786
G1 X110 Y57.524 E25.16586
G1 X120.24 Y58.531 E25.47387
G1 X130.081 Y61.516 E25.7817
G1 X139.149 Y66.366 E26.08953
G1 X147.107 Y72.893 E26.39762
G1 X153.634 Y80.851 E26.70571
G1 X158.484 Y89.919 E27.01354
G1 X161.469 Y99.76 E27.32137
G1 X162.476 Y110 E27.62938
G1 X161.469 Y120.24 E27.93738
G1 X158.484 Y130.081 E28.24522
G1 X153.634 Y139.149 E28.55305
G1 X147.107 Y147.107 E28.86114
G1 X139.149 Y153.634 E29.16923
G1 X130.081 Y158.484 E29.47706
G1 X120.24 Y161.469 E29.78489
G1 F2400 E22.78489
G0 F6000 X120.321 Y161.736
G0 X110 Y162.697
G0 X99.719 Y161.685
G0 X89.833 Y158.686
G0 X80.724 Y153.816
G0 X75.528 Y149.63
G1 F2400 E29.78489
G0 F6000 X75.782 Y149.321
G1 F1200 X70.677 Y144.216 E30.001
G0 F6000 X70.367 Y144.469
G0 X67.789 Y141.327
G0 X68.1 Y141.073
G1 F1200 X78.925 Y151.898 E30.45926
G0 F6000 X78.67 Y152.208
G0 X81.175 Y154.125
G0 X81.364 Y153.772
G1 F1200 X66.226 Y138.633 E31.10012
G0 F6000 X65.872 Y138.821
G0 X65.222 Y137.605
G0 X65.575 Y137.417
G1 F1200 X82.58 Y154.422 E31.82
G0 F6000 X82.39 Y154.775
G0 X83.608 Y155.426
G0 X83.797 Y155.073
G1 F1200 X64.925 Y136.201 E32.61891
G0 F6000 X64.572 Y136.389
G0 X63.921 Y135.173
G0 X64.274 Y134.985
G1 F1200 X85.013 Y155.724 E33.49686
G0 F6000 X84.824 Y156.076
G0 X86.04 Y156.727
G0 X86.229 Y156.374
G1 F1200 X63.624 Y133.769 E34.4538
G0 F6000 X63.271 Y133.957
G0 X62.62 Y132.74
G0 X62.973 Y132.552
G1 F1200 X87.445 Y157.025 E35.4898
G0 F6000 X87.256 Y157.377
G0 X88.472 Y158.027
G0 X88.661 Y157.675
G1 F1200 X62.322 Y131.336 E36.60482
G0 F6000 X61.97 Y131.523
G0 X61.32 Y130.308
G0 X61.672 Y130.12
G1 F1200 X89.878 Y158.326 E37.79887
G0 F6000 X90.718 Y158.601
G1 F1200 X61.398 Y129.28 E39.0401
G0 F6000 X61.151 Y128.467
G1 F1200 X91.53 Y158.847 E40.32617
G0 F6000 X92.342 Y159.093
G1 F1200 X60.905 Y127.656 E41.657
G0 F6000 X60.658 Y126.843
G1 F1200 X93.154 Y159.34 E43.03268
G0 F6000 X93.966 Y159.586
G1 F1200 X60.412 Y126.031 E44.45315
G0 F6000 X60.166 Y125.22
G1 F1200 X94.778 Y159.832 E45.91839
G0 F6000 X95.59 Y160.079
G1 F1200 X59.919 Y124.407 E47.42848
G0 F6000 X59.673 Y123.595
G1 F1200 X96.402 Y160.325 E48.98336
G0 F6000 X97.215 Y160.571
G1 F1200 X59.426 Y122.783 E50.58306
G0 F6000 X59.18 Y121.971
G1 F1200 X98.026 Y160.818 E52.22756
G0 F6000 X98.838 Y161.064
G1 F1200 X58.934 Y121.159 E53.91685
G0 F6000 X58.687 Y120.347
G1 F1200 X99.651 Y161.31 E55.65097
G0 F6000 X100.308 Y161.402
G1 F1200 X58.596 Y119.69 E57.41677
G0 F6000 X58.535 Y119.063
G1 F1200 X100.935 Y161.463 E59.2117
G0 F6000 X101.562 Y161.525
G1 F1200 X58.473 Y118.436 E61.0358
G0 F6000 X58.411 Y117.808
G1 F1200 X102.189 Y161.586 E62.88906
G0 F6000 X102.816 Y161.648
G1 F1200 X58.35 Y117.181 E64.77147
G0 F6000 X58.288 Y116.553
G1 F1200 X103.444 Y161.71 E66.68309
G0 F6000 X104.071 Y161.771
G1 F1200 X58.226 Y115.926 E68.62386
G0 F6000 X58.165 Y115.299
G1 F1200 X104.699 Y161.833 E70.5938
G0 F6000 X105.326 Y161.894
G1 F1200 X58.103 Y114.672 E72.59288
G0 F6000 X58.042 Y114.045
G1 F1200 X105.953 Y161.956 E74.62111
G0 F6000 X106.58 Y162.017
G1 F1200 X57.98 Y113.417 E76.6785
G0 F6000 X57.918 Y112.789
G1 F1200 X107.208 Y162.08 E78.76513
G0 F6000 X107.835 Y162.141
G1 F1200 X57.856 Y112.162 E80.8809
G0 F6000 X57.795 Y111.535
G1 F1200 X108.463 Y162.203 E83.02584
G0 F6000 X109.09 Y162.264
G1 F1200 X57.733 Y110.908 E85.19993
G0 F6000 X57.672 Y110.281
G1 F1200 X109.717 Y162.326 E87.40316
G0 F6000 X110.283 Y162.326
G1 F1200 X57.672 Y109.715 E89.63036
G0 F6000 X57.722 Y109.199
G1 F1200 X110.798 Y162.276 E91.87726
G0 F6000 X111.313 Y162.225
G1 F1200 X57.773 Y108.685 E94.14378
G0 F6000 X57.824 Y108.17
G1 F1200 X111.828 Y162.174 E96.42994
G0 F6000 X112.343 Y162.124
G1 F1200 X57.874 Y107.654 E98.73581
G0 F6000 X57.925 Y107.14
G1 F1200 X112.858 Y162.073 E101.06131
G0 F6000 X113.373 Y162.022
G1 F1200 X57.975 Y106.624 E103.40648
G0 F6000 X58.026 Y106.109
G1 F1200 X113.888 Y161.972 E105.77132
G0 F6000 X114.404 Y161.921
G1 F1200 X58.076 Y105.594 E108.15585
G0 F6000 X58.127 Y105.079
G1 F1200 X114.918 Y161.87 E110.56
G0 F6000 X115.433 Y161.819
G1 F1200 X58.178 Y104.564 E112.98379
G0 F6000 X58.228 Y104.049
G1 F1200 X115.949 Y161.769 E115.42728
G0 F6000 X116.464 Y161.718
G1 F1200 X58.279 Y103.534 E117.89042
G0 F6000 X58.329 Y103.019
G1 F1200 X116.979 Y161.668 E120.37324
G0 F6000 X117.494 Y161.617
G1 F1200 X58.38 Y102.504 E122.87571
G0 F6000 X58.431 Y101.988
G1 F1200 X118.009 Y161.567 E125.39786
G0 F6000 X118.524 Y161.516
G1 F1200 X58.481 Y101.474 E127.93965
G0 F6000 X58.532 Y100.959
G1 F1200 X119.039 Y161.465 E130.50109
G0 F6000 X119.554 Y161.415
G1 F1200 X58.583 Y100.443 E133.08221
G0 F6000 X58.634 Y99.929
G1 F1200 X120.069 Y161.364 E135.68295
G0 F6000 X120.527 Y161.256
G1 F1200 X58.742 Y99.471 E138.29851
G0 F6000 X58.873 Y99.037
G1 F1200 X120.961 Y161.124 E140.92688
G0 F6000 X121.395 Y160.993
G1 F1200 X59.005 Y98.603 E143.56805
G0 F6000 X59.136 Y98.169
G1 F1200 X121.829 Y160.861 E146.22203
G0 F6000 X122.263 Y160.729
G1 F1200 X59.268 Y97.735 E148.88879
G0 F6000 X59.4 Y97.301
G1 F1200 X122.697 Y160.598 E151.56835
G0 F6000 X123.131 Y160.466
G1 F1200 X59.532 Y96.867 E154.26071
G0 F6000 X59.663 Y96.433
G1 F1200 X123.565 Y160.335 E156.96588
G0 F6000 X123.998 Y160.202
G1 F1200 X59.795 Y95.999 E159.68381
G0 F6000 X59.927 Y95.565
G1 F1200 X124.433 Y160.071 E162.41455
G0 F6000 X124.867 Y159.939
G1 F1200 X60.058 Y95.131 E165.15811
G0 F6000 X60.19 Y94.697
G1 F1200 X125.301 Y159.808 E167.91447
G0 F6000 X125.735 Y159.676
G1 F1200 X60.321 Y94.262 E170.68365
G0 F6000 X60.454 Y93.829
G1 F1200 X126.169 Y159.544 E173.46558
G0 F6000 X126.603 Y159.412
G1 F1200 X60.585 Y93.395 E176.26032
G0 F6000 X60.717 Y92.961
G1 F1200 X127.037 Y159.281 E179.06786
G0 F6000 X127.471 Y159.149
G1 F1200 X60.848 Y92.527 E181.8882
G0 F6000 X60.98 Y92.093
G1 F1200 X127.905 Y159.017 E184.72134
G0 F6000 X128.339 Y158.886
G1 F1200 X61.112 Y91.659 E187.56727
G0 F6000 X61.243 Y91.225
G1 F1200 X128.773 Y158.754 E190.42601
G0 F6000 X129.207 Y158.623
G1 F1200 X61.375 Y90.791 E193.29756
G0 F6000 X61.506 Y90.356
G1 F1200 X129.641 Y158.491 E196.18194
G0 F6000 X130.069 Y158.353
G1 F1200 X61.644 Y89.929 E199.07857
G0 F6000 X61.842 Y89.56
G1 F1200 X130.437 Y158.156 E201.98244
G0 F6000 X130.806 Y157.959
G1 F1200 X62.039 Y89.192 E204.89357
G0 F6000 X62.236 Y88.823
G1 F1200 X131.174 Y157.761 E207.81194
G0 F6000 X131.543 Y157.565
G1 F1200 X62.433 Y88.454 E210.73761
G0 F6000 X62.63 Y88.086
G1 F1200 X131.912 Y157.368 E213.67054
G0 F6000 X132.28 Y157.17
G1 F1200 X62.827 Y87.718 E216.61069
G0 F6000 X63.025 Y87.349
G1 F1200 X132.648 Y156.973 E219.55808
G0 F6000 X133.018 Y156.776
G1 F1200 X63.221 Y86.98 E222.51279
G0 F6000 X63.418 Y86.612
G1 F1200 X133.386 Y156.579 E225.47474
G0 F6000 X133.754 Y156.382
G1 F1200 X63.616 Y86.243 E228.44393
G0 F6000 X63.813 Y85.875
G1 F1200 X134.123 Y156.185 E231.42038
G0 F6000 X134.492 Y155.988
G1 F1200 X64.01 Y85.506 E234.40411
G0 F6000 X64.207 Y85.137
G1 F1200 X134.86 Y155.791 E237.3951
G0 F6000 X135.229 Y155.593
G1 F1200 X64.404 Y84.769 E240.39334
G0 F6000 X64.601 Y84.4
G1 F1200 X135.597 Y155.396 E243.39883
G0 F6000 X135.966 Y155.2
G1 F1200 X64.798 Y84.031 E246.41162
G0 F6000 X64.995 Y83.663
G1 F1200 X136.335 Y155.002 E249.43165
G0 F6000 X136.703 Y154.805
G1 F1200 X65.193 Y83.295 E252.4589
G0 F6000 X65.39 Y82.926
G1 F1200 X137.071 Y154.608 E255.49341
G0 F6000 X137.441 Y154.411
G1 F1200 X65.586 Y82.557 E258.53525
G0 F6000 X65.784 Y82.189
G1 F1200 X137.809 Y154.214 E261.5843
G0 F6000 X138.177 Y154.017
G1 F1200 X65.981 Y81.82 E264.64061
G0 F6000 X66.178 Y81.452
G1 F1200 X138.546 Y153.819 E267.70416
G0 F6000 X138.915 Y153.623
G1 F1200 X66.375 Y81.083 E270.77501
G0 F6000 X66.605 Y80.747
G1 F1200 X139.251 Y153.393 E273.85035
G0 F6000 X139.562 Y153.138
G1 F1200 X66.859 Y80.436 E276.92809
G0 F6000 X67.115 Y80.125
G1 F1200 X139.872 Y152.883 E280.00815
G0 F6000 X140.183 Y152.628
G1 F1200 X67.369 Y79.814 E283.0906
G0 F6000 X67.624 Y79.503
G1 F1200 X140.495 Y152.374 E286.17547
G0 F6000 X140.805 Y152.119
G1 F1200 X67.879 Y79.193 E289.26266
G0 F6000 X68.133 Y78.882
G1 F1200 X141.116 Y151.864 E292.35224
G0 F6000 X141.427 Y151.609
G1 F1200 X68.389 Y78.571 E295.44418
G0 F6000 X68.643 Y78.26
G1 F1200 X141.738 Y151.354 E298.53851
G0 F6000 X142.048 Y151.099
G1 F1200 X68.899 Y77.95 E301.63514
G0 F6000 X69.153 Y77.638
G1 F1200 X142.359 Y150.844 E304.73419
G0 F6000 X142.67 Y150.589
G1 F1200 X69.408 Y77.328 E307.83559
G0 F6000 X69.663 Y77.017
G1 F1200 X142.981 Y150.335 E310.93937
G0 F6000 X143.291 Y150.079
G1 F1200 X69.918 Y76.706 E314.04549
G0 F6000 X70.173 Y76.395
G1 F1200 X143.602 Y149.825 E317.154
G0 F6000 X143.913 Y149.57
G1 F1200 X70.428 Y76.085 E320.26486
G0 F6000 X70.683 Y75.774
G1 F1200 X144.224 Y149.315 E323.37809
G0 F6000 X144.534 Y149.06
G1 F1200 X70.938 Y75.463 E326.49366
G0 F6000 X71.192 Y75.152
G1 F1200 X144.845 Y148.805 E329.61164
G0 F6000 X145.156 Y148.55
G1 F1200 X71.448 Y74.842 E332.73193
G0 F6000 X71.702 Y74.531
G1 F1200 X145.467 Y148.295 E335.85462
G0 F6000 X145.777 Y148.04
G1 F1200 X71.958 Y74.22 E338.97964
G0 F6000 X72.212 Y73.909
G1 F1200 X146.088 Y147.786 E342.10707
G0 F6000 X146.399 Y147.53
G1 F1200 X72.467 Y73.599 E345.23683
G0 F6000 X72.722 Y73.288
G1 F1200 X146.71 Y147.276 E348.36899
G0 F6000 X147.021 Y147.021
G1 F1200 X72.977 Y72.977 E351.50351
G0 F6000 X73.288 Y72.723
G1 F1200 X147.276 Y146.711 E354.63566
G0 F6000 X147.531 Y146.4
G1 F1200 X73.599 Y72.468 E357.76544
G0 F6000 X73.91 Y72.213
G1 F1200 X147.786 Y146.089 E360.89285
G0 F6000 X148.041 Y145.778
G1 F1200 X74.221 Y71.958 E364.01789
G0 F6000 X74.531 Y71.703
G1 F1200 X148.296 Y145.468 E367.1406
G0 F6000 X148.551 Y145.157
G1 F1200 X74.843 Y71.448 E370.26092
G0 F6000 X75.153 Y71.193
G1 F1200 X148.806 Y144.846 E373.37889
G0 F6000 X149.06 Y144.535
G1 F1200 X75.464 Y70.939 E376.49445
G0 F6000 X75.774 Y70.683
G1 F1200 X149.316 Y144.225 E379.60772
G0 F6000 X149.57 Y143.913
G1 F1200 X76.086 Y70.429 E382.71854
G0 F6000 X76.396 Y70.173
G1 F1200 X149.826 Y143.603 E385.82707
G0 F6000 X150.08 Y143.292
G1 F1200 X76.707 Y69.919 E388.93318
G0 F6000 X77.018 Y69.664
G1 F1200 X150.335 Y142.981 E392.03693
G0 F6000 X150.59 Y142.67
G1 F1200 X77.329 Y69.409 E395.13831
G0 F6000 X77.639 Y69.154
G1 F1200 X150.845 Y142.36 E398.23735
G0 F6000 X151.1 Y142.049
G1 F1200 X77.95 Y68.899 E401.33403
G0 F6000 X78.261 Y68.644
G1 F1200 X151.355 Y141.738 E404.42834
G0 F6000 X151.61 Y141.427
G1 F1200 X78.572 Y68.389 E407.52027
G0 F6000 X78.882 Y68.134
G1 F1200 X151.865 Y141.117 E410.60988
G0 F6000 X152.119 Y140.806
G1 F1200 X79.193 Y67.88 E413.69707
G0 F6000 X79.504 Y67.624
G1 F1200 X152.375 Y140.495 E416.78194
G0 F6000 X152.629 Y140.184
G1 F1200 X79.815 Y67.37 E419.86439
G0 F6000 X80.126 Y67.115
G1 F1200 X152.884 Y139.873 E422.94447
G0 F6000 X153.139 Y139.563
G1 F1200 X80.436 Y66.86 E426.02223
G0 F6000 X80.748 Y66.605
G1 F1200 X153.394 Y139.251 E429.09757
G0 F6000 X153.623 Y138.916
G1 F1200 X81.083 Y66.376 E432.16842
G0 F6000 X81.453 Y66.179
G1 F1200 X153.82 Y138.546 E435.23195
G0 F6000 X154.017 Y138.178
G1 F1200 X81.821 Y65.982 E438.28824
G0 F6000 X82.189 Y65.784
G1 F1200 X154.215 Y137.81 E441.33733
G0 F6000 X154.412 Y137.441
G1 F1200 X82.558 Y65.587 E444.37915
G0 F6000 X82.927 Y65.391
G1 F1200 X154.608 Y137.072 E447.41364
G0 F6000 X154.806 Y136.704
G1 F1200 X83.295 Y65.193 E450.44093
G0 F6000 X83.664 Y64.996
G1 F1200 X155.003 Y136.335 E453.46094
G0 F6000 X155.2 Y135.967
G1 F1200 X84.032 Y64.799 E456.47371
G0 F6000 X84.401 Y64.602
G1 F1200 X155.397 Y135.598 E459.4792
G0 F6000 X155.594 Y135.229
G1 F1200 X84.77 Y64.405 E462.47741
G0 F6000 X85.138 Y64.208
G1 F1200 X155.791 Y134.861 E465.46838
G0 F6000 X155.989 Y134.493
G1 F1200 X85.506 Y64.01 E468.45215
G0 F6000 X85.875 Y63.814
G1 F1200 X156.185 Y134.124 E471.42861
G0 F6000 X156.383 Y133.755
G1 F1200 X86.244 Y63.616 E474.39782
G0 F6000 X86.612 Y63.419
G1 F1200 X156.58 Y133.387 E477.35979
G0 F6000 X156.777 Y133.018
G1 F1200 X86.981 Y63.222 E480.31448
G0 F6000 X87.35 Y63.025
G1 F1200 X156.974 Y132.649 E483.26189
G0 F6000 X157.171 Y132.281
G1 F1200 X87.718 Y62.828 E486.20206
G0 F6000 X88.087 Y62.631
G1 F1200 X157.368 Y131.912 E489.13495
G0 F6000 X157.566 Y131.544
G1 F1200 X88.455 Y62.433 E492.06064
G0 F6000 X88.824 Y62.237
G1 F1200 X157.762 Y131.175 E494.97901
G0 F6000 X157.959 Y130.806
G1 F1200 X89.193 Y62.04 E497.8901
G0 F6000 X89.561 Y61.842
G1 F1200 X158.157 Y130.438 E500.79399
G0 F6000 X158.354 Y130.07
G1 F1200 X89.929 Y61.645 E503.69064
G0 F6000 X90.357 Y61.507
G1 F1200 X158.492 Y129.642 E506.57502
G0 F6000 X158.623 Y129.208
G1 F1200 X90.791 Y61.376 E509.44656
G0 F6000 X91.225 Y61.244
G1 F1200 X158.755 Y128.774 E512.30533
G0 F6000 X158.886 Y128.339
G1 F1200 X91.66 Y61.113 E515.15122
G0 F6000 X92.094 Y60.981
G1 F1200 X159.018 Y127.905 E517.98433
G0 F6000 X159.15 Y127.472
G1 F1200 X92.527 Y60.849 E520.8047
G0 F6000 X92.961 Y60.717
G1 F1200 X159.282 Y127.038 E523.61228
G0 F6000 X159.413 Y126.603
G1 F1200 X93.396 Y60.586 E526.407
G0 F6000 X93.83 Y60.454
G1 F1200 X159.545 Y126.169 E529.18893
