;FLAVOR:Marlin
;TIME:1312
;Filament used: 1.04473m
;Layer height: 0.2
;MINX:100.85
;MINY:94.2
;MINZ:0.2
;MAXX:119.15
;MAXY:125.8
;MAXZ:17.6
;Generated with Cura_SteamEngine 4.13.1
M140 S50
M105
M190 S50
M104 S195
M105
M109 S195
M82 ;absolute extrusion mode
G28 ;Home
G92 E0 ;Reset Extruder
G1 Z2.0 F3000 ;Move bed down
G1 X10.1 Y20 Z0.28 F5000.0 ;Move to start position
G1 X10.1 Y200.0 Z0.28 F1500.0 E15 ;Draw the first line
G1 X10.4 Y200.0 Z0.28 F5000.0 ;Move to side a little
G1 X10.4 Y20 Z0.28 F1500.0 E30 ;Draw the second line
G92 E0 ;Reset Extruder
G1 Z2.0 F3000 ;Move Bed up
G92 E0
G92 E0
G1 F2400 E-7
;LAYER_COUNT:88
;LAYER:0
M107
;MESH:loadcell_guida.stl
G0 F6000 X115.542 Y99.098 Z0.2
;TYPE:WALL-INNER
G1 F2400 E0
G1 F1200 X116.35 Y99.259 E0.02466
G1 X117.158 Y99.098 E0.04932
G1 X117.843 Y98.639 E0.07401
G1 X118.301 Y97.955 E0.09865
G1 X118.462 Y97.147 E0.12331
G1 X118.301 Y96.339 E0.14797
G1 X117.843 Y95.654 E0.17264
G1 X117.158 Y95.196 E0.1973
G1 X116.35 Y95.035 E0.22197
G1 X115.542 Y95.196 E0.24663
G1 X114.857 Y95.654 E0.2713
G1 X114.399 Y96.339 E0.29596
G1 X114.238 Y97.147 E0.32062
G1 X114.399 Y97.955 E0.34529
G1 X114.857 Y98.639 E0.36993
G1 X115.542 Y99.098 E0.39461
G0 F6000 X115.698 Y98.721
;TYPE:WALL-OUTER
G1 F1200 X116.35 Y98.851 E0.41451
G1 X117.002 Y98.721 E0.43441
G1 X117.555 Y98.351 E0.45433
G1 X117.924 Y97.799 E0.4742
G1 X118.054 Y97.147 E0.49411
G1 X117.924 Y96.495 E0.51401
G1 X117.555 Y95.942 E0.53391
G1 X117.002 Y95.573 E0.55381
G1 X116.35 Y95.443 E0.57371
G1 X115.698 Y95.573 E0.59361
G1 X115.145 Y95.942 E0.61351
G1 X114.776 Y96.495 E0.63341
G1 X114.646 Y97.147 E0.65331
G1 X114.776 Y97.799 E0.67321
G1 X115.145 Y98.351 E0.69309
G1 X115.698 Y98.721 E0.71301
G0 F6000 X115.53 Y99.127
G0 X114.237 Y98.022
G0 X114.734 Y95.531
G0 X117.155 Y94.984
G0 X116.29 Y94.771
G0 X103.71 Y94.771
G0 X102.963 Y94.889
G0 X105.266 Y95.531
G0 X105.763 Y98.022
G0 X104.886 Y98.993
G0 X102.842 Y99.098
;TYPE:WALL-INNER
G1 F1200 X103.65 Y99.259 E0.73767
G1 X104.458 Y99.098 E0.76233
G1 X105.143 Y98.639 E0.78701
G1 X105.601 Y97.955 E0.81165
G1 X105.762 Y97.147 E0.83632
G1 X105.601 Y96.339 E0.86098
G1 X105.143 Y95.654 E0.88564
G1 X104.458 Y95.196 E0.91031
G1 X103.65 Y95.035 E0.93497
G1 X102.842 Y95.196 E0.95964
G1 X102.157 Y95.654 E0.9843
G1 X101.699 Y96.339 E1.00897
G1 X101.538 Y97.147 E1.03363
G1 X101.699 Y97.955 E1.05829
G1 X102.157 Y98.639 E1.08293
G1 X102.842 Y99.098 E1.10762
G0 F6000 X102.998 Y98.721
;TYPE:WALL-OUTER
G1 F1200 X103.65 Y98.851 E1.12752
G1 X104.302 Y98.721 E1.14742
G1 X104.855 Y98.351 E1.16733
G1 X105.224 Y97.799 E1.18721
G1 X105.354 Y97.147 E1.20711
G1 X105.224 Y96.495 E1.22701
G1 X104.855 Y95.942 E1.24691
G1 X104.302 Y95.573 E1.26681
G1 X103.65 Y95.443 E1.28671
G1 X102.998 Y95.573 E1.30662
G1 X102.445 Y95.942 E1.32652
G1 X102.076 Y96.495 E1.34642
G1 X101.946 Y97.147 E1.36632
G1 X102.076 Y97.799 E1.38622
G1 X102.445 Y98.351 E1.40609
G1 X102.998 Y98.721 E1.42601
G0 F6000 X102.83 Y99.127
G1 F2400 E-5.57399
G0 F6000 X103.65 Y99.473
G0 X103.65 Y97.97
G0 X104.303 Y104.303
G0 X103.65 Y102.86
G0 X103.05 Y103.05
;TYPE:WALL-INNER
G1 F2400 E1.42601
G1 F1200 X103.05 Y116.95 E1.8421
G1 X116.95 Y116.95 E2.25818
G1 X116.95 Y103.05 E2.67426
G1 X103.05 Y103.05 E3.09035
G0 F6000 X103.45 Y103.45
;TYPE:WALL-OUTER
G1 F1200 X103.45 Y116.55 E3.48249
G1 X116.55 Y116.55 E3.87462
G1 X116.55 Y103.45 E4.26676
G1 X103.45 Y103.45 E4.6589
G1 F2400 E-2.3411
G0 F6000 X103.15 Y103.45
G0 X102.88 Y112.886
G0 X104.315 Y112.886
G0 X103.65 Y122.177
G0 X103.548 Y120.695
G0 X103.482 Y121.086
G0 X102.905 Y121.202
G0 X102.273 Y121.623
G0 X101.852 Y122.255
G0 X101.702 Y123
G0 X101.852 Y123.745
G0 X102.192 Y124.256
G0 X102.842 Y124.951
;TYPE:WALL-INNER
G1 F2400 E4.6589
G1 F1200 X103.65 Y125.112 E4.68356
G1 X104.458 Y124.951 E4.70822
G1 X105.143 Y124.493 E4.73289
G1 X105.601 Y123.808 E4.75755
G1 X105.762 Y123 E4.78222
G1 X105.601 Y122.192 E4.80688
G1 X105.143 Y121.507 E4.83154
G1 X104.458 Y121.049 E4.85621
G1 X103.65 Y120.888 E4.88087
G1 X102.842 Y121.049 E4.90553
G1 X102.157 Y121.507 E4.9302
G1 X101.699 Y122.192 E4.95487
G1 X101.538 Y123 E4.97953
G1 X101.699 Y123.808 E5.00419
G1 X102.157 Y124.493 E5.02886
G1 X102.842 Y124.951 E5.05352
G0 F6000 X102.998 Y124.574
;TYPE:WALL-OUTER
G1 F1200 X103.65 Y124.704 E5.07342
G1 X104.302 Y124.574 E5.09333
G1 X104.855 Y124.205 E5.11323
G1 X105.224 Y123.652 E5.13313
G1 X105.354 Y123 E5.15303
G1 X105.224 Y122.348 E5.17293
G1 X104.855 Y121.795 E5.19283
G1 X104.302 Y121.426 E5.21273
G1 X103.65 Y121.296 E5.23263
G1 X102.998 Y121.426 E5.25253
G1 X102.445 Y121.795 E5.27243
G1 X102.076 Y122.348 E5.29233
G1 X101.946 Y123 E5.31223
G1 X102.076 Y123.652 E5.33214
G1 X102.445 Y124.205 E5.35204
G1 X102.998 Y124.574 E5.37194
G0 F6000 X102.83 Y124.98
G0 X104.295 Y125.193
G0 X115.705 Y125.193
G0 X115.542 Y124.951
;TYPE:WALL-INNER
G1 F1200 X116.35 Y125.112 E5.3966
G1 X117.158 Y124.951 E5.42126
G1 X117.843 Y124.493 E5.44593
G1 X118.301 Y123.808 E5.47059
G1 X118.462 Y123 E5.49525
G1 X118.301 Y122.192 E5.51992
G1 X117.843 Y121.507 E5.54458
G1 X117.158 Y121.049 E5.56925
G1 X116.35 Y120.888 E5.59391
G1 X115.542 Y121.049 E5.61857
G1 X114.857 Y121.507 E5.64324
G1 X114.399 Y122.192 E5.66791
G1 X114.238 Y123 E5.69257
G1 X114.399 Y123.808 E5.71723
G1 X114.857 Y124.493 E5.7419
G1 X115.542 Y124.951 E5.76656
G0 F6000 X115.698 Y124.574
;TYPE:WALL-OUTER
G1 F1200 X116.35 Y124.704 E5.78646
G1 X117.002 Y124.574 E5.80636
G1 X117.555 Y124.205 E5.82626
G1 X117.924 Y123.652 E5.84616
G1 X118.054 Y123 E5.86607
G1 X117.924 Y122.348 E5.88597
G1 X117.555 Y121.795 E5.90587
G1 X117.002 Y121.426 E5.92577
G1 X116.35 Y121.296 E5.94567
G1 X115.698 Y121.426 E5.96557
G1 X115.145 Y121.795 E5.98547
G1 X114.776 Y122.348 E6.00537
G1 X114.646 Y123 E6.02527
G1 X114.776 Y123.652 E6.04517
G1 X115.145 Y124.205 E6.06507
G1 X115.698 Y124.574 E6.08497
G0 F6000 X115.53 Y124.98
G0 X116.301 Y125.4
;TYPE:WALL-INNER
G1 F1200 X115.759 Y125.4 E6.09847
G1 X104.241 Y125.4 E6.44325
G1 X103.699 Y125.4 E6.45675
G1 X102.909 Y125.275 E6.47538
G1 X102.244 Y124.936 E6.49429
G1 X101.714 Y124.406 E6.51448
G1 X101.375 Y123.741 E6.5339
G1 X101.25 Y122.951 E6.55321
G1 X101.25 Y122.409 E6.56671
G1 X101.25 Y97.53 E7.31144
G1 X101.25 Y97.049 E7.32459
G1 X101.375 Y96.259 E7.34383
G1 X101.714 Y95.594 E7.36349
G1 X102.244 Y95.064 E7.38593
G1 X102.909 Y94.725 E7.40827
G1 X103.699 Y94.6 E7.43221
G1 X116.301 Y94.6 E7.80944
G1 X117.091 Y94.725 E7.83339
G1 X117.756 Y95.064 E7.85573
G1 X118.286 Y95.594 E7.87817
G1 X118.625 Y96.259 E7.89783
G1 X118.75 Y97.049 E7.91707
G1 X118.75 Y97.53 E7.93022
G1 X118.75 Y122.409 E8.67495
G1 X118.75 Y122.951 E8.68845
G1 X118.625 Y123.741 E8.70776
G1 X118.286 Y124.406 E8.72718
G1 X117.756 Y124.936 E8.74737
G1 X117.091 Y125.275 E8.76626
G1 X116.301 Y125.4 E8.78486
G0 F6000 X116.332 Y125.8
;TYPE:WALL-OUTER
G1 F1200 X103.668 Y125.8 E9.16395
G1 X102.784 Y125.66 E9.19074
G1 X102.005 Y125.263 E9.21691
G1 X101.387 Y124.645 E9.24307
G1 X100.99 Y123.866 E9.26924
G1 X100.85 Y122.982 E9.29604
G1 X100.85 Y97.018 E10.07325
G1 X100.99 Y96.134 E10.10004
G1 X101.387 Y95.355 E10.12621
G1 X102.005 Y94.737 E10.15237
G1 X102.784 Y94.34 E10.17854
G1 X103.668 Y94.2 E10.20534
G1 X116.332 Y94.2 E10.58442
G1 X117.216 Y94.34 E10.61121
G1 X117.995 Y94.737 E10.63738
G1 X118.613 Y95.355 E10.66355
G1 X119.01 Y96.134 E10.68972
G1 X119.15 Y97.018 E10.71651
G1 X119.15 Y122.982 E11.49372
G1 X119.01 Y123.866 E11.52051
G1 X118.613 Y124.645 E11.54668
G1 X117.995 Y125.263 E11.57285
G1 X117.216 Y125.66 E11.59902
G1 X116.332 Y125.8 E11.62581
G0 F6000 X116.298 Y125.362
G0 X114.929 Y125.29
G0 X114.929 Y125.01
;TYPE:SKIN
G1 F1200 X105.071 Y125.01 E11.9209
G1 X105.424 Y124.774 E11.93361
G1 X105.968 Y123.96 E11.96292
G1 X106.16 Y123 E11.99222
G1 X105.968 Y122.04 E12.02153
G1 X105.424 Y121.226 E12.05084
G1 X104.61 Y120.682 E12.08014
G1 X103.65 Y120.49 E12.10945
G1 X102.69 Y120.682 E12.13875
G1 X101.876 Y121.226 E12.16806
G1 X101.64 Y121.579 E12.18077
G1 X101.64 Y98.567 E12.86962
G1 X101.876 Y98.92 E12.88233
G1 X102.69 Y99.465 E12.91165
G1 X103.65 Y99.657 E12.94096
G1 X104.61 Y99.465 E12.97026
G1 X105.424 Y98.92 E12.99959
G1 X105.968 Y98.107 E13.02887
G1 X106.16 Y97.147 E13.05817
G1 X105.968 Y96.187 E13.08748
G1 X105.424 Y95.373 E13.11679
G1 X104.851 Y94.99 E13.13742
G1 X115.149 Y94.99 E13.44568
G1 X114.576 Y95.373 E13.46631
G1 X114.032 Y96.187 E13.49562
G1 X113.84 Y97.147 E13.52492
G1 X114.032 Y98.107 E13.55423
G1 X114.576 Y98.92 E13.58351
G1 X115.39 Y99.465 E13.61283
G1 X116.35 Y99.657 E13.64214
G1 X117.31 Y99.465 E13.67145
G1 X118.124 Y98.92 E13.70077
G1 X118.36 Y98.567 E13.71348
G1 X118.36 Y121.579 E14.40232
G1 X118.124 Y121.226 E14.41504
G1 X117.31 Y120.682 E14.44434
G1 X116.35 Y120.49 E14.47365
G1 X115.39 Y120.682 E14.50295
G1 X114.576 Y121.226 E14.53226
G1 X114.032 Y122.04 E14.56157
G1 X113.84 Y123 E14.59087
G1 X114.032 Y123.96 E14.62018
G1 X114.576 Y124.774 E14.64949
G1 X114.929 Y125.01 E14.6622
G1 F2400 E7.6622
G0 F6000 X114.929 Y125.29
G0 X115.705 Y125.193
G0 X114.973 Y124.377
G0 X114.552 Y123.745
G0 X114.402 Y123
G0 X114.552 Y122.255
G0 X114.973 Y121.623
G0 X115.605 Y121.202
G0 X116.224 Y121.08
G0 X116.35 Y120.674
G0 X116.35 Y122.177
G0 X115.697 Y115.697
G0 X116.35 Y117.14
G0 X117.06 Y117.09
G1 F2400 E14.6622
G0 F6000 X117.34 Y117.34
G1 F1200 X117.34 Y102.66 E15.10163
G1 X102.66 Y102.66 E15.54106
G1 X102.66 Y117.34 E15.9805
G1 X117.34 Y117.34 E16.41993
G1 F2400 E9.41993
G0 F6000 X117.06 Y117.09
G0 X102.854 Y117.146
G0 X101.46 Y117.146
G0 X101.36 Y120.993
G1 F2400 E16.41993
G0 F6000 X101.759 Y120.993
G1 F1200 X101.859 Y121.092 E16.42414
G0 F6000 X102.198 Y120.865
G1 F1200 X101.759 Y120.427 E16.4427
G0 F6000 X101.759 Y119.861
G1 F1200 X102.537 Y120.639 E16.47564
G0 F6000 X102.966 Y120.503
G1 F1200 X101.759 Y119.295 E16.52676
G0 F6000 X101.759 Y118.73
G1 F1200 X103.437 Y120.408 E16.59779
G0 F6000 X104.039 Y120.444
G1 F1200 X101.759 Y118.164 E16.69431
G0 F6000 X101.759 Y117.598
G1 F1200 X104.877 Y120.716 E16.82631
G0 F6000 X104.655 Y121.048
G0 X105.599 Y121.991
G0 X105.931 Y121.77
G1 F1200 X109.05 Y124.889 E16.95834
G0 F6000 X109.615 Y124.889
G1 F1200 X101.759 Y117.033 E17.29091
G0 F6000 X101.759 Y116.467
G1 F1200 X102.539 Y117.247 E17.32393
G0 F6000 X102.751 Y117.459
G1 F1200 X110.181 Y124.889 E17.63847
G0 F6000 X110.747 Y124.889
G1 F1200 X103.317 Y117.459 E17.95301
G0 F6000 X103.883 Y117.459
G1 F1200 X111.312 Y124.889 E18.26752
G0 F6000 X111.878 Y124.889
G1 F1200 X104.448 Y117.459 E18.58206
G0 F6000 X105.014 Y117.459
G1 F1200 X112.444 Y124.889 E18.89659
G0 F6000 X113.009 Y124.889
G1 F1200 X105.58 Y117.459 E19.21111
G0 F6000 X106.145 Y117.459
G1 F1200 X113.575 Y124.889 E19.52564
G0 F6000 X114.141 Y124.889
G1 F1200 X106.711 Y117.459 E19.84018
G0 F6000 X107.277 Y117.459
G1 F1200 X114.113 Y124.295 E20.12957
G0 F6000 X113.801 Y123.417
G1 F1200 X107.842 Y117.459 E20.38181
G0 F6000 X108.408 Y117.459
G1 F1200 X113.755 Y122.806 E20.60817
G0 F6000 X113.85 Y122.335
G1 F1200 X108.974 Y117.459 E20.81458
G0 F6000 X109.54 Y117.459
G1 F1200 X113.981 Y121.9 E21.00259
G0 F6000 X114.207 Y121.561
G1 F1200 X110.105 Y117.459 E21.17624
G0 F6000 X110.671 Y117.459
G1 F1200 X114.434 Y121.222 E21.33554
G0 F6000 X114.745 Y120.967
G1 F1200 X111.237 Y117.459 E21.48404
G0 F6000 X111.802 Y117.459
G1 F1200 X115.084 Y120.741 E21.62298
G0 F6000 X115.454 Y120.545
G1 F1200 X112.368 Y117.459 E21.75362
G0 F6000 X112.934 Y117.459
G1 F1200 X115.925 Y120.451 E21.88026
G0 F6000 X116.42 Y120.38
G1 F1200 X113.499 Y117.459 E22.00392
G0 F6000 X114.065 Y117.459
G1 F1200 X117.127 Y120.522 E22.13356
G0 F6000 X117.049 Y120.914
G0 X118.543 Y122.355
G0 X118.64 Y120.503
G0 X118.24 Y120.503
G1 F1200 X115.196 Y117.459 E22.26242
G0 F6000 X114.631 Y117.459
G1 F1200 X118.232 Y121.06 E22.41487
G0 F6000 X118.64 Y121.06
G0 X118.64 Y119.937
G0 X118.24 Y119.937
G1 F1200 X115.762 Y117.459 E22.51977
G0 F6000 X116.328 Y117.459
G1 F1200 X118.24 Y119.371 E22.60071
G0 F6000 X118.24 Y118.805
G1 F1200 X116.893 Y117.459 E22.65771
G0 F6000 X117.459 Y117.459
G1 F1200 X118.24 Y118.24 E22.69077
G0 F6000 X118.24 Y117.674
G1 F1200 X117.459 Y116.893 E22.72384
G0 F6000 X117.459 Y116.328
G1 F1200 X118.24 Y117.108 E22.75688
G0 F6000 X118.24 Y116.543
G1 F1200 X117.459 Y115.762 E22.78994
G0 F6000 X117.459 Y115.196
G1 F1200 X118.24 Y115.977 E22.823
G0 F6000 X118.24 Y115.411
G1 F1200 X117.459 Y114.631 E22.85604
G0 F6000 X117.459 Y114.065
G1 F1200 X118.24 Y114.846 E22.8891
G0 F6000 X118.24 Y114.28
G1 F1200 X117.459 Y113.499 E22.92217
G0 F6000 X117.459 Y112.934
G1 F1200 X118.24 Y113.714 E22.95521
G0 F6000 X118.24 Y113.149
G1 F1200 X117.459 Y112.368 E22.98827
G0 F6000 X117.459 Y111.802
G1 F1200 X118.24 Y112.583 E23.02133
G0 F6000 X118.24 Y112.017
G1 F1200 X117.459 Y111.237 E23.05437
G0 F6000 X117.459 Y110.671
G1 F1200 X118.24 Y111.452 E23.08744
G0 F6000 X118.24 Y110.886
G1 F1200 X117.459 Y110.105 E23.1205
G0 F6000 X117.459 Y109.54
G1 F1200 X118.24 Y110.32 E23.15354
G0 F6000 X118.24 Y109.754
G1 F1200 X117.459 Y108.974 E23.18658
G0 F6000 X117.459 Y108.408
G1 F1200 X118.24 Y109.189 E23.21964
G0 F6000 X118.24 Y108.623
G1 F1200 X117.459 Y107.842 E23.2527
G0 F6000 X117.459 Y107.277
G1 F1200 X118.24 Y108.057 E23.28575
G0 F6000 X118.24 Y107.492
G1 F1200 X117.459 Y106.711 E23.31881
G0 F6000 X117.459 Y106.145
G1 F1200 X118.24 Y106.926 E23.35187
G0 F6000 X118.24 Y106.36
G1 F1200 X117.459 Y105.58 E23.38491
G0 F6000 X117.459 Y105.014
G1 F1200 X118.24 Y105.795 E23.41797
G0 F6000 X118.24 Y105.229
G1 F1200 X117.459 Y104.448 E23.45104
G0 F6000 X117.459 Y103.883
G1 F1200 X118.24 Y104.663 E23.48408
G0 F6000 X118.24 Y104.098
G1 F1200 X117.459 Y103.317 E23.51714
G0 F6000 X117.459 Y102.751
G1 F1200 X118.24 Y103.532 E23.5502
G0 F6000 X118.24 Y102.966
G1 F1200 X110.383 Y95.11 E23.88279
G0 F6000 X109.817 Y95.11
G1 F1200 X117.247 Y102.539 E24.19731
G0 F6000 X116.681 Y102.539
G1 F1200 X109.252 Y95.11 E24.5118
G0 F6000 X108.686 Y95.11
G1 F1200 X116.116 Y102.539 E24.82632
G0 F6000 X115.55 Y102.539
G1 F1200 X108.12 Y95.11 E25.14083
G0 F6000 X107.555 Y95.11
G1 F1200 X114.984 Y102.539 E25.45532
G0 F6000 X114.419 Y102.539
G1 F1200 X106.989 Y95.11 E25.76984
G0 F6000 X106.423 Y95.11
G1 F1200 X113.853 Y102.539 E26.08435
G0 F6000 X113.287 Y102.539
G1 F1200 X105.858 Y95.11 E26.39885
G0 F6000 X105.591 Y95.409
G1 F1200 X112.722 Y102.539 E26.7007
G0 F6000 X112.156 Y102.539
G1 F1200 X106.16 Y96.544 E26.95451
G0 F6000 X106.267 Y97.216
G1 F1200 X111.59 Y102.539 E27.17985
G0 F6000 X111.024 Y102.539
G1 F1200 X106.173 Y97.688 E27.38521
G0 F6000 X106.077 Y98.157
G1 F1200 X110.459 Y102.539 E27.57072
G0 F6000 X109.893 Y102.539
G1 F1200 X105.851 Y98.497 E27.74183
G0 F6000 X105.624 Y98.836
G1 F1200 X109.327 Y102.539 E27.89859
G0 F6000 X108.762 Y102.539
G1 F1200 X105.342 Y99.12 E28.04335
G0 F6000 X105.003 Y99.347
G1 F1200 X108.196 Y102.539 E28.17849
G0 F6000 X107.63 Y102.539
G1 F1200 X104.664 Y99.573 E28.30405
G0 F6000 X104.195 Y99.67
G1 F1200 X107.065 Y102.539 E28.42553
G0 F6000 X106.499 Y102.539
G1 F1200 X103.724 Y99.764 E28.543
G0 F6000 X103.055 Y99.661
G1 F1200 X105.933 Y102.539 E28.66484
G0 F6000 X105.368 Y102.539
G1 F1200 X101.926 Y99.098 E28.81053
G0 F6000 X101.759 Y99.496
G1 F1200 X104.802 Y102.539 E28.93935
G0 F6000 X104.236 Y102.539
G1 F1200 X101.759 Y100.061 E29.04423
G0 F6000 X101.759 Y100.627
G1 F1200 X103.671 Y102.539 E29.12517
G0 F6000 X103.105 Y102.539
G1 F1200 X101.759 Y101.193 E29.18215
G0 F6000 X101.759 Y101.759
G1 F1200 X102.539 Y102.539 E29.21517
G0 F6000 X102.539 Y103.105
G1 F1200 X101.759 Y102.324 E29.24821
G0 F6000 X101.759 Y102.89
G1 F1200 X102.539 Y103.671 E29.28125
G0 F6000 X102.539 Y104.236
G1 F1200 X101.759 Y103.456 E29.31427
G0 F6000 X101.759 Y104.021
G1 F1200 X102.539 Y104.802 E29.34732
G0 F6000 X102.539 Y105.368
G1 F1200 X101.759 Y104.587 E29.38036
G0 F6000 X101.759 Y105.153
G1 F1200 X102.539 Y105.933 E29.41338
G0 F6000 X102.539 Y106.499
G1 F1200 X101.759 Y105.718 E29.44642
G0 F6000 X101.759 Y106.284
G1 F1200 X102.539 Y107.065 E29.47946
G0 F6000 X102.539 Y107.63
G1 F1200 X101.759 Y106.85 E29.51248
G0 F6000 X101.759 Y107.415
G1 F1200 X102.539 Y108.196 E29.54552
G0 F6000 X102.539 Y108.762
