;FLAVOR:Marlin
;TIME:3331
;Filament used: 2.46567m
;Layer height: 0.2
;MINX:70.835
;MINY:76.836
;MINZ:0.2
;MAXX:149.165
;MAXY:143.164
;MAXZ:10
;Generated with Cura_SteamEngine 4.13.1
M140 S50
M105
M190 S50
M104 S195
M105
M109 S195
M82 ;absolute extrusion mode
G28 ;Home
G92 E0 ;Reset Extruder
G1 Z2.0 F3000 ;Move bed down
G1 X10.1 Y20 Z0.28 F5000.0 ;Move to start position
G1 X10.1 Y200.0 Z0.28 F1500.0 E15 ;Draw the first line
G1 X10.4 Y200.0 Z0.28 F5000.0 ;Move to side a little
G1 X10.4 Y20 Z0.28 F1500.0 E30 ;Draw the second line
G92 E0 ;Reset Extruder
G1 Z2.0 F3000 ;Move Bed up
G92 E0
G92 E0
G1 F2400 E-7
;LAYER_COUNT:50
;LAYER:0
M107
G0 F6000 X80.1 Y80.1 Z0.2
;TYPE:SKIRT
G1 F2400 E0
G1 F1200 X80.9 Y80.1 E0.02395
G1 X80.9 Y81.103 E0.05397
G1 X80.1 Y81.104 E0.07792
G1 X80.1 Y80.1 E0.10797
G0 F6000 X79.936 Y79.7
G1 F1200 X81.064 Y79.7 E0.14174
G1 X81.231 Y79.769 E0.14715
G1 X81.3 Y79.936 E0.15256
G1 X81.3 Y81.503 E0.19946
G1 X79.7 Y81.504 E0.24736
G1 X79.7 Y79.936 E0.29429
G1 X79.769 Y79.769 E0.2997
G1 X79.936 Y79.7 E0.30511
G0 F6000 X79.858 Y79.3
G1 F1200 X81.142 Y79.3 E0.34355
G1 X81.537 Y79.463 E0.35634
G1 X81.7 Y79.858 E0.36913
G1 X81.7 Y81.903 E0.43034
G1 X79.3 Y81.904 E0.50219
G1 X79.3 Y79.858 E0.56343
G1 X79.463 Y79.463 E0.57622
G1 X79.858 Y79.3 E0.58901
G0 F6000 X79.778 Y78.9
G1 F1200 X81.222 Y78.9 E0.63224
G1 X81.843 Y79.157 E0.65236
G1 X82.1 Y79.778 E0.67248
G1 X82.1 Y82.303 E0.74806
G1 X78.9 Y82.304 E0.84385
G1 X78.9 Y79.778 E0.91946
G1 X79.157 Y79.157 E0.93958
G1 X79.778 Y78.9 E0.9597
G0 F6000 X79.699 Y78.5
G1 F1200 X81.301 Y78.5 E1.00765
G1 X82.15 Y78.85 E1.03514
G1 X82.5 Y79.699 E1.06263
G1 X82.5 Y82.703 E1.15255
G1 X78.5 Y82.704 E1.27229
G1 X78.5 Y79.699 E1.36224
G1 X78.85 Y78.85 E1.38973
G1 X79.699 Y78.5 E1.41722
G0 F6000 X79.621 Y78.1
G1 F1200 X81.379 Y78.1 E1.46984
G1 X82.456 Y78.544 E1.50471
G1 X82.9 Y79.621 E1.53959
G1 X82.9 Y83.103 E1.64382
G1 X78.1 Y83.104 E1.7875
G1 X78.1 Y79.621 E1.89176
G1 X78.544 Y78.544 E1.92663
G1 X79.621 Y78.1 E1.9615
G0 F6000 X79.54 Y77.7
G1 F1200 X81.46 Y77.7 E2.01898
G1 X82.762 Y78.238 E2.06115
G1 X83.3 Y79.54 E2.10332
G1 X83.3 Y83.555 E2.2235
G1 X83.021 Y83.503 E2.232
G1 X77.974 Y83.504 E2.38308
G1 X77.7 Y83.555 E2.39142
G1 X77.7 Y79.54 E2.5116
G1 X78.238 Y78.238 E2.55377
G1 X79.54 Y77.7 E2.59594
G1 F2400 E-4.40406
G0 F6000 X136.7 Y79.54
G1 F2400 E2.59594
G1 F1200 X137.238 Y78.238 E2.63812
G1 X138.54 Y77.7 E2.68029
G1 X140.46 Y77.7 E2.73776
G1 X141.762 Y78.238 E2.77993
G1 X142.3 Y79.54 E2.8221
G1 X142.3 Y83.504 E2.94076
G1 X136.7 Y83.504 E3.10839
G1 X136.7 Y79.54 E3.22705
G0 F6000 X137.1 Y79.621
G1 F1200 X137.544 Y78.544 E3.26192
G1 X138.621 Y78.1 E3.29679
G1 X140.379 Y78.1 E3.34942
G1 X141.456 Y78.544 E3.38429
G1 X141.9 Y79.621 E3.41916
G1 X141.9 Y83.104 E3.52342
G1 X137.1 Y83.104 E3.6671
G1 X137.1 Y79.621 E3.77136
G0 F6000 X137.5 Y79.699
G1 F1200 X137.85 Y78.85 E3.79885
G1 X138.699 Y78.5 E3.82634
G1 X140.301 Y78.5 E3.87429
G1 X141.15 Y78.85 E3.90178
G1 X141.5 Y79.699 E3.92927
G1 X141.5 Y82.704 E4.01922
G1 X137.5 Y82.704 E4.13896
G1 X137.5 Y79.699 E4.22891
G0 F6000 X137.9 Y79.778
G1 F1200 X138.157 Y79.157 E4.24903
G1 X138.778 Y78.9 E4.26915
G1 X140.222 Y78.9 E4.31237
G1 X140.843 Y79.157 E4.33249
G1 X141.1 Y79.778 E4.35261
G1 X141.1 Y82.304 E4.42822
G1 X137.9 Y82.304 E4.52401
G1 X137.9 Y79.778 E4.59963
G0 F6000 X138.3 Y79.858
G1 F1200 X138.463 Y79.463 E4.61242
G1 X138.858 Y79.3 E4.62521
G1 X140.142 Y79.3 E4.66364
G1 X140.537 Y79.463 E4.67644
G1 X140.7 Y79.858 E4.68923
G1 X140.7 Y81.904 E4.75047
G1 X138.3 Y81.904 E4.82231
G1 X138.3 Y79.858 E4.88356
G0 F6000 X138.7 Y79.936
G1 F1200 X138.769 Y79.769 E4.88897
G1 X138.936 Y79.7 E4.89438
G1 X140.064 Y79.7 E4.92814
G1 X140.231 Y79.769 E4.93355
G1 X140.3 Y79.936 E4.93896
G1 X140.3 Y81.504 E4.9859
G1 X138.7 Y81.504 E5.03379
G1 X138.7 Y79.936 E5.08073
G0 F6000 X139.1 Y80.1
G1 F1200 X139.9 Y80.1 E5.10468
G1 X139.9 Y81.104 E5.13473
G1 X139.1 Y81.104 E5.15868
G1 X139.1 Y80.1 E5.18873
G1 F2400 E-1.81127
G0 F6000 X148.493 Y92.269
G0 X149.164 Y93.972
G0 X149.13 Y123.99
G0 X148.494 Y125.527
G0 X143.161 Y134.491
G0 X142.708 Y134.944
G0 X136.7 Y136.475
G1 F2400 E5.18873
G1 F1200 X136.972 Y136.526 E5.19701
G1 X142.026 Y136.525 E5.3483
G1 X142.3 Y136.474 E5.35664
G1 X142.3 Y140.46 E5.47596
G1 X141.762 Y141.762 E5.51813
G1 X140.46 Y142.3 E5.5603
G1 X138.54 Y142.3 E5.61778
G1 X137.238 Y141.762 E5.65995
G1 X136.7 Y140.46 E5.70212
G1 X136.7 Y136.475 E5.8214
G0 F6000 X137.1 Y136.926
G1 F1200 X141.9 Y136.925 E5.96509
G1 X141.9 Y140.379 E6.06848
G1 X141.456 Y141.456 E6.10335
G1 X140.379 Y141.9 E6.13822
G1 X138.621 Y141.9 E6.19085
G1 X137.544 Y141.456 E6.22572
G1 X137.1 Y140.379 E6.26059
G1 X137.1 Y136.926 E6.36395
G0 F6000 X137.5 Y137.326
G1 F1200 X141.5 Y137.325 E6.48369
G1 X141.5 Y140.301 E6.57277
G1 X141.15 Y141.15 E6.60026
G1 X140.301 Y141.5 E6.62775
G1 X138.699 Y141.5 E6.67571
G1 X137.85 Y141.15 E6.70319
G1 X137.5 Y140.301 E6.73068
G1 X137.5 Y137.326 E6.81974
G0 F6000 X137.9 Y137.726
G1 F1200 X141.1 Y137.725 E6.91553
G1 X141.1 Y140.222 E6.99027
G1 X140.843 Y140.843 E7.01039
G1 X140.222 Y141.1 E7.03051
G1 X138.778 Y141.1 E7.07373
G1 X138.157 Y140.843 E7.09385
G1 X137.9 Y140.222 E7.11397
G1 X137.9 Y137.726 E7.18868
G0 F6000 X138.3 Y138.126
G1 F1200 X140.7 Y138.125 E7.26053
G1 X140.7 Y140.142 E7.3209
G1 X140.537 Y140.537 E7.33369
G1 X140.142 Y140.7 E7.34649
G1 X138.858 Y140.7 E7.38492
G1 X138.463 Y140.537 E7.39771
G1 X138.3 Y140.142 E7.4105
G1 X138.3 Y138.126 E7.47085
G0 F6000 X138.7 Y138.526
G1 F1200 X140.3 Y138.525 E7.51875
G1 X140.3 Y140.064 E7.56481
G1 X140.231 Y140.231 E7.57022
G1 X140.064 Y140.3 E7.57563
G1 X138.936 Y140.3 E7.6094
G1 X138.769 Y140.231 E7.61481
G1 X138.7 Y140.064 E7.62022
G1 X138.7 Y138.526 E7.66625
G0 F6000 X139.1 Y138.926
G1 F1200 X139.9 Y138.925 E7.6902
G1 X139.9 Y139.9 E7.71939
G1 X139.1 Y139.9 E7.74333
G1 X139.1 Y138.926 E7.77249
G1 F2400 E0.77249
G0 F6000 X80.1 Y138.925
G1 F2400 E7.77249
G1 F1200 X80.9 Y138.925 E7.79644
G1 X80.9 Y139.9 E7.82562
G1 X80.1 Y139.9 E7.84957
G1 X80.1 Y138.925 E7.87876
G0 F6000 X79.7 Y138.525
G1 F1200 X81.3 Y138.525 E7.92665
G1 X81.3 Y140.064 E7.97272
G1 X81.231 Y140.231 E7.97813
G1 X81.064 Y140.3 E7.98354
G1 X79.936 Y140.3 E8.0173
G1 X79.769 Y140.231 E8.02271
G1 X79.7 Y140.064 E8.02812
G1 X79.7 Y138.525 E8.07419
G0 F6000 X79.3 Y138.125
G1 F1200 X81.7 Y138.125 E8.14603
G1 X81.7 Y140.142 E8.20641
G1 X81.537 Y140.537 E8.2192
G1 X81.142 Y140.7 E8.23199
G1 X79.858 Y140.7 E8.27043
G1 X79.463 Y140.537 E8.28322
G1 X79.3 Y140.142 E8.29601
G1 X79.3 Y138.125 E8.35639
G0 F6000 X78.9 Y137.725
G1 F1200 X82.1 Y137.725 E8.45217
G1 X82.1 Y140.222 E8.52692
G1 X81.843 Y140.843 E8.54704
G1 X81.222 Y141.1 E8.56716
G1 X79.778 Y141.1 E8.61038
G1 X79.157 Y140.843 E8.6305
G1 X78.9 Y140.222 E8.65062
G1 X78.9 Y137.725 E8.72536
G0 F6000 X78.5 Y137.325
G1 F1200 X82.5 Y137.325 E8.8451
G1 X82.5 Y140.301 E8.93418
G1 X82.15 Y141.15 E8.96167
G1 X81.301 Y141.5 E8.98916
G1 X79.699 Y141.5 E9.03712
G1 X78.85 Y141.15 E9.0646
G1 X78.5 Y140.301 E9.09209
G1 X78.5 Y137.325 E9.18118
G0 F6000 X78.1 Y136.925
G1 F1200 X82.9 Y136.925 E9.32486
G1 X82.9 Y140.379 E9.42825
G1 X82.456 Y141.456 E9.46313
G1 X81.379 Y141.9 E9.498
G1 X79.621 Y141.9 E9.55062
G1 X78.544 Y141.456 E9.58549
G1 X78.1 Y140.379 E9.62036
G1 X78.1 Y136.925 E9.72376
G0 F6000 X77.7 Y136.525
G1 F1200 X83.3 Y136.525 E9.89139
G1 X83.3 Y140.46 E10.00918
G1 X82.762 Y141.762 E10.05135
G1 X81.46 Y142.3 E10.09352
G1 X79.54 Y142.3 E10.15099
G1 X78.238 Y141.762 E10.19316
G1 X77.7 Y140.46 E10.23533
G1 X77.7 Y136.525 E10.35312
G1 F2400 E3.35312
;MESH:guide.stl
G0 F6000 X76.839 Y134.491
G0 X76.847 Y126.43
G0 X77.7 Y125.357
G0 X75.631 Y125.044
G0 X73.692 Y124.728
;TYPE:WALL-INNER
G1 F2400 E10.35312
G1 F1200 X74.5 Y124.889 E10.37779
G1 X75.308 Y124.728 E10.40245
G1 X75.993 Y124.27 E10.42711
G1 X76.451 Y123.585 E10.45178
G1 X76.612 Y122.777 E10.47644
G1 X76.451 Y121.969 E10.5011
G1 X75.993 Y121.284 E10.52577
G1 X75.308 Y120.826 E10.55044
G1 X74.5 Y120.665 E10.5751
G1 X73.692 Y120.826 E10.59976
G1 X73.007 Y121.284 E10.62443
G1 X72.549 Y121.969 E10.64909
G1 X72.388 Y122.777 E10.67375
G1 X72.549 Y123.585 E10.69842
G1 X73.007 Y124.27 E10.72308
G1 X73.692 Y124.728 E10.74775
G0 F6000 X73.848 Y124.351
;TYPE:WALL-OUTER
G1 F1200 X74.5 Y124.481 E10.76765
G1 X75.152 Y124.351 E10.78755
G1 X75.705 Y123.982 E10.80745
G1 X76.074 Y123.429 E10.82735
G1 X76.204 Y122.777 E10.84725
G1 X76.074 Y122.125 E10.86715
G1 X75.705 Y121.572 E10.88706
G1 X75.152 Y121.203 E10.90696
G1 X74.5 Y121.073 E10.92686
G1 X73.848 Y121.203 E10.94676
G1 X73.295 Y121.572 E10.96666
G1 X72.926 Y122.125 E10.98656
G1 X72.796 Y122.777 E11.00646
G1 X72.926 Y123.429 E11.02636
G1 X73.295 Y123.982 E11.04626
G1 X73.848 Y124.351 E11.06616
G0 F6000 X73.68 Y124.757
G1 F2400 E4.06616
G0 F6000 X73.123 Y124.154
G0 X72.702 Y123.522
G0 X72.307 Y122.132
G0 X72.307 Y95.665
G0 X73.692 Y96.971
;TYPE:WALL-INNER
G1 F2400 E11.06616
G1 F1200 X74.5 Y97.132 E11.09082
G1 X75.308 Y96.971 E11.11549
G1 X75.993 Y96.512 E11.14017
G1 X76.451 Y95.828 E11.16481
G1 X76.612 Y95.02 E11.18947
G1 X76.451 Y94.212 E11.21413
G1 X75.993 Y93.527 E11.2388
G1 X75.308 Y93.069 E11.26347
G1 X74.5 Y92.908 E11.28813
G1 X73.692 Y93.069 E11.31279
G1 X73.007 Y93.527 E11.33746
G1 X72.549 Y94.212 E11.36212
G1 X72.388 Y95.02 E11.38679
G1 X72.549 Y95.828 E11.41145
G1 X73.007 Y96.512 E11.43609
G1 X73.692 Y96.971 E11.46077
G0 F6000 X73.848 Y96.594
;TYPE:WALL-OUTER
G1 F1200 X74.5 Y96.724 E11.48067
G1 X75.152 Y96.594 E11.50057
G1 X75.705 Y96.224 E11.52049
G1 X76.074 Y95.672 E11.54037
G1 X76.204 Y95.02 E11.56027
G1 X76.074 Y94.368 E11.58017
G1 X75.705 Y93.815 E11.60007
G1 X75.152 Y93.446 E11.61997
G1 X74.5 Y93.316 E11.63987
G1 X73.848 Y93.446 E11.65977
G1 X73.295 Y93.815 E11.67967
G1 X72.926 Y94.368 E11.69957
G1 X72.796 Y95.02 E11.71947
G1 X72.926 Y95.672 E11.73938
G1 X73.295 Y96.224 E11.75925
G1 X73.848 Y96.594 E11.77917
G0 F6000 X73.68 Y97
G1 F2400 E4.77917
G0 F6000 X74.5 Y96.968
G0 X75.245 Y96.818
G0 X75.877 Y96.396
G0 X76.298 Y95.765
G0 X76.448 Y95.02
G0 X76.326 Y94.441
G0 X76.649 Y94.13
G0 X75.261 Y94.705
G0 X84.165 Y94.13
G0 X82.71 Y94.13
G0 X82.9 Y91.42
;TYPE:WALL-INNER
G1 F2400 E11.77917
G1 F1200 X82.9 Y126.179 E12.81965
G1 X83.641 Y126.485 E12.84365
G1 X90.1 Y120.026 E13.11708
G1 X90.1 Y102.562 E13.63985
G1 X90.1 Y102 E13.65667
G1 X90.1 Y101.438 E13.67349
G1 X90.1 Y91.42 E13.97337
G1 X82.9 Y91.42 E14.1889
G0 F6000 X83.3 Y91.82
;TYPE:WALL-OUTER
G1 F1200 X83.3 Y125.911 E15.20938
G1 X83.547 Y126.013 E15.21738
G1 X89.7 Y119.86 E15.47786
G1 X89.7 Y91.82 E16.31721
G1 X83.3 Y91.82 E16.50879
G0 F6000 X83 Y91.82
G0 X89.928 Y91.592
G0 X89.922 Y101.482
G0 X91.002 Y103.187
G0 X91.692 Y103.951
;TYPE:WALL-INNER
G1 F1200 X92.5 Y104.112 E16.53345
G1 X93.308 Y103.951 E16.55811
G1 X93.993 Y103.493 E16.58278
G1 X94.451 Y102.808 E16.60745
G1 X94.612 Y102 E16.63211
G1 X94.451 Y101.192 E16.65677
G1 X93.993 Y100.507 E16.68144
G1 X93.308 Y100.049 E16.7061
G1 X92.5 Y99.888 E16.73076
G1 X91.692 Y100.049 E16.75543
G1 X91.007 Y100.507 E16.78009
G1 X90.549 Y101.192 E16.80476
G1 X90.388 Y102 E16.82722
G1 X90.549 Y102.808 E16.84968
G1 X91.007 Y103.493 E16.87434
G1 X91.692 Y103.951 E16.89901
G0 F6000 X91.848 Y103.574
;TYPE:WALL-OUTER
G1 F1200 X92.5 Y103.704 E16.91891
G1 X93.152 Y103.574 E16.93881
G1 X93.705 Y103.205 E16.95871
G1 X94.074 Y102.652 E16.97861
G1 X94.204 Y102 E16.99851
G1 X94.074 Y101.348 E17.01841
G1 X93.705 Y100.795 E17.03832
G1 X93.152 Y100.426 E17.05822
G1 X92.5 Y100.296 E17.07812
G1 X91.848 Y100.426 E17.09802
G1 X91.295 Y100.795 E17.11792
G1 X90.926 Y101.348 E17.13782
G1 X90.796 Y102 E17.15772
G1 X90.926 Y102.652 E17.17762
G1 X91.295 Y103.205 E17.19752
G1 X91.848 Y103.574 E17.21742
G0 F6000 X91.68 Y103.98
G0 X91.123 Y103.377
G0 X90.702 Y102.745
G0 X90.552 Y102
G0 X90.702 Y101.255
G0 X91.123 Y100.623
G0 X92.5 Y99.714
G0 X94.613 Y101.125
G0 X94.9 Y85.42
;TYPE:WALL-INNER
G1 F1200 X94.9 Y101.438 E17.69691
G1 X94.9 Y102 E17.71153
G1 X94.9 Y102.562 E17.72615
G1 X94.9 Y118.62 E18.20683
G1 X125.1 Y118.62 E19.11084
G1 X125.1 Y102.562 E19.59153
G1 X125.1 Y102 E19.60835
G1 X125.1 Y101.438 E19.62517
G1 X125.1 Y85.42 E20.10466
G1 X94.9 Y85.42 E21.00867
G0 F6000 X95.3 Y85.82
;TYPE:WALL-OUTER
G1 F1200 X95.3 Y118.22 E21.97853
G1 X124.7 Y118.22 E22.8586
G1 X124.7 Y85.82 E23.82846
G1 X95.3 Y85.82 E24.70853
G1 F2400 E17.70853
G0 F6000 X95 Y85.82
G0 X124.928 Y85.592
G0 X125.307 Y102.645
G0 X126.692 Y103.951
;TYPE:WALL-INNER
G1 F2400 E24.70853
G1 F1200 X127.5 Y104.112 E24.73319
G1 X128.308 Y103.951 E24.75785
G1 X128.993 Y103.493 E24.78252
G1 X129.451 Y102.808 E24.80718
G1 X129.612 Y102 E24.83184
G1 X129.451 Y101.192 E24.85651
G1 X128.993 Y100.507 E24.88117
G1 X128.308 Y100.049 E24.90584
G1 X127.5 Y99.888 E24.9305
G1 X126.692 Y100.049 E24.95516
G1 X126.007 Y100.507 E24.97983
G1 X125.549 Y101.192 E25.00449
G1 X125.388 Y102 E25.02695
G1 X125.549 Y102.808 E25.04941
G1 X126.007 Y103.493 E25.07408
G1 X126.692 Y103.951 E25.09875
G0 F6000 X126.848 Y103.574
;TYPE:WALL-OUTER
G1 F1200 X127.5 Y103.704 E25.11865
G1 X128.152 Y103.574 E25.13855
G1 X128.705 Y103.205 E25.15845
G1 X129.074 Y102.652 E25.17835
G1 X129.204 Y102 E25.19825
G1 X129.074 Y101.348 E25.21815
G1 X128.705 Y100.795 E25.23805
G1 X128.152 Y100.426 E25.25795
G1 X127.5 Y100.296 E25.27785
G1 X126.848 Y100.426 E25.29775
G1 X126.295 Y100.795 E25.31765
G1 X125.926 Y101.348 E25.33756
G1 X125.796 Y102 E25.35746
G1 X125.926 Y102.652 E25.37736
G1 X126.295 Y103.205 E25.39726
G1 X126.848 Y103.574 E25.41716
G0 F6000 X126.68 Y103.98
G1 F2400 E18.41716
G0 F6000 X127.5 Y103.948
G0 X128.245 Y103.798
G0 X128.877 Y103.377
G0 X130.066 Y101.742
G0 X130.072 Y91.592
G0 X136.928 Y91.592
G0 X137.29 Y96.971
G0 X135.835 Y96.971
G0 X144.918 Y95.602
G0 X143.856 Y96.663
G0 X144.692 Y96.971
;TYPE:WALL-INNER
G1 F2400 E25.41716
G1 F1200 X145.5 Y97.132 E25.44182
G1 X146.308 Y96.971 E25.46648
G1 X146.993 Y96.512 E25.49117
G1 X147.451 Y95.828 E25.51581
G1 X147.612 Y95.02 E25.54047
G1 X147.451 Y94.212 E25.56513
G1 X146.993 Y93.527 E25.5898
G1 X146.308 Y93.069 E25.61446
G1 X145.5 Y92.908 E25.63913
G1 X144.692 Y93.069 E25.66379
G1 X144.007 Y93.527 E25.68845
G1 X143.549 Y94.212 E25.71312
G1 X143.388 Y95.02 E25.73778
G1 X143.549 Y95.828 E25.76244
G1 X144.007 Y96.512 E25.78708
G1 X144.692 Y96.971 E25.81177
G0 F6000 X144.848 Y96.594
;TYPE:WALL-OUTER
G1 F1200 X145.5 Y96.724 E25.83167
G1 X146.152 Y96.594 E25.85157
G1 X146.705 Y96.224 E25.87149
G1 X147.074 Y95.672 E25.89136
G1 X147.204 Y95.02 E25.91126
G1 X147.074 Y94.368 E25.93117
G1 X146.705 Y93.815 E25.95107
G1 X146.152 Y93.446 E25.97097
G1 X145.5 Y93.316 E25.99087
G1 X144.848 Y93.446 E26.01077
G1 X144.295 Y93.815 E26.03067
G1 X143.926 Y94.368 E26.05057
G1 X143.796 Y95.02 E26.07047
G1 X143.926 Y95.672 E26.09037
G1 X144.295 Y96.224 E26.11025
G1 X144.848 Y96.594 E26.13016
G0 F6000 X144.68 Y97
G1 F2400 E19.13016
G0 F6000 X143.351 Y95.91
G0 X144.739 Y95.335
G0 X135.835 Y95.91
G0 X137.29 Y95.91
G0 X136.928 Y91.592
G0 X129.9 Y91.42
;TYPE:WALL-INNER
G1 F2400 E26.13016
G1 F1200 X129.9 Y101.438 E26.43004
G1 X129.9 Y102 E26.44467
G1 X129.9 Y102.562 E26.45929
G1 X129.9 Y120.026 E26.98206
G1 X136.359 Y126.485 E27.25549
G1 X137.1 Y126.179 E27.27949
G1 X137.1 Y91.42 E28.31997
G1 X129.9 Y91.42 E28.53549
G0 F6000 X130.3 Y91.82
;TYPE:WALL-OUTER
G1 F1200 X130.3 Y119.86 E29.37485
G1 X136.453 Y126.013 E29.63532
G1 X136.7 Y125.911 E29.64332
G1 X136.7 Y91.82 E30.66381
G1 X130.3 Y91.82 E30.85538
G1 F2400 E23.85538
G0 F6000 X130 Y91.82
G0 X136.928 Y91.592
G0 X137.29 Y124.728
G0 X135.86 Y124.233
G0 X144.739 Y123.092
G0 X143.351 Y123.667
G0 X144.692 Y124.728
;TYPE:WALL-INNER
G1 F2400 E30.85538
G1 F1200 X145.5 Y124.889 E30.88005
G1 X146.308 Y124.728 E30.90471
G1 X146.993 Y124.27 E30.92937
G1 X147.451 Y123.585 E30.95404
G1 X147.612 Y122.777 E30.9787
G1 X147.451 Y121.969 E31.00337
G1 X146.993 Y121.284 E31.02803
G1 X146.308 Y120.826 E31.0527
G1 X145.5 Y120.665 E31.07736
G1 X144.692 Y120.826 E31.10202
G1 X144.007 Y121.284 E31.12669
G1 X143.549 Y121.969 E31.15135
G1 X143.388 Y122.777 E31.17602
G1 X143.549 Y123.585 E31.20068
G1 X144.007 Y124.27 E31.22534
