;FLAVOR:Marlin
;TIME:1658
;Filament used: 1.35689m
;Layer height: 0.2
;MINX:91.789
;MINY:55.96
;MINZ:0.2
;MAXX:128.115
;MAXY:164.04
;MAXZ:10
;Generated with Cura_SteamEngine 4.13.1
M140 S60
M105
M190 S60
M104 S195
M105
M109 S195
M82 ;absolute extrusion mode
G28 ;Home
G92 E0 ;Reset Extruder
G1 Z2.0 F3000 ;Move bed down
G1 X10.1 Y20 Z0.28 F5000.0 ;Move to start position
G1 X10.1 Y200.0 Z0.28 F1500.0 E15 ;Draw the first line
G1 X10.4 Y200.0 Z0.28 F5000.0 ;Move to side a little
G1 X10.4 Y20 Z0.28 F1500.0 E30 ;Draw the second line
G92 E0 ;Reset Extruder
G1 Z2.0 F3000 ;Move Bed up
G92 E0
G92 E0
G1 F2400 E-7
;LAYER_COUNT:50
;LAYER:0
M107
G0 F6000 X122.064 Y63.375 Z0.2
;TYPE:SKIRT
G1 F2400 E0
G1 F1200 X122.836 Y63.375 E0.02311
G1 X122.836 Y137.375 E2.23823
G1 X122.063 Y137.375 E2.26137
G1 X122.064 Y63.375 E4.4765
G0 F6000 X121.664 Y62.975
G1 F1200 X123.236 Y62.975 E4.52355
G1 X123.236 Y137.775 E6.76263
G1 X121.663 Y137.775 E6.80971
G1 X121.664 Y62.975 E9.04879
G0 F6000 X121.264 Y62.575
G1 F1200 X123.636 Y62.575 E9.11979
G1 X123.636 Y138.175 E11.38281
G1 X121.263 Y138.175 E11.45384
G1 X121.264 Y62.575 E13.71686
G0 F6000 X120.864 Y62.175
G1 F1200 X124.036 Y62.175 E13.81181
G1 X124.036 Y138.575 E16.09878
G1 X120.863 Y138.575 E16.19376
G1 X120.864 Y62.175 E18.48073
G0 F6000 X120.464 Y61.775
G1 F1200 X124.436 Y61.775 E18.59963
G1 X124.436 Y138.975 E20.91054
G1 X120.463 Y138.975 E21.02947
G1 X120.464 Y61.775 E23.34038
G0 F6000 X120.064 Y61.375
G1 F1200 X124.836 Y61.375 E23.48323
G1 X124.836 Y139.375 E25.81809
G1 X120.063 Y139.375 E25.96097
G1 X120.064 Y61.375 E28.29583
G1 F2400 E21.29583
;MESH:Sign.stl
G0 F6000 X120.064 Y59.955
G0 X126.85 Y59.775
;TYPE:WALL-INNER
G1 F2400 E28.29583
G1 F1200 X93.05 Y59.775 E29.3076
G1 X93.05 Y57.225 E29.38393
G1 X126.85 Y57.225 E30.39571
G1 X126.85 Y59.775 E30.47204
G0 F6000 X127.25 Y60.175
;TYPE:WALL-OUTER
G1 F1200 X92.65 Y60.175 E31.50776
G1 X92.65 Y56.825 E31.60804
G1 X127.25 Y56.825 E32.64376
G1 X127.25 Y60.175 E32.74404
G0 F6000 X126.98 Y59.905
G0 X126.74 Y59.385
G0 X126.46 Y59.385
;TYPE:SKIN
G1 F1200 X93.44 Y59.385 E33.73246
G1 X93.44 Y57.615 E33.78545
G1 X126.46 Y57.615 E34.77387
G1 X126.46 Y59.385 E34.82685
G0 F6000 X126.74 Y59.385
G0 X126.74 Y57.891
G0 X126.339 Y57.891
G1 F1200 X126.182 Y57.734 E34.8335
G0 F6000 X125.616 Y57.734
G1 F1200 X126.339 Y58.457 E34.86411
G0 F6000 X126.339 Y59.022
G1 F1200 X125.051 Y57.734 E34.91863
G0 F6000 X124.485 Y57.734
G1 F1200 X126.015 Y59.264 E34.9834
G0 F6000 X125.449 Y59.264
G1 F1200 X123.919 Y57.734 E35.04817
G0 F6000 X123.354 Y57.734
G1 F1200 X124.884 Y59.264 E35.11294
G0 F6000 X124.318 Y59.264
G1 F1200 X122.788 Y57.734 E35.17771
G0 F6000 X122.222 Y57.734
G1 F1200 X123.752 Y59.264 E35.24248
G0 F6000 X123.187 Y59.264
G1 F1200 X121.657 Y57.734 E35.30725
G0 F6000 X121.091 Y57.734
G1 F1200 X122.621 Y59.264 E35.37202
G0 F6000 X122.055 Y59.264
G1 F1200 X120.525 Y57.734 E35.43679
G0 F6000 X119.959 Y57.734
G1 F1200 X121.49 Y59.264 E35.50158
G0 F6000 X120.924 Y59.264
G1 F1200 X119.394 Y57.734 E35.56635
G0 F6000 X118.828 Y57.734
G1 F1200 X120.358 Y59.264 E35.63112
G0 F6000 X119.793 Y59.264
G1 F1200 X118.262 Y57.734 E35.69591
G0 F6000 X117.697 Y57.734
G1 F1200 X119.227 Y59.264 E35.76068
G0 F6000 X118.661 Y59.264
G1 F1200 X117.131 Y57.734 E35.82545
G0 F6000 X116.565 Y57.734
G1 F1200 X118.096 Y59.264 E35.89024
G0 F6000 X117.53 Y59.264
G1 F1200 X116 Y57.734 E35.95501
G0 F6000 X115.434 Y57.734
G1 F1200 X116.964 Y59.264 E36.01978
G0 F6000 X116.398 Y59.264
G1 F1200 X114.868 Y57.734 E36.08455
G0 F6000 X114.303 Y57.734
G1 F1200 X115.833 Y59.264 E36.14932
G0 F6000 X115.267 Y59.264
G1 F1200 X113.737 Y57.734 E36.21409
G0 F6000 X113.171 Y57.734
G1 F1200 X114.701 Y59.264 E36.27886
G0 F6000 X114.136 Y59.264
G1 F1200 X112.606 Y57.734 E36.34363
G0 F6000 X112.04 Y57.734
G1 F1200 X113.57 Y59.264 E36.4084
G0 F6000 X113.004 Y59.264
G1 F1200 X111.474 Y57.734 E36.47317
G0 F6000 X110.908 Y57.734
G1 F1200 X112.439 Y59.264 E36.53796
G0 F6000 X111.873 Y59.264
G1 F1200 X110.343 Y57.734 E36.60273
G0 F6000 X109.777 Y57.734
G1 F1200 X111.307 Y59.264 E36.6675
G0 F6000 X110.742 Y59.264
G1 F1200 X109.211 Y57.734 E36.73229
G0 F6000 X108.646 Y57.734
G1 F1200 X110.176 Y59.264 E36.79706
G0 F6000 X109.61 Y59.264
G1 F1200 X108.08 Y57.734 E36.86183
G0 F6000 X107.514 Y57.734
G1 F1200 X109.045 Y59.264 E36.92662
G0 F6000 X108.479 Y59.264
G1 F1200 X106.949 Y57.734 E36.99139
G0 F6000 X106.383 Y57.734
G1 F1200 X107.913 Y59.264 E37.05616
G0 F6000 X107.348 Y59.264
G1 F1200 X105.817 Y57.734 E37.12096
G0 F6000 X105.252 Y57.734
G1 F1200 X106.782 Y59.264 E37.18573
G0 F6000 X106.216 Y59.264
G1 F1200 X104.686 Y57.734 E37.2505
G0 F6000 X104.12 Y57.734
G1 F1200 X105.65 Y59.264 E37.31527
G0 F6000 X105.085 Y59.264
G1 F1200 X103.555 Y57.734 E37.38003
G0 F6000 X102.989 Y57.734
G1 F1200 X104.519 Y59.264 E37.4448
G0 F6000 X103.953 Y59.264
G1 F1200 X102.423 Y57.734 E37.50957
G0 F6000 X101.858 Y57.734
G1 F1200 X103.388 Y59.264 E37.57434
G0 F6000 X102.822 Y59.264
G1 F1200 X101.292 Y57.734 E37.63911
G0 F6000 X100.726 Y57.734
G1 F1200 X102.256 Y59.264 E37.70388
G0 F6000 X101.691 Y59.264
G1 F1200 X100.16 Y57.734 E37.76868
G0 F6000 X99.595 Y57.734
G1 F1200 X101.125 Y59.264 E37.83345
G0 F6000 X100.559 Y59.264
G1 F1200 X99.029 Y57.734 E37.89822
G0 F6000 X98.463 Y57.734
G1 F1200 X99.994 Y59.264 E37.96301
G0 F6000 X99.428 Y59.264
G1 F1200 X97.898 Y57.734 E38.02778
G0 F6000 X97.332 Y57.734
G1 F1200 X98.862 Y59.264 E38.09255
G0 F6000 X98.297 Y59.264
G1 F1200 X96.766 Y57.734 E38.15734
G0 F6000 X96.201 Y57.734
G1 F1200 X97.731 Y59.264 E38.22211
G0 F6000 X97.165 Y59.264
G1 F1200 X95.635 Y57.734 E38.28688
G0 F6000 X95.069 Y57.734
G1 F1200 X96.599 Y59.264 E38.35165
G0 F6000 X96.034 Y59.264
G1 F1200 X94.504 Y57.734 E38.41642
G0 F6000 X93.938 Y57.734
G1 F1200 X95.468 Y59.264 E38.48119
G0 F6000 X94.902 Y59.264
G1 F1200 X93.559 Y57.921 E38.53804
G0 F6000 X93.559 Y58.486
G1 F1200 X94.337 Y59.264 E38.57097
G0 F6000 X93.771 Y59.264
G1 F1200 X93.559 Y59.052 E38.57995
G0 F6000 X93.25 Y59.052
G1 F2400 E31.57995
G0 F6000 X93.16 Y59.052
G0 X93.232 Y59.593
G0 X121.845 Y59.955
G0 X121.845 Y61.04
G0 X122.45 Y151.543
G0 X122.45 Y150.081
G0 X120.815 Y150.929
G0 X120.37 Y151.295
G0 X120.004 Y151.742
G0 X119.729 Y152.258
G0 X119.565 Y152.802
G0 X119.508 Y153.375
G0 X119.565 Y153.948
G0 X119.732 Y154.501
G0 X120.004 Y155.01
G0 X120.377 Y155.461
G0 X120.626 Y155.664
G0 X121.845 Y156.418
;TYPE:WALL-INNER
G1 F2400 E38.57995
G1 F1200 X122.45 Y156.478 E38.59815
G1 X123.056 Y156.418 E38.61638
G1 X123.646 Y156.238 E38.63484
G1 X124.175 Y155.955 E38.6528
G1 X124.644 Y155.569 E38.67098
G1 X125.03 Y155.099 E38.68919
G1 X125.317 Y154.563 E38.70739
G1 X125.493 Y153.98 E38.72562
G1 X125.553 Y153.375 E38.74382
G1 X125.493 Y152.77 E38.76202
G1 X125.317 Y152.187 E38.78025
G1 X125.03 Y151.651 E38.79845
G1 X124.644 Y151.181 E38.81665
G1 X124.174 Y150.795 E38.83486
G1 X123.638 Y150.508 E38.85306
G1 X123.055 Y150.332 E38.87129
G1 X122.45 Y150.272 E38.88949
G1 X121.845 Y150.332 E38.90768
G1 X121.262 Y150.508 E38.92591
G1 X120.726 Y150.795 E38.94411
G1 X120.256 Y151.181 E38.96232
G1 X119.87 Y151.652 E38.98055
G1 X119.579 Y152.197 E38.99904
G1 X119.407 Y152.77 E39.01695
G1 X119.347 Y153.375 E39.03515
G1 X119.407 Y153.98 E39.05335
G1 X119.583 Y154.563 E39.07158
G1 X119.87 Y155.1 E39.0898
G1 X120.263 Y155.576 E39.10828
G1 X120.727 Y155.955 E39.12622
G1 X121.272 Y156.246 E39.14471
G1 X121.845 Y156.418 E39.16262
G0 F6000 X121.923 Y156.024
;TYPE:WALL-OUTER
G1 F1200 X122.45 Y156.076 E39.17847
G1 X122.977 Y156.024 E39.19432
G1 X123.492 Y155.867 E39.21044
G1 X123.951 Y155.621 E39.22603
G1 X124.36 Y155.285 E39.24187
G1 X124.696 Y154.876 E39.25772
G1 X124.946 Y154.409 E39.27357
G1 X125.099 Y153.902 E39.28943
G1 X125.151 Y153.375 E39.30528
G1 X125.099 Y152.848 E39.32113
G1 X124.946 Y152.341 E39.33698
G1 X124.696 Y151.874 E39.35284
G1 X124.36 Y151.465 E39.36868
G1 X123.951 Y151.129 E39.38453
G1 X123.484 Y150.879 E39.40038
G1 X122.977 Y150.726 E39.41624
G1 X122.45 Y150.674 E39.43209
G1 X121.923 Y150.726 E39.44794
G1 X121.416 Y150.879 E39.46379
G1 X120.949 Y151.129 E39.47965
G1 X120.54 Y151.465 E39.49549
G1 X120.204 Y151.875 E39.51136
G1 X119.951 Y152.35 E39.52747
G1 X119.801 Y152.848 E39.54304
G1 X119.749 Y153.375 E39.55889
G1 X119.801 Y153.902 E39.57474
G1 X119.954 Y154.409 E39.5906
G1 X120.204 Y154.876 E39.60645
G1 X120.547 Y155.291 E39.62257
G1 X120.95 Y155.621 E39.63816
G1 X121.425 Y155.874 E39.65427
G1 X121.923 Y156.024 E39.66984
G0 F6000 X121.838 Y156.455
G1 F2400 E32.66984
G0 F6000 X122.45 Y156.669
G0 X122.451 Y155.207
G0 X128.115 Y156.669
G0 X126.64 Y156.669
G0 X126.85 Y162.775
;TYPE:WALL-INNER
G1 F2400 E39.66984
G1 F1200 X118.05 Y162.775 E39.93326
G1 X118.05 Y140.975 E40.58582
G1 X126.85 Y140.975 E40.84924
G1 X126.85 Y162.775 E41.50181
G0 F6000 X127.25 Y163.175
;TYPE:WALL-OUTER
G1 F1200 X117.65 Y163.175 E41.78918
G1 X117.65 Y140.575 E42.46569
G1 X127.25 Y140.575 E42.75305
G1 X127.25 Y163.175 E43.42957
G0 F6000 X126.98 Y162.905
G0 X126.74 Y162.385
G0 X126.46 Y162.385
;TYPE:SKIN
G1 F1200 X118.44 Y162.385 E43.66964
G1 X118.44 Y141.365 E44.29885
G1 X126.46 Y141.365 E44.53892
G1 X126.46 Y162.385 E45.16814
G1 F2400 E38.16814
G0 F6000 X126.74 Y162.385
G0 X126.64 Y156.34
G0 X124.779 Y155.704
G0 X123.689 Y156.34
G1 F2400 E45.16814
G0 F6000 X123.796 Y156.6
G1 F1200 X124.393 Y156.281 E45.1884
G1 X124.921 Y155.846 E45.20888
G1 X125.356 Y155.317 E45.22938
G1 X125.679 Y154.713 E45.24988
G1 X125.877 Y154.056 E45.27042
G1 X125.945 Y153.375 E45.29091
G1 X125.877 Y152.694 E45.3114
G1 X125.679 Y152.037 E45.33194
G1 X125.356 Y151.433 E45.35244
G1 X124.921 Y150.904 E45.37294
G1 X124.392 Y150.469 E45.39344
G1 X123.788 Y150.146 E45.41395
G1 X123.131 Y149.948 E45.43449
G1 X122.45 Y149.88 E45.45497
G1 X121.769 Y149.948 E45.47546
G1 X121.112 Y150.146 E45.496
G1 X120.508 Y150.469 E45.5165
G1 X119.979 Y150.904 E45.53701
G1 X119.544 Y151.434 E45.55753
G1 X119.216 Y152.047 E45.57834
G1 X119.023 Y152.694 E45.59855
G1 X118.955 Y153.375 E45.61904
G1 X119.023 Y154.056 E45.63952
G1 X119.221 Y154.713 E45.66007
G1 X119.544 Y155.318 E45.68059
G1 X119.986 Y155.853 E45.70137
G1 X120.51 Y156.281 E45.72162
G1 X121.122 Y156.609 E45.74241
G1 X121.769 Y156.802 E45.76262
G1 X122.45 Y156.87 E45.7831
G1 X123.132 Y156.802 E45.80362
G1 X123.796 Y156.6 E45.82439
G1 F2400 E38.82439
G0 F6000 X123.689 Y156.34
G0 X123.094 Y156.606
G0 X122.81 Y155.172
G0 X123.094 Y164.04
G0 X123.094 Y162.565
G0 X118.706 Y162.665
G1 F2400 E45.82439
G0 F6000 X118.706 Y162.264
G1 F1200 X118.559 Y162.117 E45.83062
G0 F6000 X118.559 Y161.551
G1 F1200 X119.271 Y162.264 E45.86078
G0 F6000 X119.837 Y162.264
G1 F1200 X118.559 Y160.986 E45.91488
G0 F6000 X118.559 Y160.42
G1 F1200 X120.403 Y162.264 E45.99294
G0 F6000 X120.968 Y162.264
G1 F1200 X118.559 Y159.854 E46.09495
G0 F6000 X118.559 Y159.289
G1 F1200 X121.534 Y162.264 E46.22089
G0 F6000 X122.1 Y162.264
G1 F1200 X118.559 Y158.723 E46.37079
G0 F6000 X118.559 Y158.157
G1 F1200 X122.666 Y162.264 E46.54465
G0 F6000 X123.231 Y162.264
G1 F1200 X118.559 Y157.592 E46.74243
G0 F6000 X118.559 Y157.026
G1 F1200 X123.797 Y162.264 E46.96418
G0 F6000 X124.363 Y162.264
G1 F1200 X118.559 Y156.46 E47.20988
G0 F6000 X118.559 Y155.895
G1 F1200 X124.928 Y162.264 E47.4795
G0 F6000 X125.494 Y162.264
G1 F1200 X118.559 Y155.329 E47.77308
G0 F6000 X118.559 Y154.763
G1 F1200 X126.06 Y162.264 E48.09062
G0 F6000 X126.34 Y161.978
G1 F1200 X121.084 Y156.723 E48.3131
G0 F6000 X121.857 Y156.93
G1 F1200 X126.34 Y161.412 E48.50286
G0 F6000 X126.34 Y160.846
G1 F1200 X122.479 Y156.986 E48.66629
G0 F6000 X122.994 Y156.935
G1 F1200 X126.34 Y160.281 E48.80794
G0 F6000 X126.34 Y159.715
G1 F1200 X123.453 Y156.829 E48.93013
G0 F6000 X123.88 Y156.69
G1 F1200 X126.34 Y159.149 E49.03425
G0 F6000 X126.34 Y158.584
G1 F1200 X124.249 Y156.493 E49.12277
G0 F6000 X124.592 Y156.271
G1 F1200 X126.34 Y158.018 E49.19675
G0 F6000 X126.34 Y157.452
G1 F1200 X124.903 Y156.016 E49.25756
G0 F6000 X125.175 Y155.722
G1 F1200 X126.34 Y156.887 E49.30688
G0 F6000 X126.34 Y156.321
G1 F1200 X125.43 Y155.412 E49.34538
G0 F6000 X125.633 Y155.049
G1 F1200 X126.34 Y155.755 E49.37529
G0 F6000 X126.34 Y155.19
G1 F1200 X125.817 Y154.667 E49.39743
G0 F6000 X125.948 Y154.232
G1 F1200 X126.34 Y154.624 E49.41402
G0 F6000 X126.34 Y154.058
G1 F1200 X126.027 Y153.746 E49.42725
G0 F6000 X126.34 Y153.493
G1 F1200 X126.046 Y153.199 E49.4397
G0 F6000 X126.34 Y152.927
G1 F1200 X125.956 Y152.544 E49.45593
G0 F6000 X126.34 Y152.361
G1 F1200 X125.584 Y151.605 E49.48793
G0 F6000 X126.34 Y151.796
G1 F1200 X118.559 Y144.015 E49.81733
G0 F6000 X118.559 Y143.45
G1 F1200 X126.34 Y151.23 E50.1467
G0 F6000 X126.34 Y150.664
G1 F1200 X118.559 Y142.884 E50.47608
G0 F6000 X118.559 Y142.318
G1 F1200 X126.34 Y150.098 E50.80545
G0 F6000 X126.34 Y149.533
G1 F1200 X118.559 Y141.752 E51.13485
G0 F6000 X118.856 Y141.484
G1 F1200 X126.34 Y148.967 E51.45165
G0 F6000 X126.34 Y148.401
M104 S210
G1 F1200 X119.422 Y141.484 E51.74449
G0 F6000 X119.988 Y141.484
G1 F1200 X126.34 Y147.836 E52.01339
G0 F6000 X126.34 Y147.27
G1 F1200 X120.553 Y141.484 E52.25835
G0 F6000 X121.119 Y141.484
G1 F1200 X126.34 Y146.704 E52.47935
G0 F6000 X126.34 Y146.139
G1 F1200 X121.685 Y141.484 E52.67641
G0 F6000 X122.25 Y141.484
G1 F1200 X126.34 Y145.573 E52.84953
G0 F6000 X126.34 Y145.007
G1 F1200 X122.816 Y141.484 E52.99869
G0 F6000 X123.382 Y141.484
G1 F1200 X126.34 Y144.442 E53.12392
G0 F6000 X126.34 Y143.876
G1 F1200 X123.948 Y141.484 E53.22518
G0 F6000 X124.513 Y141.484
G1 F1200 X126.34 Y143.31 E53.3025
G0 F6000 X126.34 Y142.745
G1 F1200 X125.079 Y141.484 E53.35588
G0 F6000 X125.645 Y141.484
G1 F1200 X126.34 Y142.179 E53.3853
G0 F6000 X126.34 Y141.613
G1 F1200 X126.21 Y141.484 E53.39078
G0 F6000 X126.21 Y141.085
G0 X118.232 Y141.157
G0 X118.16 Y144.581
G0 X118.559 Y144.581
G1 F1200 X124.218 Y150.239 E53.63033
G0 F6000 X124.028 Y150.592
G0 X123.164 Y150.248
G0 X123.279 Y149.866
G1 F1200 X118.559 Y145.147 E53.83012
G0 F6000 X118.559 Y145.712
G1 F1200 X122.623 Y149.776 E54.00216
G0 F6000 X122.077 Y149.796
G1 F1200 X118.559 Y146.278 E54.15109
G0 F6000 X118.559 Y146.844
G1 F1200 X121.591 Y149.875 E54.27942
G0 F6000 X121.156 Y150.006
G1 F1200 X118.559 Y147.409 E54.38936
G0 F6000 X118.559 Y147.975
G1 F1200 X120.773 Y150.189 E54.48309
G0 F6000 X120.411 Y150.392
G1 F1200 X118.559 Y148.541 E54.56147
G0 F6000 X118.559 Y149.106
G1 F1200 X120.1 Y150.647 E54.6267
G0 F6000 X119.809 Y150.922
G1 F1200 X118.559 Y149.672 E54.67962
G0 F6000 X118.559 Y150.238
G1 F1200 X119.554 Y151.232 E54.72172
G0 F6000 X119.332 Y151.576
G1 F1200 X118.559 Y150.803 E54.75444
G0 F6000 X118.559 Y151.369
G1 F1200 X119.134 Y151.944 E54.77879
G0 F6000 X118.994 Y152.37
G1 F1200 X118.559 Y151.935 E54.7972
G0 F6000 X118.559 Y152.501
G1 F1200 X118.889 Y152.83 E54.81115
G0 F6000 X118.559 Y153.066
G1 F1200 X118.838 Y153.345 E54.82296
G0 F6000 X118.559 Y153.632
G1 F1200 X118.894 Y153.966 E54.83712
G0 F6000 X118.559 Y154.198
G1 F1200 X119.105 Y154.743 E54.86021
G0 F6000 X119.416 Y154.675
G1 F2400 E47.86021
;MESH:NONMESH
G0 F300 X119.416 Y154.675 Z0.4
G0 F6000 X119.496 Y154.633
G0 X119.565 Y152.802
G0 X120.121 Y151.046
G0 X121.155 Y152.078
G0 X121.6 Y61.375
;TIME_ELAPSED:103.547121
;LAYER:1
M106 S255
;TYPE:SUPPORT
G1 F2400 E54.86021
G1 F1500 X120.064 Y61.375 E54.90619
G1 X120.063 Y139.375 E57.24105
G1 X121.6 Y139.375 E57.28706
G1 X121.6 Y61.375 E59.62192
G1 X123.2 Y61.375 E59.66982
G1 X123.2 Y139.375 E62.00468
G1 X124.8 Y139.375 E62.05257
G1 X124.836 Y139.375 E62.05365
G1 X124.836 Y61.375 E64.38851
G1 X124.8 Y61.375 E64.38959
G1 X124.8 Y139.375 E66.72445
G1 F2400 E59.72445
;MESH:Sign.stl
G0 F8400 X125.689 Y139.722
G0 X122.814 Y151.578
G0 X123.093 Y150.144
G0 X124.53 Y151.295
G0 X124.896 Y151.74
G0 X125.168 Y152.249
G0 X125.335 Y152.802
G0 X125.392 Y153.375
G0 X125.335 Y153.948
G0 X125.168 Y154.501
G0 X124.896 Y155.01
G0 X124.53 Y155.455
G0 X124.085 Y155.821
G0 X123.576 Y156.093
G0 X123.264 Y156.187
G0 X121.845 Y156.418
;TYPE:WALL-INNER
G1 F2400 E66.72445
G1 F1800 X122.45 Y156.478 E66.74265
G1 X123.055 Y156.418 E66.76085
G1 X123.638 Y156.242 E66.77908
