;FLAVOR:Marlin
;TIME:1955
;Filament used: 1.49755m
;Layer height: 0.2
;MINX:77.772
;MINY:77.772
;MINZ:0.2
;MAXX:142.228
;MAXY:142.228
;MAXZ:4.2
;Generated with Cura_SteamEngine 4.13.1
M140 S60
M105
M190 S60
M104 S195
M105
M109 S195
M82 ;absolute extrusion mode
G28 ;Home
G92 E0 ;Reset Extruder
G1 Z2.0 F3000 ;Move bed down
G1 X10.1 Y20 Z0.28 F5000.0 ;Move to start position
G1 X10.1 Y200.0 Z0.28 F1500.0 E15 ;Draw the first line
G1 X10.4 Y200.0 Z0.28 F5000.0 ;Move to side a little
G1 X10.4 Y20 Z0.28 F1500.0 E30 ;Draw the second line
G92 E0 ;Reset Extruder
G1 Z2.0 F3000 ;Move Bed up
G92 E0
G92 E0
G1 F2400 E-7
;LAYER_COUNT:21
;LAYER:0
M107
G0 F6000 X89.343 Y85.339 Z0.2
;TYPE:SKIRT
G1 F2400 E0
G1 F1200 X89.91 Y84.789 E0.02365
G1 X90.577 Y84.266 E0.04902
G1 X92.457 Y82.949 E0.11773
G1 X93.126 Y82.529 E0.14137
G1 X93.833 Y82.179 E0.16499
G1 X94.573 Y81.902 E0.18864
G1 X95.337 Y81.702 E0.21228
G1 X96.117 Y81.58 E0.23591
G1 X96.728 Y81.547 E0.25423
G1 X97.2 Y81.051 E0.27473
G1 X97.8 Y80.537 E0.29838
G1 X98.448 Y80.086 E0.32201
G1 X99.139 Y79.704 E0.34564
G1 X99.865 Y79.393 E0.36929
G1 X100.553 Y79.174 E0.3909
G1 X102.773 Y78.58 E0.45969
G1 X103.545 Y78.415 E0.48332
G1 X104.33 Y78.329 E0.50696
G1 X105.12 Y78.322 E0.53061
G1 X105.906 Y78.395 E0.55424
G1 X106.681 Y78.548 E0.57788
G1 X107.262 Y78.725 E0.59607
G1 X107.811 Y78.447 E0.61449
G1 X108.547 Y78.162 E0.63811
G1 X109.309 Y77.953 E0.66176
G1 X110.088 Y77.823 E0.68541
G1 X110.876 Y77.772 E0.70904
G1 X111.666 Y77.801 E0.73271
G1 X113.951 Y78.001 E0.80137
G1 X114.733 Y78.109 E0.825
G1 X115.5 Y78.296 E0.84863
G1 X116.245 Y78.56 E0.87229
G1 X116.959 Y78.898 E0.89594
G1 X117.635 Y79.306 E0.91957
G1 X118.125 Y79.674 E0.93792
G1 X118.776 Y79.599 E0.95753
G1 X119.565 Y79.588 E0.98115
G1 X120.352 Y79.657 E1.0048
G1 X121.128 Y79.806 E1.02845
G1 X121.884 Y80.032 E1.05207
G1 X122.574 Y80.314 E1.07439
G1 X124.656 Y81.285 E1.14315
G1 X125.354 Y81.655 E1.1668
G1 X126.011 Y82.093 E1.19044
G1 X126.62 Y82.595 E1.21406
G1 X127.175 Y83.157 E1.23771
G1 X127.671 Y83.771 E1.26133
G1 X128.001 Y84.278 E1.27944
G1 X128.651 Y84.434 E1.29945
G1 X129.397 Y84.694 E1.3231
G1 X130.112 Y85.028 E1.34672
G1 X130.79 Y85.433 E1.37036
G1 X131.424 Y85.905 E1.39402
G1 X131.974 Y86.405 E1.41627
G1 X133.597 Y88.029 E1.485
G1 X134.126 Y88.615 E1.50863
G1 X134.594 Y89.252 E1.5323
G1 X134.994 Y89.933 E1.55594
G1 X135.324 Y90.65 E1.57956
G1 X135.579 Y91.397 E1.60319
G1 X135.718 Y91.994 E1.62154
G1 X136.24 Y92.335 E1.6402
G1 X136.854 Y92.832 E1.66385
G1 X137.414 Y93.388 E1.68747
G1 X137.915 Y93.999 E1.71112
G1 X138.353 Y94.656 E1.73476
G1 X138.715 Y95.342 E1.75798
G1 X139.686 Y97.424 E1.82675
G1 X139.983 Y98.156 E1.85039
G1 X140.205 Y98.914 E1.87404
G1 X140.349 Y99.69 E1.89766
G1 X140.413 Y100.477 E1.9213
G1 X140.398 Y101.267 E1.94495
G1 X140.325 Y101.869 E1.9631
G1 X140.741 Y102.436 E1.98415
G1 X141.142 Y103.116 E2.00778
G1 X141.472 Y103.834 E2.03144
G1 X141.727 Y104.581 E2.05507
G1 X141.906 Y105.35 E2.0787
G1 X141.999 Y106.049 E2.09981
G1 X142.199 Y108.334 E2.16847
G1 X142.228 Y109.123 E2.1921
G1 X142.177 Y109.911 E2.21574
G1 X142.047 Y110.69 E2.23938
G1 X141.838 Y111.452 E2.26304
G1 X141.554 Y112.188 E2.28665
G1 X141.277 Y112.732 E2.30492
G1 X141.473 Y113.404 E2.32588
G1 X141.617 Y114.181 E2.34953
G1 X141.681 Y114.968 E2.37317
G1 X141.666 Y115.757 E2.39679
G1 X141.571 Y116.541 E2.42043
G1 X141.42 Y117.225 E2.4414
G1 X140.826 Y119.446 E2.51022
G1 X140.584 Y120.198 E2.53387
G1 X140.267 Y120.921 E2.5575
G1 X139.878 Y121.608 E2.58113
G1 X139.422 Y122.253 E2.60478
G1 X138.903 Y122.848 E2.62841
G1 X138.455 Y123.268 E2.64679
G1 X138.417 Y123.915 E2.66619
G1 X138.291 Y124.694 E2.68981
G1 X138.088 Y125.457 E2.71345
G1 X137.808 Y126.196 E2.73711
G1 X137.455 Y126.902 E2.76073
G1 X137.051 Y127.542 E2.78339
G1 X135.734 Y129.422 E2.8521
G1 X135.249 Y130.045 E2.87573
G1 X134.703 Y130.616 E2.89938
G1 X134.103 Y131.129 E2.92301
G1 X133.453 Y131.578 E2.94666
G1 X132.762 Y131.959 E2.97028
G1 X132.199 Y132.199 E2.9886
G1 X131.98 Y132.722 E3.00557
G1 X131.602 Y133.415 E3.0292
G1 X131.157 Y134.067 E3.05283
G1 X130.648 Y134.671 E3.07648
G1 X130.08 Y135.22 E3.10012
G1 X129.423 Y135.734 E3.12509
G1 X127.543 Y137.051 E3.19381
G1 X126.874 Y137.471 E3.21745
G1 X126.167 Y137.821 E3.24107
G1 X125.427 Y138.098 E3.26472
G1 X124.663 Y138.298 E3.28836
G1 X123.883 Y138.42 E3.31199
G1 X123.272 Y138.453 E3.33031
G1 X122.8 Y138.949 E3.3508
G1 X122.2 Y139.463 E3.37445
G1 X121.552 Y139.914 E3.39808
G1 X120.861 Y140.296 E3.42172
G1 X120.135 Y140.607 E3.44536
G1 X119.447 Y140.826 E3.46697
G1 X117.227 Y141.42 E3.53577
G1 X116.455 Y141.585 E3.5594
G1 X115.67 Y141.671 E3.58304
G1 X114.88 Y141.678 E3.60668
G1 X114.094 Y141.605 E3.63031
G1 X113.319 Y141.452 E3.65396
G1 X112.738 Y141.275 E3.67214
G1 X112.189 Y141.553 E3.69056
G1 X111.453 Y141.838 E3.71419
G1 X110.691 Y142.047 E3.73784
G1 X109.912 Y142.177 E3.76148
G1 X109.124 Y142.228 E3.78512
G1 X108.334 Y142.199 E3.80878
G1 X106.049 Y141.999 E3.87744
G1 X105.267 Y141.891 E3.90107
G1 X104.5 Y141.704 E3.92471
G1 X103.755 Y141.44 E3.94837
G1 X103.041 Y141.102 E3.97201
G1 X102.365 Y140.694 E3.99565
G1 X101.876 Y140.327 E4.01395
G1 X101.21 Y140.402 E4.03401
G1 X100.42 Y140.411 E4.05766
G1 X99.634 Y140.341 E4.08128
G1 X98.858 Y140.191 E4.10494
G1 X98.102 Y139.964 E4.12857
G1 X97.426 Y139.686 E4.15045
G1 X95.344 Y138.715 E4.21922
G1 X94.646 Y138.345 E4.24287
G1 X93.989 Y137.907 E4.2665
G1 X93.38 Y137.405 E4.29013
G1 X92.825 Y136.843 E4.31377
G1 X92.329 Y136.229 E4.3374
G1 X91.999 Y135.722 E4.35551
G1 X91.349 Y135.566 E4.37552
G1 X90.603 Y135.306 E4.39916
G1 X89.888 Y134.972 E4.42279
G1 X89.21 Y134.567 E4.44643
G1 X88.576 Y134.095 E4.47009
G1 X88.026 Y133.595 E4.49234
G1 X86.403 Y131.971 E4.56107
G1 X85.874 Y131.385 E4.5847
G1 X85.406 Y130.748 E4.60836
G1 X85.006 Y130.067 E4.632
G1 X84.676 Y129.35 E4.65563
G1 X84.421 Y128.603 E4.67925
G1 X84.282 Y128.006 E4.6976
G1 X83.76 Y127.665 E4.71627
G1 X83.146 Y127.168 E4.73991
G1 X82.586 Y126.612 E4.76354
G1 X82.085 Y126.001 E4.78719
G1 X81.647 Y125.344 E4.81082
G1 X81.285 Y124.658 E4.83404
G1 X80.314 Y122.576 E4.90281
G1 X80.017 Y121.844 E4.92646
G1 X79.795 Y121.086 E4.9501
G1 X79.651 Y120.31 E4.97373
G1 X79.587 Y119.523 E4.99736
G1 X79.602 Y118.733 E5.02101
G1 X79.675 Y118.131 E5.03917
G1 X79.259 Y117.564 E5.06022
G1 X78.858 Y116.884 E5.08385
G1 X78.528 Y116.166 E5.1075
G1 X78.273 Y115.419 E5.13113
G1 X78.094 Y114.65 E5.15476
G1 X78.001 Y113.951 E5.17587
G1 X77.801 Y111.666 E5.24453
G1 X77.772 Y110.877 E5.26817
G1 X77.823 Y110.089 E5.29181
G1 X77.953 Y109.31 E5.31545
G1 X78.162 Y108.548 E5.3391
G1 X78.446 Y107.812 E5.36271
G1 X78.723 Y107.268 E5.38099
G1 X78.527 Y106.596 E5.40194
G1 X78.383 Y105.819 E5.4256
G1 X78.319 Y105.032 E5.44923
G1 X78.334 Y104.243 E5.47285
G1 X78.429 Y103.459 E5.49649
G1 X78.58 Y102.775 E5.51746
G1 X79.174 Y100.554 E5.58628
G1 X79.416 Y99.802 E5.60993
G1 X79.733 Y99.079 E5.63356
G1 X80.122 Y98.392 E5.65719
G1 X80.578 Y97.747 E5.68084
G1 X81.097 Y97.152 E5.70447
G1 X81.546 Y96.732 E5.72288
G1 X81.583 Y96.09 E5.74213
G1 X81.708 Y95.311 E5.76574
G1 X81.911 Y94.547 E5.78941
G1 X82.19 Y93.809 E5.81302
G1 X82.543 Y93.102 E5.83668
G1 X82.949 Y92.458 E5.85947
G1 X84.266 Y90.578 E5.92818
G1 X84.751 Y89.955 E5.95181
G1 X85.297 Y89.384 E5.97546
G1 X85.897 Y88.871 E5.99909
G1 X86.547 Y88.422 E6.02274
G1 X87.238 Y88.041 E6.04636
G1 X87.802 Y87.8 E6.06472
G1 X88.015 Y87.29 E6.08126
G1 X88.391 Y86.596 E6.10489
G1 X88.835 Y85.943 E6.12853
G1 X89.343 Y85.339 E6.15215
G0 F6000 X89.705 Y85.539
G1 F1200 X90.265 Y85.011 E6.17519
G1 X90.806 Y84.593 E6.19566
G1 X92.686 Y83.276 E6.26437
G1 X93.338 Y82.868 E6.28739
G1 X94.029 Y82.53 E6.31042
G1 X94.751 Y82.266 E6.33343
G1 X95.497 Y82.077 E6.35647
G1 X96.258 Y81.968 E6.37948
G1 X96.915 Y81.942 E6.39916
G1 X96.972 Y81.869 E6.40193
G1 X97.504 Y81.314 E6.42495
G1 X98.092 Y80.817 E6.44799
G1 X98.728 Y80.384 E6.47103
G1 X99.405 Y80.02 E6.49403
G1 X100.116 Y79.727 E6.51705
G1 X100.656 Y79.56 E6.53397
G1 X102.876 Y78.966 E6.60277
G1 X103.629 Y78.807 E6.6258
G1 X104.394 Y78.726 E6.64883
G1 X105.163 Y78.724 E6.67185
G1 X105.928 Y78.803 E6.69487
G1 X106.681 Y78.961 E6.7179
G1 X107.296 Y79.158 E6.73723
G1 X107.323 Y79.141 E6.73819
G1 X108.01 Y78.796 E6.7612
G1 X108.73 Y78.523 E6.78425
G1 X109.473 Y78.327 E6.80725
G1 X110.233 Y78.209 E6.83027
G1 X111.002 Y78.171 E6.85332
G1 X111.631 Y78.199 E6.87217
G1 X113.916 Y78.399 E6.94083
G1 X114.678 Y78.506 E6.96386
G1 X115.424 Y78.691 E6.98687
G1 X116.148 Y78.953 E7.00992
G1 X116.84 Y79.288 E7.03293
G1 X117.493 Y79.694 E7.05595
G1 X118.011 Y80.095 E7.07556
G1 X118.077 Y80.081 E7.07758
G1 X118.841 Y79.996 E7.10059
G1 X119.611 Y79.991 E7.12364
G1 X120.376 Y80.065 E7.14665
G1 X121.13 Y80.219 E7.16968
G1 X121.863 Y80.45 E7.19269
G1 X122.405 Y80.677 E7.21028
G1 X124.487 Y81.648 E7.27904
G1 X125.166 Y82.008 E7.30205
G1 X125.804 Y82.438 E7.32508
G1 X126.394 Y82.931 E7.3481
G1 X126.93 Y83.483 E7.37113
G1 X127.405 Y84.088 E7.39415
G1 X127.752 Y84.636 E7.41357
G1 X127.83 Y84.647 E7.41593
G1 X128.577 Y84.829 E7.43894
G1 X129.301 Y85.087 E7.46195
G1 X129.995 Y85.42 E7.48499
G1 X130.651 Y85.822 E7.50802
G1 X131.261 Y86.29 E7.53104
G1 X131.691 Y86.688 E7.54858
G1 X133.314 Y88.312 E7.6173
G1 X133.829 Y88.884 E7.64034
G1 X134.281 Y89.505 E7.66333
G1 X134.667 Y90.171 E7.68638
G1 X134.982 Y90.873 E7.70941
G1 X135.221 Y91.604 E7.73243
G1 X135.359 Y92.241 E7.75194
G1 X135.394 Y92.259 E7.75312
G1 X136.036 Y92.682 E7.77613
G1 X136.631 Y93.17 E7.79917
G1 X137.172 Y93.717 E7.8222
G1 X137.653 Y94.317 E7.84522
G1 X138.069 Y94.964 E7.86824
G1 X138.352 Y95.511 E7.88668
G1 X139.323 Y97.593 E7.95545
G1 X139.612 Y98.306 E7.97848
G1 X139.825 Y99.045 E8.0015
G1 X139.96 Y99.803 E8.02455
G1 X140.015 Y100.57 E8.04756
G1 X139.991 Y101.339 E8.07059
G1 X139.903 Y101.986 E8.09014
G1 X139.976 Y102.068 E8.09343
G1 X140.429 Y102.69 E8.11646
G1 X140.815 Y103.355 E8.13948
G1 X141.13 Y104.057 E8.16251
G1 X141.37 Y104.788 E8.18554
G1 X141.533 Y105.539 E8.20854
G1 X141.601 Y106.084 E8.22498
G1 X141.801 Y108.369 E8.29365
G1 X141.828 Y109.137 E8.31665
G1 X141.775 Y109.905 E8.33969
G1 X141.643 Y110.663 E8.36272
G1 X141.433 Y111.402 E8.38572
G1 X141.147 Y112.117 E8.40877
G1 X140.841 Y112.699 E8.42846
G1 X140.88 Y112.796 E8.43159
G1 X141.093 Y113.536 E8.45464
G1 X141.228 Y114.293 E8.47765
G1 X141.283 Y115.06 E8.50067
G1 X141.259 Y115.829 E8.5237
G1 X141.155 Y116.591 E8.54672
G1 X141.034 Y117.122 E8.56303
G1 X140.44 Y119.343 E8.63185
G1 X140.203 Y120.075 E8.65488
G1 X139.891 Y120.778 E8.6779
G1 X139.508 Y121.445 E8.70093
G1 X139.058 Y122.068 E8.72393
G1 X138.545 Y122.642 E8.74697
G1 X138.06 Y123.082 E8.76658
G1 X138.063 Y123.143 E8.7684
G1 X138.015 Y123.911 E8.79144
G1 X137.887 Y124.669 E8.81445
G1 X137.682 Y125.411 E8.83749
G1 X137.401 Y126.127 E8.86052
G1 X137.047 Y126.809 E8.88352
G1 X136.724 Y127.313 E8.90144
G1 X135.407 Y129.193 E8.97015
G1 X134.933 Y129.799 E8.99318
G1 X134.4 Y130.353 E9.01619
G1 X133.811 Y130.848 E9.03922
G1 X133.174 Y131.28 E9.06226
G1 X132.496 Y131.643 E9.08528
G1 X131.897 Y131.888 E9.10466
G1 X131.602 Y132.584 E9.12728
G1 X131.23 Y133.258 E9.15033
G1 X130.79 Y133.888 E9.17333
G1 X130.287 Y134.47 E9.19636
G1 X129.726 Y134.997 E9.2194
G1 X129.194 Y135.407 E9.2395
G1 X127.314 Y136.724 E9.30821
G1 X126.662 Y137.132 E9.33124
G1 X125.971 Y137.47 E9.35426
G1 X125.249 Y137.734 E9.37728
G1 X124.503 Y137.923 E9.40031
G1 X123.742 Y138.032 E9.42333
G1 X123.085 Y138.058 E9.44301
G1 X123.028 Y138.131 E9.44578
G1 X122.496 Y138.686 E9.46879
G1 X121.908 Y139.183 E9.49184
G1 X121.272 Y139.616 E9.51487
G1 X120.595 Y139.98 E9.53788
G1 X119.884 Y140.273 E9.5609
G1 X119.344 Y140.44 E9.57782
G1 X117.124 Y141.034 E9.64661
G1 X116.371 Y141.193 E9.66965
G1 X115.606 Y141.274 E9.69268
G1 X114.837 Y141.276 E9.71569
G1 X114.072 Y141.197 E9.73872
G1 X113.319 Y141.039 E9.76175
G1 X112.704 Y140.842 E9.78108
G1 X112.677 Y140.859 E9.78203
G1 X111.99 Y141.204 E9.80505
G1 X111.27 Y141.477 E9.8281
G1 X110.527 Y141.673 E9.8511
G1 X109.767 Y141.791 E9.87412
G1 X108.998 Y141.829 E9.89717
G1 X108.369 Y141.801 E9.91601
G1 X106.084 Y141.601 E9.98468
G1 X105.322 Y141.494 E10.00771
G1 X104.576 Y141.309 E10.03072
G1 X103.852 Y141.047 E10.05376
G1 X103.16 Y140.712 E10.07678
G1 X102.507 Y140.306 E10.0998
G1 X101.988 Y139.904 E10.11945
G1 X101.91 Y139.921 E10.12184
G1 X101.145 Y140.005 E10.14487
G1 X100.376 Y140.009 E10.16789
G1 X99.611 Y139.933 E10.19091
G1 X98.857 Y139.778 E10.21395
G1 X98.124 Y139.546 E10.23696
G1 X97.595 Y139.323 E10.25415
G1 X95.513 Y138.352 E10.32291
G1 X94.834 Y137.992 E10.34592
G1 X94.196 Y137.562 E10.36895
G1 X93.606 Y137.069 E10.39197
G1 X93.07 Y136.517 E10.415
G1 X92.595 Y135.912 E10.43802
G1 X92.248 Y135.364 E10.45744
G1 X92.17 Y135.353 E10.4598
G1 X91.423 Y135.171 E10.48281
G1 X90.699 Y134.913 E10.50582
G1 X90.005 Y134.58 E10.52886
G1 X89.349 Y134.178 E10.55189
G1 X88.739 Y133.71 E10.57491
G1 X88.309 Y133.312 E10.59244
G1 X86.686 Y131.688 E10.66117
G1 X86.171 Y131.116 E10.68421
G1 X85.719 Y130.495 E10.7072
G1 X85.333 Y129.829 E10.73025
G1 X85.018 Y129.127 E10.75328
G1 X84.779 Y128.396 E10.7763
G1 X84.641 Y127.759 E10.79581
G1 X84.606 Y127.741 E10.79699
G1 X83.964 Y127.318 E10.82
G1 X83.369 Y126.83 E10.84304
G1 X82.828 Y126.283 E10.86607
G1 X82.347 Y125.683 E10.88909
G1 X81.931 Y125.036 E10.91211
G1 X81.648 Y124.489 E10.93055
G1 X80.677 Y122.407 E10.99932
G1 X80.388 Y121.694 E11.02235
G1 X80.175 Y120.955 E11.04537
G1 X80.04 Y120.197 E11.06841
G1 X79.985 Y119.43 E11.09143
G1 X80.009 Y118.661 E11.11446
G1 X80.097 Y118.014 E11.13401
G1 X80.024 Y117.932 E11.1373
G1 X79.571 Y117.31 E11.16033
G1 X79.185 Y116.645 E11.18335
G1 X78.87 Y115.943 E11.20638
G1 X78.63 Y115.212 E11.22941
G1 X78.467 Y114.461 E11.25241
G1 X78.399 Y113.916 E11.26885
G1 X78.199 Y111.631 E11.33751
G1 X78.172 Y110.863 E11.36052
G1 X78.225 Y110.095 E11.38356
G1 X78.357 Y109.337 E11.40659
G1 X78.567 Y108.598 E11.42959
G1 X78.853 Y107.883 E11.45264
G1 X79.159 Y107.301 E11.47233
G1 X79.12 Y107.204 E11.47545
G1 X78.907 Y106.464 E11.49851
G1 X78.772 Y105.707 E11.52152
G1 X78.717 Y104.94 E11.54454
G1 X78.741 Y104.171 E11.56757
G1 X78.845 Y103.409 E11.59059
G1 X78.966 Y102.878 E11.6069
G1 X79.56 Y100.657 E11.67572
G1 X79.797 Y99.925 E11.69875
G1 X80.109 Y99.222 E11.72177
G1 X80.492 Y98.555 E11.74479
G1 X80.942 Y97.932 E11.7678
G1 X81.455 Y97.358 E11.79084
G1 X81.939 Y96.918 E11.81042
G1 X81.937 Y96.861 E11.81213
G1 X81.985 Y96.094 E11.83514
G1 X82.112 Y95.335 E11.85817
G1 X82.316 Y94.594 E11.88118
G1 X82.597 Y93.878 E11.9042
G1 X82.951 Y93.195 E11.92723
G1 X83.276 Y92.687 E11.94528
G1 X84.593 Y90.807 E12.01399
G1 X85.067 Y90.201 E12.03702
G1 X85.6 Y89.647 E12.06004
G1 X86.189 Y89.152 E12.08307
G1 X86.826 Y88.72 E12.10611
G1 X87.504 Y88.357 E12.12913
G1 X88.104 Y88.112 E12.14853
G1 X88.393 Y87.427 E12.17078
G1 X88.764 Y86.753 E12.19381
G1 X89.203 Y86.121 E12.21685
G1 X89.705 Y85.539 E12.23985
G0 F6000 X90.065 Y85.742
G1 F1200 X90.618 Y85.237 E12.26227
G1 X91.036 Y84.921 E12.27796
G1 X92.916 Y83.604 E12.34667
G1 X93.55 Y83.208 E12.36904
G1 X94.224 Y82.882 E12.39146
G1 X94.928 Y82.63 E12.41384
G1 X95.655 Y82.454 E12.43623
G1 X96.397 Y82.357 E12.45863
G1 X97.112 Y82.341 E12.48004
G1 X97.288 Y82.115 E12.48861
G1 X97.808 Y81.577 E12.51101
G1 X98.383 Y81.099 E12.53339
G1 X99.006 Y80.684 E12.5558
G1 X99.669 Y80.338 E12.57819
G1 X100.365 Y80.065 E12.60057
G1 X100.76 Y79.947 E12.61291
G1 X102.98 Y79.353 E12.6817
G1 X103.712 Y79.198 E12.7041
G1 X104.456 Y79.123 E12.72648
G1 X105.204 Y79.127 E12.74887
G1 X105.947 Y79.211 E12.77125
G1 X106.677 Y79.375 E12.79365
G1 X107.347 Y79.602 E12.81483
G1 X107.539 Y79.479 E12.82165
G1 X108.209 Y79.146 E12.84405
G1 X108.91 Y78.886 E12.86643
G1 X109.635 Y78.703 E12.88881
G1 X110.376 Y78.598 E12.91121
G1 X111.124 Y78.572 E12.93362
G1 X111.596 Y78.598 E12.94777
G1 X113.881 Y78.798 E13.01643
G1 X114.622 Y78.903 E13.03883
G1 X115.347 Y79.086 E13.06122
G1 X116.049 Y79.346 E13.08362
G1 X116.719 Y79.679 E13.10602
G1 X117.349 Y80.082 E13.12841
G1 X117.906 Y80.528 E13.14977
G1 X118.162 Y80.472 E13.15761
G1 X118.906 Y80.393 E13.18001
