;FLAVOR:Marlin
;TIME:25530
;Filament used: 26.4546m
;Layer height: 0.2
;MINX:50.335
;MINY:94.335
;MINZ:0.2
;MAXX:169.665
;MAXY:125.665
;MAXZ:95
;Generated with Cura_SteamEngine 4.13.1
M140 S60
M105
M190 S60
M104 S195
M105
M109 S195
M82 ;absolute extrusion mode
G28 ;Home
G92 E0 ;Reset Extruder
G1 Z2.0 F3000 ;Move bed down
G1 X10.1 Y20 Z0.28 F5000.0 ;Move to start position
G1 X10.1 Y200.0 Z0.28 F1500.0 E15 ;Draw the first line
G1 X10.4 Y200.0 Z0.28 F5000.0 ;Move to side a little
G1 X10.4 Y20 Z0.28 F1500.0 E30 ;Draw the second line
G92 E0 ;Reset Extruder
G1 Z2.0 F3000 ;Move Bed up
G92 E0
G92 E0
G1 F2400 E-7
;LAYER_COUNT:475
;LAYER:0
M107
;MESH:Rail.stl
G0 F6000 X54.9 Y105.567 Z0.2
;TYPE:WALL-INNER
G1 F2400 E0
G1 F1200 X54.9 Y114.433 E0.2654
G1 X161.1 Y114.433 E3.4444
G1 X161.1 Y105.567 E3.7098
G1 X54.9 Y105.567 E6.8888
G0 F6000 X55.3 Y105.967
;TYPE:WALL-OUTER
G1 F1200 X55.3 Y114.033 E7.13025
G1 X160.7 Y114.033 E10.2853
G1 X160.7 Y105.967 E10.52675
G1 X55.3 Y105.967 E13.68181
G1 F2400 E6.68181
G0 F6000 X55 Y105.967
G0 X55.072 Y114.261
G0 X150.625 Y114.603
G0 X150.625 Y113.168
G0 X169.665 Y114.623
G0 X168.19 Y114.623
G0 X168.4 Y124.4
;TYPE:WALL-INNER
G1 F2400 E13.68181
G1 F1200 X51.6 Y124.4 E17.17811
G1 X51.6 Y95.6 E18.04022
G1 X168.4 Y95.6 E21.53652
G1 X168.4 Y124.4 E22.39863
G0 F6000 X168.8 Y124.8
;TYPE:WALL-OUTER
G1 F1200 X51.2 Y124.8 E25.91888
G1 X51.2 Y95.2 E26.80493
G1 X168.8 Y95.2 E30.32518
G1 X168.8 Y124.8 E31.21123
G0 F6000 X168.53 Y124.53
G0 X168.29 Y124.01
G0 X168.01 Y124.01
;TYPE:SKIN
G1 F1200 X51.99 Y124.01 E34.68419
G1 X51.99 Y95.99 E35.52294
G1 X168.01 Y95.99 E38.9959
G1 X168.01 Y124.01 E39.83465
G1 F2400 E32.83465
G0 F6000 X168.29 Y124.01
G0 X168.19 Y114.573
G0 X169.665 Y114.573
G0 X159.847 Y113.18
G0 X161.29 Y114.573
G1 F2400 E39.83465
G0 F6000 X161.49 Y114.823
G1 F1200 X161.49 Y105.177 E40.1234
G1 X54.51 Y105.177 E43.32575
G1 X54.51 Y114.823 E43.61449
G1 X161.49 Y114.823 E46.81685
G1 F2400 E39.81685
G0 F6000 X161.21 Y114.573
G0 X161.27 Y111.768
G0 X159.835 Y111.768
G0 X169.665 Y105.371
G0 X168.19 Y105.371
G0 X168.29 Y96.613
G1 F2400 E46.81685
G0 F6000 X167.889 Y96.613
G1 F1200 X167.386 Y96.109 E46.83816
G0 F6000 X166.82 Y96.109
G1 F1200 X167.889 Y97.179 E46.88344
G0 F6000 X167.889 Y97.744
G1 F1200 X166.254 Y96.109 E46.95265
G0 F6000 X165.689 Y96.109
G1 F1200 X167.889 Y98.31 E47.04581
G0 F6000 X167.889 Y98.876
G1 F1200 X165.123 Y96.109 E47.16292
G0 F6000 X164.557 Y96.109
G1 F1200 X167.889 Y99.441 E47.30397
G0 F6000 X167.889 Y100.007
G1 F1200 X163.992 Y96.109 E47.46897
G0 F6000 X163.426 Y96.109
G1 F1200 X167.889 Y100.573 E47.65792
G0 F6000 X167.889 Y101.138
G1 F1200 X162.86 Y96.109 E47.87082
G0 F6000 X162.295 Y96.109
G1 F1200 X167.889 Y101.704 E48.10765
G0 F6000 X167.889 Y102.27
G1 F1200 X161.729 Y96.109 E48.36844
G0 F6000 X161.163 Y96.109
G1 F1200 X167.889 Y102.835 E48.65318
G0 F6000 X167.889 Y103.401
G1 F1200 X160.598 Y96.109 E48.96185
G0 F6000 X160.032 Y96.109
G1 F1200 X167.889 Y103.967 E49.29448
G0 F6000 X167.889 Y104.533
G1 F1200 X159.466 Y96.109 E49.65108
G0 F6000 X158.901 Y96.109
G1 F1200 X167.889 Y105.098 E50.03159
G0 F6000 X167.889 Y105.664
G1 F1200 X158.335 Y96.109 E50.43606
G0 F6000 X157.769 Y96.109
G1 F1200 X167.889 Y106.23 E50.8645
G0 F6000 X167.889 Y106.795
G1 F1200 X157.203 Y96.109 E51.31687
G0 F6000 X156.638 Y96.109
G1 F1200 X167.889 Y107.361 E51.79318
G0 F6000 X167.889 Y107.927
G1 F1200 X156.072 Y96.109 E52.29346
G0 F6000 X155.506 Y96.109
G1 F1200 X167.889 Y108.492 E52.81767
G0 F6000 X167.889 Y109.058
G1 F1200 X154.941 Y96.109 E53.36582
G0 F6000 X154.375 Y96.109
G1 F1200 X167.889 Y109.624 E53.93793
G0 F6000 X167.889 Y110.189
G1 F1200 X153.809 Y96.109 E54.53398
G0 F6000 X153.244 Y96.109
G1 F1200 X167.889 Y110.755 E55.15398
G0 F6000 X167.889 Y111.321
G1 F1200 X152.678 Y96.109 E55.79793
G0 F6000 X152.112 Y96.109
G1 F1200 X161.059 Y105.056 E56.17668
G0 F6000 X160.493 Y105.056
G1 F1200 X151.547 Y96.109 E56.55542
G0 F6000 X150.981 Y96.109
G1 F1200 X159.927 Y105.056 E56.93415
G0 F6000 X159.362 Y105.056
G1 F1200 X150.415 Y96.109 E57.31291
G0 F6000 X149.85 Y96.109
G1 F1200 X158.796 Y105.056 E57.69164
G0 F6000 X158.23 Y105.056
G1 F1200 X149.284 Y96.109 E58.07038
G0 F6000 X148.718 Y96.109
G1 F1200 X157.665 Y105.056 E58.44913
G0 F6000 X157.099 Y105.056
G1 F1200 X148.153 Y96.109 E58.82787
G0 F6000 X147.587 Y96.109
G1 F1200 X156.533 Y105.056 E59.2066
G0 F6000 X155.967 Y105.056
G1 F1200 X147.021 Y96.109 E59.58533
G0 F6000 X146.455 Y96.109
G1 F1200 X155.402 Y105.056 E59.96409
G0 F6000 X154.836 Y105.056
G1 F1200 X145.89 Y96.109 E60.34282
G0 F6000 X145.324 Y96.109
G1 F1200 X154.27 Y105.056 E60.72156
G0 F6000 X153.705 Y105.056
G1 F1200 X144.758 Y96.109 E61.10031
G0 F6000 X144.193 Y96.109
G1 F1200 X153.139 Y105.056 E61.47905
G0 F6000 X152.573 Y105.056
G1 F1200 X143.627 Y96.109 E61.85778
G0 F6000 X143.061 Y96.109
G1 F1200 X152.008 Y105.056 E62.23654
G0 F6000 X151.442 Y105.056
G1 F1200 X142.496 Y96.109 E62.61527
G0 F6000 X141.93 Y96.109
G1 F1200 X150.876 Y105.056 E62.99401
G0 F6000 X150.311 Y105.056
G1 F1200 X141.364 Y96.109 E63.37276
G0 F6000 X140.799 Y96.109
G1 F1200 X149.745 Y105.056 E63.7515
G0 F6000 X149.179 Y105.056
G1 F1200 X140.233 Y96.109 E64.13023
G0 F6000 X139.667 Y96.109
G1 F1200 X148.614 Y105.056 E64.50899
G0 F6000 X148.048 Y105.056
G1 F1200 X139.102 Y96.109 E64.88772
G0 F6000 X138.536 Y96.109
G1 F1200 X147.482 Y105.056 E65.26646
G0 F6000 X146.916 Y105.056
G1 F1200 X137.97 Y96.109 E65.64519
G0 F6000 X137.404 Y96.109
G1 F1200 X146.351 Y105.056 E66.02395
G0 F6000 X145.785 Y105.056
G1 F1200 X136.839 Y96.109 E66.40268
G0 F6000 X136.273 Y96.109
G1 F1200 X145.219 Y105.056 E66.78141
G0 F6000 X144.654 Y105.056
G1 F1200 X135.707 Y96.109 E67.16017
G0 F6000 X135.142 Y96.109
G1 F1200 X144.088 Y105.056 E67.5389
G0 F6000 X143.522 Y105.056
G1 F1200 X134.576 Y96.109 E67.91764
G0 F6000 X134.01 Y96.109
G1 F1200 X142.957 Y105.056 E68.29639
G0 F6000 X142.391 Y105.056
G1 F1200 X133.445 Y96.109 E68.67513
G0 F6000 X132.879 Y96.109
G1 F1200 X141.825 Y105.056 E69.05386
G0 F6000 X141.26 Y105.056
G1 F1200 X132.313 Y96.109 E69.43262
G0 F6000 X131.748 Y96.109
G1 F1200 X140.694 Y105.056 E69.81135
G0 F6000 X140.128 Y105.056
G1 F1200 X131.182 Y96.109 E70.19009
G0 F6000 X130.616 Y96.109
G1 F1200 X139.563 Y105.056 E70.56884
G0 F6000 X138.997 Y105.056
G1 F1200 X130.051 Y96.109 E70.94758
G0 F6000 X129.485 Y96.109
G1 F1200 X138.431 Y105.056 E71.32631
G0 F6000 X137.866 Y105.056
G1 F1200 X128.919 Y96.109 E71.70507
G0 F6000 X128.354 Y96.109
G1 F1200 X137.3 Y105.056 E72.0838
G0 F6000 X136.734 Y105.056
G1 F1200 X127.788 Y96.109 E72.46254
G0 F6000 X127.222 Y96.109
G1 F1200 X136.168 Y105.056 E72.84127
G0 F6000 X135.603 Y105.056
G1 F1200 X126.656 Y96.109 E73.22003
G0 F6000 X126.091 Y96.109
G1 F1200 X135.037 Y105.056 E73.59876
G0 F6000 X134.471 Y105.056
G1 F1200 X125.525 Y96.109 E73.97749
G0 F6000 X124.959 Y96.109
G1 F1200 X133.906 Y105.056 E74.35625
G0 F6000 X133.34 Y105.056
G1 F1200 X124.394 Y96.109 E74.73498
G0 F6000 X123.828 Y96.109
G1 F1200 X132.774 Y105.056 E75.11372
G0 F6000 X132.209 Y105.056
G1 F1200 X123.262 Y96.109 E75.49247
G0 F6000 X122.697 Y96.109
G1 F1200 X131.643 Y105.056 E75.87121
G0 F6000 X131.077 Y105.056
G1 F1200 X122.131 Y96.109 E76.24994
G0 F6000 X121.565 Y96.109
G1 F1200 X130.512 Y105.056 E76.6287
G0 F6000 X129.946 Y105.056
G1 F1200 X121 Y96.109 E77.00743
G0 F6000 X120.434 Y96.109
G1 F1200 X129.38 Y105.056 E77.38617
G0 F6000 X128.815 Y105.056
G1 F1200 X119.868 Y96.109 E77.76492
G0 F6000 X119.303 Y96.109
G1 F1200 X128.249 Y105.056 E78.14366
G0 F6000 X127.683 Y105.056
G1 F1200 X118.737 Y96.109 E78.52239
G0 F6000 X118.171 Y96.109
G1 F1200 X127.118 Y105.056 E78.90115
G0 F6000 X126.552 Y105.056
G1 F1200 X117.605 Y96.109 E79.2799
G0 F6000 X117.04 Y96.109
G1 F1200 X125.986 Y105.056 E79.65864
G0 F6000 X125.42 Y105.056
G1 F1200 X116.474 Y96.109 E80.03737
G0 F6000 X115.908 Y96.109
G1 F1200 X124.855 Y105.056 E80.41613
G0 F6000 X124.289 Y105.056
G1 F1200 X115.343 Y96.109 E80.79486
G0 F6000 X114.777 Y96.109
G1 F1200 X123.723 Y105.056 E81.17359
G0 F6000 X123.158 Y105.056
G1 F1200 X114.211 Y96.109 E81.55235
G0 F6000 X113.646 Y96.109
G1 F1200 X122.592 Y105.056 E81.93108
G0 F6000 X122.026 Y105.056
G1 F1200 X113.08 Y96.109 E82.30982
G0 F6000 X112.514 Y96.109
G1 F1200 X121.461 Y105.056 E82.68857
G0 F6000 X120.895 Y105.056
G1 F1200 X111.949 Y96.109 E83.06731
G0 F6000 X111.383 Y96.109
G1 F1200 X120.329 Y105.056 E83.44604
G0 F6000 X119.764 Y105.056
G1 F1200 X110.817 Y96.109 E83.8248
G0 F6000 X110.252 Y96.109
G1 F1200 X119.198 Y105.056 E84.20353
G0 F6000 X118.632 Y105.056
G1 F1200 X109.686 Y96.109 E84.58227
G0 F6000 X109.12 Y96.109
G1 F1200 X118.067 Y105.056 E84.96102
G0 F6000 X117.501 Y105.056
G1 F1200 X108.555 Y96.109 E85.33976
G0 F6000 X107.989 Y96.109
G1 F1200 X116.935 Y105.056 E85.71849
G0 F6000 X116.369 Y105.056
G1 F1200 X107.423 Y96.109 E86.09723
G0 F6000 X106.857 Y96.109
G1 F1200 X115.804 Y105.056 E86.47598
G0 F6000 X115.238 Y105.056
G1 F1200 X106.292 Y96.109 E86.85472
G0 F6000 X105.726 Y96.109
G1 F1200 X114.672 Y105.056 E87.23345
G0 F6000 X114.107 Y105.056
G1 F1200 X105.16 Y96.109 E87.61221
G0 F6000 X104.595 Y96.109
G1 F1200 X113.541 Y105.056 E87.99094
G0 F6000 X112.975 Y105.056
G1 F1200 X104.029 Y96.109 E88.36967
G0 F6000 X103.463 Y96.109
G1 F1200 X112.41 Y105.056 E88.74843
G0 F6000 X111.844 Y105.056
G1 F1200 X102.898 Y96.109 E89.12716
G0 F6000 X102.332 Y96.109
G1 F1200 X111.278 Y105.056 E89.5059
G0 F6000 X110.713 Y105.056
G1 F1200 X101.766 Y96.109 E89.88465
G0 F6000 X101.201 Y96.109
G1 F1200 X110.147 Y105.056 E90.26339
G0 F6000 X109.581 Y105.056
G1 F1200 X100.635 Y96.109 E90.64212
G0 F6000 X100.069 Y96.109
G1 F1200 X109.016 Y105.056 E91.02088
G0 F6000 X108.45 Y105.056
G1 F1200 X99.504 Y96.109 E91.39961
G0 F6000 X98.938 Y96.109
G1 F1200 X107.884 Y105.056 E91.77835
G0 F6000 X107.319 Y105.056
G1 F1200 X98.372 Y96.109 E92.1571
G0 F6000 X97.807 Y96.109
G1 F1200 X106.753 Y105.056 E92.53584
G0 F6000 X106.187 Y105.056
G1 F1200 X97.241 Y96.109 E92.91457
G0 F6000 X96.675 Y96.109
G1 F1200 X105.621 Y105.056 E93.2933
G0 F6000 X105.056 Y105.056
G1 F1200 X96.109 Y96.109 E93.67206
G0 F6000 X95.544 Y96.109
G1 F1200 X104.49 Y105.056 E94.05079
G0 F6000 X103.924 Y105.056
G1 F1200 X94.978 Y96.109 E94.42953
G0 F6000 X94.412 Y96.109
G1 F1200 X103.359 Y105.056 E94.80828
G0 F6000 X102.793 Y105.056
G1 F1200 X93.847 Y96.109 E95.18702
G0 F6000 X93.281 Y96.109
G1 F1200 X102.227 Y105.056 E95.56575
G0 F6000 X101.662 Y105.056
G1 F1200 X92.715 Y96.109 E95.94451
G0 F6000 X92.15 Y96.109
G1 F1200 X101.096 Y105.056 E96.32324
G0 F6000 X100.53 Y105.056
G1 F1200 X91.584 Y96.109 E96.70198
G0 F6000 X91.018 Y96.109
G1 F1200 X99.965 Y105.056 E97.08073
G0 F6000 X99.399 Y105.056
G1 F1200 X90.453 Y96.109 E97.45947
G0 F6000 X89.887 Y96.109
G1 F1200 X98.833 Y105.056 E97.8382
G0 F6000 X98.268 Y105.056
G1 F1200 X89.321 Y96.109 E98.21696
G0 F6000 X88.756 Y96.109
G1 F1200 X97.702 Y105.056 E98.59569
G0 F6000 X97.136 Y105.056
G1 F1200 X88.19 Y96.109 E98.97443
G0 F6000 X87.624 Y96.109
G1 F1200 X96.57 Y105.056 E99.35316
G0 F6000 X96.005 Y105.056
G1 F1200 X87.058 Y96.109 E99.73192
G0 F6000 X86.493 Y96.109
G1 F1200 X95.439 Y105.056 E100.11065
G0 F6000 X94.873 Y105.056
G1 F1200 X85.927 Y96.109 E100.48938
G0 F6000 X85.361 Y96.109
G1 F1200 X94.308 Y105.056 E100.86814
G0 F6000 X93.742 Y105.056
G1 F1200 X84.796 Y96.109 E101.24687
G0 F6000 X84.23 Y96.109
G1 F1200 X93.176 Y105.056 E101.62561
G0 F6000 X92.611 Y105.056
G1 F1200 X83.664 Y96.109 E102.00436
G0 F6000 X83.099 Y96.109
G1 F1200 X92.045 Y105.056 E102.3831
G0 F6000 X91.479 Y105.056
G1 F1200 X82.533 Y96.109 E102.76183
G0 F6000 X81.967 Y96.109
G1 F1200 X90.914 Y105.056 E103.14059
G0 F6000 X90.348 Y105.056
G1 F1200 X81.402 Y96.109 E103.51932
G0 F6000 X80.836 Y96.109
G1 F1200 X89.782 Y105.056 E103.89806
G0 F6000 X89.217 Y105.056
G1 F1200 X80.27 Y96.109 E104.27681
G0 F6000 X79.705 Y96.109
G1 F1200 X88.651 Y105.056 E104.65555
G0 F6000 X88.085 Y105.056
G1 F1200 X79.139 Y96.109 E105.03428
G0 F6000 X78.573 Y96.109
G1 F1200 X87.52 Y105.056 E105.41304
G0 F6000 X86.954 Y105.056
G1 F1200 X78.008 Y96.109 E105.79177
G0 F6000 X77.442 Y96.109
G1 F1200 X86.388 Y105.056 E106.17051
G0 F6000 X85.822 Y105.056
G1 F1200 X76.876 Y96.109 E106.54924
G0 F6000 X76.31 Y96.109
G1 F1200 X85.257 Y105.056 E106.928
G0 F6000 X84.691 Y105.056
G1 F1200 X75.745 Y96.109 E107.30673
G0 F6000 X75.179 Y96.109
G1 F1200 X84.125 Y105.056 E107.68546
G0 F6000 X83.56 Y105.056
G1 F1200 X74.613 Y96.109 E108.06422
G0 F6000 X74.048 Y96.109
G1 F1200 X82.994 Y105.056 E108.44295
G0 F6000 X82.428 Y105.056
G1 F1200 X73.482 Y96.109 E108.82169
G0 F6000 X72.916 Y96.109
G1 F1200 X81.863 Y105.056 E109.20044
G0 F6000 X81.297 Y105.056
G1 F1200 X72.351 Y96.109 E109.57918
G0 F6000 X71.785 Y96.109
G1 F1200 X80.731 Y105.056 E109.95791
G0 F6000 X80.166 Y105.056
G1 F1200 X71.219 Y96.109 E110.33667
G0 F6000 X70.654 Y96.109
G1 F1200 X79.6 Y105.056 E110.7154
G0 F6000 X79.034 Y105.056
G1 F1200 X70.088 Y96.109 E111.09414
G0 F6000 X69.522 Y96.109
G1 F1200 X78.469 Y105.056 E111.47289
G0 F6000 X77.903 Y105.056
G1 F1200 X68.957 Y96.109 E111.85163
G0 F6000 X68.391 Y96.109
G1 F1200 X77.337 Y105.056 E112.23036
G0 F6000 X76.771 Y105.056
G1 F1200 X67.825 Y96.109 E112.60909
G0 F6000 X67.259 Y96.109
G1 F1200 X76.206 Y105.056 E112.98785
G0 F6000 X75.64 Y105.056
G1 F1200 X66.694 Y96.109 E113.36658
G0 F6000 X66.128 Y96.109
G1 F1200 X75.074 Y105.056 E113.74532
G0 F6000 X74.509 Y105.056
G1 F1200 X65.562 Y96.109 E114.12407
G0 F6000 X64.997 Y96.109
G1 F1200 X73.943 Y105.056 E114.50281
G0 F6000 X73.377 Y105.056
G1 F1200 X64.431 Y96.109 E114.88154
G0 F6000 X63.865 Y96.109
G1 F1200 X72.812 Y105.056 E115.2603
G0 F6000 X72.246 Y105.056
G1 F1200 X63.3 Y96.109 E115.63903
G0 F6000 X62.734 Y96.109
G1 F1200 X71.68 Y105.056 E116.01777
G0 F6000 X71.115 Y105.056
G1 F1200 X62.168 Y96.109 E116.39652
G0 F6000 X61.603 Y96.109
G1 F1200 X70.549 Y105.056 E116.77526
G0 F6000 X69.983 Y105.056
G1 F1200 X61.037 Y96.109 E117.15399
G0 F6000 X60.471 Y96.109
G1 F1200 X69.418 Y105.056 E117.53275
G0 F6000 X68.852 Y105.056
G1 F1200 X59.906 Y96.109 E117.91148
G0 F6000 X59.34 Y96.109
G1 F1200 X68.286 Y105.056 E118.29022
G0 F6000 X67.721 Y105.056
G1 F1200 X58.774 Y96.109 E118.66897
G0 F6000 X58.209 Y96.109
G1 F1200 X67.155 Y105.056 E119.04771
G0 F6000 X66.589 Y105.056
G1 F1200 X57.643 Y96.109 E119.42644
G0 F6000 X57.077 Y96.109
G1 F1200 X66.023 Y105.056 E119.80517
G0 F6000 X65.458 Y105.056
G1 F1200 X56.511 Y96.109 E120.18393
G0 F6000 X55.946 Y96.109
G1 F1200 X64.892 Y105.056 E120.56266
G0 F6000 X64.326 Y105.056
G1 F1200 X55.38 Y96.109 E120.9414
G0 F6000 X54.814 Y96.109
G1 F1200 X63.761 Y105.056 E121.32015
G0 F6000 X63.195 Y105.056
G1 F1200 X54.249 Y96.109 E121.69889
G0 F6000 X53.683 Y96.109
G1 F1200 X62.629 Y105.056 E122.07762
G0 F6000 X62.064 Y105.056
G1 F1200 X53.117 Y96.109 E122.45638
G0 F6000 X52.552 Y96.109
G1 F1200 X61.498 Y105.056 E122.83511
G0 F6000 X60.932 Y105.056
G1 F1200 X52.109 Y96.232 E123.20864
G0 F6000 X52.109 Y96.798
G1 F1200 X60.367 Y105.056 E123.55823
G0 F6000 X59.801 Y105.056
G1 F1200 X52.109 Y97.364 E123.88385
G0 F6000 X52.109 Y97.93
G1 F1200 X59.235 Y105.056 E124.18552
G0 F6000 X58.67 Y105.056
G1 F1200 X52.109 Y98.495 E124.46327
G0 F6000 X52.109 Y99.061
G1 F1200 X58.104 Y105.056 E124.71706
G0 F6000 X57.538 Y105.056
G1 F1200 X52.109 Y99.627 E124.94688
G0 F6000 X52.109 Y100.192
G1 F1200 X56.973 Y105.056 E125.15279
G0 F6000 X56.407 Y105.056
G1 F1200 X52.109 Y100.758 E125.33474
G0 F6000 X52.109 Y101.324
G1 F1200 X55.841 Y105.056 E125.49273
G0 F6000 X55.275 Y105.056
G1 F1200 X52.109 Y101.889 E125.62678
G0 F6000 X52.109 Y102.455
G1 F1200 X54.71 Y105.056 E125.73689
G0 F6000 X54.39 Y105.302
G1 F1200 X52.109 Y103.021 E125.83345
G0 F6000 X52.109 Y103.586
G1 F1200 X54.39 Y105.868 E125.93003
G0 F6000 X54.39 Y106.433
G1 F1200 X52.109 Y104.152 E126.02659
G0 F6000 X52.109 Y104.718
G1 F1200 X54.39 Y106.999 E126.12316
G0 F6000 X54.39 Y107.565
G1 F1200 X52.109 Y105.283 E126.21974
G0 F6000 X52.109 Y105.849
G1 F1200 X54.39 Y108.13 E126.3163
G0 F6000 X54.39 Y108.696
G1 F1200 X52.109 Y106.415 E126.41286
G0 F6000 X52.109 Y106.981
