;FLAVOR:Marlin
;TIME:20250
;Filament used: 18.4218m
;Layer height: 0.2
;MINX:28.785
;MINY:78.094
;MINZ:0.2
;MAXX:191.115
;MAXY:141.888
;MAXZ:73.2
;Generated with Cura_SteamEngine 4.13.1
M140 S60
M105
M190 S60
M104 S195
M105
M109 S195
M82 ;absolute extrusion mode
G28 ;Home
G92 E0 ;Reset Extruder
G1 Z2.0 F3000 ;Move bed down
G1 X10.1 Y20 Z0.28 F5000.0 ;Move to start position
G1 X10.1 Y200.0 Z0.28 F1500.0 E15 ;Draw the first line
G1 X10.4 Y200.0 Z0.28 F5000.0 ;Move to side a little
G1 X10.4 Y20 Z0.28 F1500.0 E30 ;Draw the second line
G92 E0 ;Reset Extruder
G1 Z2.0 F3000 ;Move Bed up
G92 E0
G92 E0
G1 F2400 E-7
;LAYER_COUNT:367
;LAYER:0
M107
G0 F6000 X32.45 Y138.216 Z0.2
;TYPE:SKIRT
G1 F2400 E0
G1 F1200 X56.45 Y138.216 E0.71842
G1 X56.45 Y138.223 E0.71863
G1 X32.45 Y138.224 E1.43705
G1 X32.45 Y138.216 E1.43729
G0 F6000 X32.051 Y137.816
G1 F1200 X56.85 Y137.816 E2.17962
G1 X56.85 Y138.623 E2.20378
G1 X32.05 Y138.624 E2.94615
G1 X32.051 Y137.816 E2.97033
G0 F6000 X31.651 Y137.416
G1 F1200 X57.25 Y137.416 E3.73662
G1 X57.25 Y139.023 E3.78472
G1 X31.65 Y139.024 E4.55103
G1 X31.651 Y137.416 E4.59917
G0 F6000 X31.251 Y137.016
G1 F1200 X57.65 Y137.016 E5.3894
G1 X57.65 Y139.423 E5.46145
G1 X31.25 Y139.424 E6.25171
G1 X31.251 Y137.016 E6.32379
G0 F6000 X30.851 Y136.616
G1 F1200 X58.05 Y136.616 E7.13797
G1 X58.05 Y139.823 E7.23397
G1 X30.85 Y139.824 E8.04818
G1 X30.851 Y136.616 E8.14421
G0 F6000 X30.451 Y136.216
G1 F1200 X58.45 Y136.216 E8.98233
G1 X58.45 Y140.223 E9.10228
G1 X30.45 Y140.224 E9.94043
G1 X30.451 Y136.216 E10.06041
G0 F6000 X30.051 Y135.816
G1 F1200 X58.85 Y135.816 E10.92248
G1 X58.85 Y140.623 E11.06638
G1 X30.05 Y140.624 E11.92848
G1 X30.051 Y135.816 E12.0724
G0 F6000 X29.651 Y135.416
G1 F1200 X59.25 Y135.416 E12.95842
G1 X59.25 Y141.023 E13.12626
G1 X29.65 Y141.024 E14.01231
G1 X29.651 Y135.416 E14.18018
G1 F2400 E7.18018
;MESH:PowerStation.stl
G0 F6000 X30.26 Y133.606
G0 X189.85 Y133.816
;TYPE:WALL-INNER
G1 F2400 E14.18018
G1 F1200 X30.05 Y133.816 E18.96366
G1 X30.05 Y79.359 E20.59378
G1 X189.85 Y79.359 E25.37725
G1 X189.85 Y133.816 E27.00737
G0 F6000 X190.25 Y134.216
;TYPE:WALL-OUTER
G1 F1200 X29.65 Y134.216 E31.81479
G1 X29.65 Y78.959 E33.46886
G1 X190.25 Y78.959 E38.27628
G1 X190.25 Y134.216 E39.93035
G0 F6000 X189.98 Y133.946
G0 X189.74 Y133.426
G0 X189.46 Y133.426
;TYPE:SKIN
G1 F1200 X30.44 Y133.426 E44.69048
G1 X30.44 Y79.749 E46.29725
G1 X189.46 Y79.749 E51.05737
G1 X189.46 Y133.426 E52.66415
G1 F2400 E45.66415
G0 F6000 X189.74 Y133.426
G0 X189.74 Y80.162
G1 F2400 E52.66415
G0 F6000 X189.339 Y80.162
G1 F1200 X189.046 Y79.869 E52.67655
G0 F6000 X188.48 Y79.869
G1 F1200 X189.339 Y80.728 E52.71292
G0 F6000 X189.339 Y81.293
G1 F1200 X187.915 Y79.869 E52.7732
G0 F6000 X187.349 Y79.869
G1 F1200 X189.339 Y81.859 E52.85744
G0 F6000 X189.339 Y82.425
G1 F1200 X186.783 Y79.869 E52.96565
G0 F6000 X186.217 Y79.869
G1 F1200 X189.339 Y82.991 E53.09781
G0 F6000 X189.339 Y83.556
G1 F1200 X185.652 Y79.869 E53.25389
G0 F6000 X185.086 Y79.869
G1 F1200 X189.339 Y84.122 E53.43394
G0 F6000 X189.339 Y84.688
G1 F1200 X184.52 Y79.869 E53.63794
G0 F6000 X183.955 Y79.869
G1 F1200 X189.339 Y85.253 E53.86586
G0 F6000 X189.339 Y85.819
G1 F1200 X183.389 Y79.869 E54.11774
G0 F6000 X182.823 Y79.869
G1 F1200 X189.339 Y86.385 E54.39359
G0 F6000 X189.339 Y86.95
G1 F1200 X182.258 Y79.869 E54.69335
G0 F6000 X181.692 Y79.869
G1 F1200 X189.339 Y87.516 E55.01707
G0 F6000 X189.339 Y88.082
G1 F1200 X181.126 Y79.869 E55.36475
G0 F6000 X180.561 Y79.869
G1 F1200 X189.339 Y88.647 E55.73636
G0 F6000 X189.339 Y89.213
G1 F1200 X179.995 Y79.869 E56.13192
G0 F6000 X179.429 Y79.869
G1 F1200 X189.339 Y89.779 E56.55144
G0 F6000 X189.339 Y90.344
G1 F1200 X178.864 Y79.869 E56.99488
G0 F6000 X178.298 Y79.869
G1 F1200 X189.339 Y90.91 E57.46228
G0 F6000 X189.339 Y91.476
G1 F1200 X177.732 Y79.869 E57.95364
G0 F6000 X177.167 Y79.869
G1 F1200 X189.339 Y92.041 E58.46892
G0 F6000 X189.339 Y92.607
G1 F1200 X176.601 Y79.869 E59.00816
G0 F6000 X176.035 Y79.869
G1 F1200 X189.339 Y93.173 E59.57137
G0 F6000 X189.339 Y93.739
G1 F1200 X175.469 Y79.869 E60.15853
G0 F6000 X174.904 Y79.869
G1 F1200 X189.339 Y94.304 E60.76961
G0 F6000 X189.339 Y94.87
G1 F1200 X174.338 Y79.869 E61.40465
G0 F6000 X173.772 Y79.869
G1 F1200 X189.339 Y95.436 E62.06365
G0 F6000 X189.339 Y96.001
G1 F1200 X173.207 Y79.869 E62.74657
G0 F6000 X172.641 Y79.869
G1 F1200 X189.339 Y96.567 E63.45345
G0 F6000 X189.339 Y97.133
G1 F1200 X172.075 Y79.869 E64.18429
G0 F6000 X171.51 Y79.869
G1 F1200 X189.339 Y97.698 E64.93905
G0 F6000 X189.339 Y98.264
G1 F1200 X170.944 Y79.869 E65.71777
G0 F6000 X170.378 Y79.869
G1 F1200 X189.339 Y98.83 E66.52045
G0 F6000 X189.339 Y99.395
G1 F1200 X169.813 Y79.869 E67.34705
G0 F6000 X169.247 Y79.869
G1 F1200 X189.339 Y99.961 E68.19761
G0 F6000 X189.339 Y100.527
G1 F1200 X168.681 Y79.869 E69.07213
G0 F6000 X168.116 Y79.869
G1 F1200 X189.339 Y101.092 E69.97057
G0 F6000 X189.339 Y101.658
G1 F1200 X167.55 Y79.869 E70.89297
G0 F6000 X166.984 Y79.869
G1 F1200 X189.339 Y102.224 E71.83933
G0 F6000 X189.339 Y102.789
G1 F1200 X166.418 Y79.869 E72.80963
G0 F6000 X165.853 Y79.869
G1 F1200 X189.339 Y103.355 E73.80387
G0 F6000 X189.339 Y103.921
G1 F1200 X165.287 Y79.869 E74.82206
G0 F6000 X164.721 Y79.869
G1 F1200 X189.339 Y104.487 E75.86422
G0 F6000 X189.339 Y105.052
G1 F1200 X164.156 Y79.869 E76.9303
G0 F6000 X163.59 Y79.869
G1 F1200 X189.339 Y105.618 E78.02034
G0 F6000 X189.339 Y106.184
G1 F1200 X163.024 Y79.869 E79.13434
G0 F6000 X162.459 Y79.869
G1 F1200 X189.339 Y106.749 E80.27226
G0 F6000 X189.339 Y107.315
G1 F1200 X161.893 Y79.869 E81.43414
G0 F6000 X161.327 Y79.869
G1 F1200 X189.339 Y107.881 E82.61997
G0 F6000 X189.339 Y108.446
G1 F1200 X160.762 Y79.869 E83.82973
G0 F6000 X160.196 Y79.869
G1 F1200 X189.339 Y109.012 E85.06345
G0 F6000 X189.339 Y109.578
G1 F1200 X159.63 Y79.869 E86.32113
G0 F6000 X159.065 Y79.869
G1 F1200 X189.339 Y110.143 E87.60272
G0 F6000 X189.339 Y110.709
G1 F1200 X158.499 Y79.869 E88.90828
G0 F6000 X157.933 Y79.869
G1 F1200 X189.339 Y111.275 E90.2378
G0 F6000 X189.339 Y111.84
G1 F1200 X157.368 Y79.869 E91.59123
G0 F6000 X156.802 Y79.869
G1 F1200 X189.339 Y112.406 E92.96863
G0 F6000 X189.339 Y112.972
G1 F1200 X156.236 Y79.869 E94.36999
G0 F6000 X155.67 Y79.869
G1 F1200 X189.339 Y113.538 E95.79531
G0 F6000 X189.339 Y114.103
G1 F1200 X155.105 Y79.869 E97.24454
G0 F6000 X154.539 Y79.869
G1 F1200 X189.339 Y114.669 E98.71774
G0 F6000 X189.339 Y115.235
G1 F1200 X153.973 Y79.869 E100.2149
G0 F6000 X153.408 Y79.869
G1 F1200 X189.339 Y115.8 E101.73597
G0 F6000 X189.339 Y116.366
G1 F1200 X152.842 Y79.869 E103.28101
G0 F6000 X152.276 Y79.869
G1 F1200 X189.339 Y116.932 E104.85001
G0 F6000 X189.339 Y117.497
G1 F1200 X151.711 Y79.869 E106.44292
G0 F6000 X151.145 Y79.869
G1 F1200 X189.339 Y118.063 E108.0598
G0 F6000 X189.339 Y118.629
G1 F1200 X150.579 Y79.869 E109.70063
G0 F6000 X150.014 Y79.869
G1 F1200 X189.339 Y119.194 E111.36539
G0 F6000 X189.339 Y119.76
G1 F1200 X149.448 Y79.869 E113.0541
G0 F6000 X148.882 Y79.869
G1 F1200 X189.339 Y120.326 E114.76678
G0 F6000 X189.339 Y120.891
G1 F1200 X148.317 Y79.869 E116.50337
G0 F6000 X147.751 Y79.869
G1 F1200 X189.339 Y121.457 E118.26393
G0 F6000 X189.339 Y122.023
G1 F1200 X147.185 Y79.869 E120.04844
G0 F6000 X146.62 Y79.869
G1 F1200 X189.339 Y122.588 E121.85688
G0 F6000 X189.339 Y123.154
G1 F1200 X146.054 Y79.869 E123.68927
G0 F6000 X145.488 Y79.869
G1 F1200 X189.339 Y123.72 E125.54563
G0 F6000 X189.339 Y124.286
G1 F1200 X144.922 Y79.869 E127.42594
G0 F6000 X144.357 Y79.869
G1 F1200 X189.339 Y124.851 E129.33018
G0 F6000 X189.339 Y125.417
G1 F1200 X143.791 Y79.869 E131.25837
G0 F6000 X143.225 Y79.869
G1 F1200 X189.339 Y125.983 E133.21053
G0 F6000 X189.339 Y126.548
G1 F1200 X142.66 Y79.869 E135.1866
G0 F6000 X142.094 Y79.869
G1 F1200 X189.339 Y127.114 E137.18663
G0 F6000 X189.339 Y127.68
G1 F1200 X141.528 Y79.869 E139.21063
G0 F6000 X140.963 Y79.869
G1 F1200 X189.339 Y128.245 E141.25854
G0 F6000 X189.339 Y128.811
G1 F1200 X140.397 Y79.869 E143.33041
G0 F6000 X139.831 Y79.869
G1 F1200 X189.339 Y129.377 E145.42625
G0 F6000 X189.339 Y129.942
G1 F1200 X139.266 Y79.869 E147.546
G0 F6000 X138.7 Y79.869
G1 F1200 X189.339 Y130.508 E149.68971
G0 F6000 X189.339 Y131.074
G1 F1200 X138.134 Y79.869 E151.85739
G0 F6000 X137.569 Y79.869
G1 F1200 X189.339 Y131.639 E154.04898
G0 F6000 X189.339 Y132.205
G1 F1200 X137.003 Y79.869 E156.26453
G0 F6000 X136.437 Y79.869
G1 F1200 X189.339 Y132.771 E158.50404
G0 F6000 X189.308 Y133.305
G1 F1200 X135.871 Y79.869 E160.76618
G0 F6000 X135.306 Y79.869
G1 F1200 X188.742 Y133.305 E163.0283
G0 F6000 X188.176 Y133.305
G1 F1200 X134.74 Y79.869 E165.29042
G0 F6000 X134.174 Y79.869
G1 F1200 X187.61 Y133.305 E167.55254
G0 F6000 X187.045 Y133.305
G1 F1200 X133.609 Y79.869 E169.81466
G0 F6000 X133.043 Y79.869
G1 F1200 X186.479 Y133.305 E172.07678
G0 F6000 X185.913 Y133.305
G1 F1200 X132.477 Y79.869 E174.3389
G0 F6000 X131.912 Y79.869
G1 F1200 X185.348 Y133.305 E176.60102
G0 F6000 X184.782 Y133.305
G1 F1200 X131.346 Y79.869 E178.86314
G0 F6000 X130.78 Y79.869
G1 F1200 X184.216 Y133.305 E181.12526
G0 F6000 X183.651 Y133.305
G1 F1200 X130.215 Y79.869 E183.38737
G0 F6000 X129.649 Y79.869
G1 F1200 X183.085 Y133.305 E185.64949
G0 F6000 X182.519 Y133.305
G1 F1200 X129.083 Y79.869 E187.91161
G0 F6000 X128.518 Y79.869
G1 F1200 X181.954 Y133.305 E190.17373
G0 F6000 X181.388 Y133.305
G1 F1200 X127.952 Y79.869 E192.43585
G0 F6000 X127.386 Y79.869
G1 F1200 X180.822 Y133.305 E194.69797
G0 F6000 X180.257 Y133.305
G1 F1200 X126.821 Y79.869 E196.96009
G0 F6000 X126.255 Y79.869
G1 F1200 X179.691 Y133.305 E199.22221
G0 F6000 X179.125 Y133.305
G1 F1200 X125.689 Y79.869 E201.48433
G0 F6000 X125.123 Y79.869
G1 F1200 X178.56 Y133.305 E203.74647
G0 F6000 X177.994 Y133.305
G1 F1200 X124.558 Y79.869 E206.00859
G0 F6000 X123.992 Y79.869
G1 F1200 X177.428 Y133.305 E208.27071
G0 F6000 X176.862 Y133.305
G1 F1200 X123.426 Y79.869 E210.53282
G0 F6000 X122.861 Y79.869
G1 F1200 X176.297 Y133.305 E212.79494
G0 F6000 X175.731 Y133.305
G1 F1200 X122.295 Y79.869 E215.05706
G0 F6000 X121.729 Y79.869
G1 F1200 X175.165 Y133.305 E217.31918
G0 F6000 X174.6 Y133.305
G1 F1200 X121.164 Y79.869 E219.5813
G0 F6000 X120.598 Y79.869
G1 F1200 X174.034 Y133.305 E221.84342
G0 F6000 X173.468 Y133.305
G1 F1200 X120.032 Y79.869 E224.10554
G0 F6000 X119.467 Y79.869
G1 F1200 X172.903 Y133.305 E226.36766
G0 F6000 X172.337 Y133.305
G1 F1200 X118.901 Y79.869 E228.62978
G0 F6000 X118.335 Y79.869
G1 F1200 X171.771 Y133.305 E230.8919
G0 F6000 X171.206 Y133.305
G1 F1200 X117.77 Y79.869 E233.15401
G0 F6000 X117.204 Y79.869
G1 F1200 X170.64 Y133.305 E235.41613
G0 F6000 X170.074 Y133.305
G1 F1200 X116.638 Y79.869 E237.67825
G0 F6000 X116.072 Y79.869
G1 F1200 X169.509 Y133.305 E239.94039
G0 F6000 X168.943 Y133.305
G1 F1200 X115.507 Y79.869 E242.20251
G0 F6000 X114.941 Y79.869
G1 F1200 X168.377 Y133.305 E244.46463
G0 F6000 X167.811 Y133.305
G1 F1200 X114.375 Y79.869 E246.72675
G0 F6000 X113.81 Y79.869
G1 F1200 X167.246 Y133.305 E248.98887
G0 F6000 X166.68 Y133.305
G1 F1200 X113.244 Y79.869 E251.25099
G0 F6000 X112.678 Y79.869
G1 F1200 X166.114 Y133.305 E253.51311
G0 F6000 X165.549 Y133.305
G1 F1200 X112.113 Y79.869 E255.77523
G0 F6000 X111.547 Y79.869
G1 F1200 X164.983 Y133.305 E258.03735
G0 F6000 X164.417 Y133.305
G1 F1200 X110.981 Y79.869 E260.29946
G0 F6000 X110.416 Y79.869
G1 F1200 X163.852 Y133.305 E262.56158
G0 F6000 X163.286 Y133.305
G1 F1200 X109.85 Y79.869 E264.8237
G0 F6000 X109.284 Y79.869
G1 F1200 X162.72 Y133.305 E267.08582
G0 F6000 X162.155 Y133.305
G1 F1200 X108.719 Y79.869 E269.34794
G0 F6000 X108.153 Y79.869
G1 F1200 X161.589 Y133.305 E271.61006
G0 F6000 X161.023 Y133.305
G1 F1200 X107.587 Y79.869 E273.87218
G0 F6000 X107.022 Y79.869
G1 F1200 X160.458 Y133.305 E276.1343
G0 F6000 X159.892 Y133.305
G1 F1200 X106.456 Y79.869 E278.39642
G0 F6000 X105.89 Y79.869
G1 F1200 X159.326 Y133.305 E280.65854
G0 F6000 X158.761 Y133.305
G1 F1200 X105.324 Y79.869 E282.92068
G0 F6000 X104.759 Y79.869
G1 F1200 X158.195 Y133.305 E285.1828
G0 F6000 X157.629 Y133.305
G1 F1200 X104.193 Y79.869 E287.44491
G0 F6000 X103.627 Y79.869
G1 F1200 X157.063 Y133.305 E289.70703
G0 F6000 X156.498 Y133.305
G1 F1200 X103.062 Y79.869 E291.96915
G0 F6000 X102.496 Y79.869
G1 F1200 X155.932 Y133.305 E294.23127
G0 F6000 X155.366 Y133.305
G1 F1200 X101.93 Y79.869 E296.49339
G0 F6000 X101.365 Y79.869
G1 F1200 X154.801 Y133.305 E298.75551
G0 F6000 X154.235 Y133.305
G1 F1200 X100.799 Y79.869 E301.01763
G0 F6000 X100.233 Y79.869
G1 F1200 X153.669 Y133.305 E303.27975
G0 F6000 X153.104 Y133.305
G1 F1200 X99.668 Y79.869 E305.54187
G0 F6000 X99.102 Y79.869
G1 F1200 X152.538 Y133.305 E307.80399
G0 F6000 X151.972 Y133.305
G1 F1200 X98.536 Y79.869 E310.0661
G0 F6000 X97.971 Y79.869
G1 F1200 X151.407 Y133.305 E312.32822
G0 F6000 X150.841 Y133.305
G1 F1200 X97.405 Y79.869 E314.59034
G0 F6000 X96.839 Y79.869
G1 F1200 X150.275 Y133.305 E316.85246
G0 F6000 X149.71 Y133.305
G1 F1200 X96.274 Y79.869 E319.11458
G0 F6000 X95.708 Y79.869
G1 F1200 X149.144 Y133.305 E321.3767
G0 F6000 X148.578 Y133.305
G1 F1200 X95.142 Y79.869 E323.63882
G0 F6000 X94.576 Y79.869
G1 F1200 X148.013 Y133.305 E325.90096
G0 F6000 X147.447 Y133.305
G1 F1200 X94.011 Y79.869 E328.16308
G0 F6000 X93.445 Y79.869
G1 F1200 X146.881 Y133.305 E330.4252
G0 F6000 X146.315 Y133.305
G1 F1200 X92.879 Y79.869 E332.68732
G0 F6000 X92.314 Y79.869
G1 F1200 X145.75 Y133.305 E334.94944
G0 F6000 X145.184 Y133.305
G1 F1200 X91.748 Y79.869 E337.21155
G0 F6000 X91.182 Y79.869
G1 F1200 X144.618 Y133.305 E339.47367
G0 F6000 X144.053 Y133.305
G1 F1200 X90.617 Y79.869 E341.73579
G0 F6000 X90.051 Y79.869
G1 F1200 X143.487 Y133.305 E343.99791
G0 F6000 X142.921 Y133.305
G1 F1200 X89.485 Y79.869 E346.26003
G0 F6000 X88.92 Y79.869
G1 F1200 X142.356 Y133.305 E348.52215
G0 F6000 X141.79 Y133.305
G1 F1200 X88.354 Y79.869 E350.78427
G0 F6000 X87.788 Y79.869
G1 F1200 X141.224 Y133.305 E353.04639
G0 F6000 X140.659 Y133.305
G1 F1200 X87.223 Y79.869 E355.30851
G0 F6000 X86.657 Y79.869
G1 F1200 X140.093 Y133.305 E357.57063
G0 F6000 X139.527 Y133.305
G1 F1200 X86.091 Y79.869 E359.83275
G0 F6000 X85.525 Y79.869
G1 F1200 X138.962 Y133.305 E362.09489
G0 F6000 X138.396 Y133.305
G1 F1200 X84.96 Y79.869 E364.357
G0 F6000 X84.394 Y79.869
G1 F1200 X137.83 Y133.305 E366.61912
G0 F6000 X137.264 Y133.305
G1 F1200 X83.828 Y79.869 E368.88124
G0 F6000 X83.263 Y79.869
G1 F1200 X136.699 Y133.305 E371.14336
G0 F6000 X136.133 Y133.305
G1 F1200 X82.697 Y79.869 E373.40548
G0 F6000 X82.131 Y79.869
G1 F1200 X135.567 Y133.305 E375.6676
G0 F6000 X135.002 Y133.305
G1 F1200 X81.566 Y79.869 E377.92972
G0 F6000 X81 Y79.869
G1 F1200 X134.436 Y133.305 E380.19184
G0 F6000 X133.87 Y133.305
G1 F1200 X80.434 Y79.869 E382.45396
G0 F6000 X79.869 Y79.869
G1 F1200 X133.305 Y133.305 E384.71608
G0 F6000 X132.739 Y133.305
G1 F1200 X79.303 Y79.869 E386.97819
G0 F6000 X78.737 Y79.869
G1 F1200 X132.173 Y133.305 E389.24031
G0 F6000 X131.608 Y133.305
G1 F1200 X78.172 Y79.869 E391.50243
G0 F6000 X77.606 Y79.869
G1 F1200 X131.042 Y133.305 E393.76455
G0 F6000 X130.476 Y133.305
G1 F1200 X77.04 Y79.869 E396.02667
G0 F6000 X76.475 Y79.869
G1 F1200 X129.911 Y133.305 E398.28879
G0 F6000 X129.345 Y133.305
G1 F1200 X75.909 Y79.869 E400.55091
G0 F6000 X75.343 Y79.869
G1 F1200 X128.779 Y133.305 E402.81303
G0 F6000 X128.214 Y133.305
G1 F1200 X74.777 Y79.869 E405.07517
G0 F6000 X74.212 Y79.869
G1 F1200 X127.648 Y133.305 E407.33729
G0 F6000 X127.082 Y133.305
G1 F1200 X73.646 Y79.869 E409.59941
G0 F6000 X73.08 Y79.869
G1 F1200 X126.516 Y133.305 E411.86153
G0 F6000 X125.951 Y133.305
G1 F1200 X72.515 Y79.869 E414.12364
G0 F6000 X71.949 Y79.869
G1 F1200 X125.385 Y133.305 E416.38576
G0 F6000 X124.819 Y133.305
G1 F1200 X71.383 Y79.869 E418.64788
G0 F6000 X70.818 Y79.869
G1 F1200 X124.254 Y133.305 E420.91
G0 F6000 X123.688 Y133.305
G1 F1200 X70.252 Y79.869 E423.17212
G0 F6000 X69.686 Y79.869
G1 F1200 X123.122 Y133.305 E425.43424
G0 F6000 X122.557 Y133.305
G1 F1200 X69.121 Y79.869 E427.69636
G0 F6000 X68.555 Y79.869
G1 F1200 X121.991 Y133.305 E429.95848
