;FLAVOR:Marlin
;TIME:18021
;Filament used: 15.7135m
;Layer height: 0.2
;MINX:50.335
;MINY:24.335
;MINZ:0.2
;MAXX:169.665
;MAXY:195.665
;MAXZ:5
;Generated with Cura_SteamEngine 4.13.1
M140 S60
M105
M190 S60
M104 S195
M105
M109 S195
M82 ;absolute extrusion mode
G28 ;Home
G92 E0 ;Reset Extruder
G1 Z2.0 F3000 ;Move bed down
G1 X10.1 Y20 Z0.28 F5000.0 ;Move to start position
G1 X10.1 Y200.0 Z0.28 F1500.0 E15 ;Draw the first line
G1 X10.4 Y200.0 Z0.28 F5000.0 ;Move to side a little
G1 X10.4 Y20 Z0.28 F1500.0 E30 ;Draw the second line
G92 E0 ;Reset Extruder
G1 Z2.0 F3000 ;Move Bed up
G92 E0
G92 E0
G1 F2400 E-7
;LAYER_COUNT:25
;LAYER:0
M107
;MESH:CrossWalk.stl
G0 F6000 X69.59 Y186.437 Z0.2
;TYPE:WALL-INNER
G1 F2400 E0
G1 F1200 X70 Y186.478 E0.01233
G1 X70.402 Y186.438 E0.02443
G1 X70.804 Y186.319 E0.03698
G1 X71.168 Y186.123 E0.04935
G1 X71.488 Y185.862 E0.06171
G1 X71.75 Y185.538 E0.07419
G1 X71.944 Y185.179 E0.0864
G1 X72.062 Y184.778 E0.09891
G1 X72.103 Y184.368 E0.11125
G1 X72.061 Y183.957 E0.12361
G1 X71.939 Y183.563 E0.13596
G1 X71.745 Y183.202 E0.14823
G1 X71.482 Y182.882 E0.16063
G1 X71.161 Y182.623 E0.17297
G1 X70.803 Y182.431 E0.18513
G1 X70.403 Y182.313 E0.19762
G1 X69.993 Y182.272 E0.20995
G1 X69.582 Y182.314 E0.22232
G1 X69.188 Y182.436 E0.23467
G1 X68.827 Y182.63 E0.24693
G1 X68.509 Y182.892 E0.25927
G1 X68.252 Y183.207 E0.27144
G1 X68.057 Y183.57 E0.28377
G1 X67.938 Y183.965 E0.29612
G1 X67.897 Y184.375 E0.30846
G1 X67.938 Y184.785 E0.32079
G1 X68.057 Y185.181 E0.33317
G1 X68.252 Y185.544 E0.3455
G1 X68.513 Y185.862 E0.35782
G1 X68.832 Y186.123 E0.37015
G1 X69.195 Y186.318 E0.38249
G1 X69.59 Y186.437 E0.39484
G0 F6000 X69.668 Y186.043
;TYPE:WALL-OUTER
G1 F1200 X70 Y186.076 E0.40482
G1 X70.325 Y186.044 E0.4146
G1 X70.651 Y185.947 E0.42478
G1 X70.945 Y185.789 E0.43477
G1 X71.203 Y185.578 E0.44475
G1 X71.416 Y185.315 E0.45488
G1 X71.572 Y185.026 E0.46471
G1 X71.668 Y184.701 E0.47486
G1 X71.701 Y184.369 E0.48484
G1 X71.667 Y184.037 E0.49483
G1 X71.568 Y183.718 E0.50483
G1 X71.411 Y183.426 E0.51475
G1 X71.199 Y183.168 E0.52475
G1 X70.939 Y182.958 E0.53476
G1 X70.65 Y182.803 E0.54457
G1 X70.326 Y182.707 E0.55469
G1 X69.994 Y182.674 E0.56467
G1 X69.662 Y182.708 E0.57466
G1 X69.343 Y182.807 E0.58466
G1 X69.051 Y182.964 E0.59459
G1 X68.794 Y183.176 E0.60456
G1 X68.586 Y183.43 E0.61439
G1 X68.428 Y183.724 E0.62438
G1 X68.332 Y184.043 E0.63435
G1 X68.299 Y184.375 E0.64434
G1 X68.332 Y184.707 E0.65432
G1 X68.428 Y185.027 E0.66432
G1 X68.586 Y185.32 E0.67429
G1 X68.797 Y185.578 E0.68427
G1 X69.055 Y185.789 E0.69424
G1 X69.349 Y185.947 E0.70423
G1 X69.668 Y186.043 E0.71421
G0 F6000 X69.583 Y186.474
G1 F2400 E-6.28579
G0 F6000 X68.726 Y186.282
G0 X69.412 Y184.965
G0 X60.769 Y184.695
G0 X62.121 Y185.252
G0 X60.743 Y186.169
G0 X59.59 Y186.437
;TYPE:WALL-INNER
G1 F2400 E0.71421
G1 F1200 X60 Y186.478 E0.72654
G1 X60.402 Y186.438 E0.73863
G1 X60.804 Y186.319 E0.75118
G1 X61.168 Y186.123 E0.76356
G1 X61.488 Y185.862 E0.77592
G1 X61.75 Y185.538 E0.78839
G1 X61.944 Y185.179 E0.80061
G1 X62.062 Y184.778 E0.81312
G1 X62.103 Y184.368 E0.82545
G1 X62.061 Y183.957 E0.83782
G1 X61.939 Y183.563 E0.85017
G1 X61.745 Y183.202 E0.86244
G1 X61.482 Y182.882 E0.87483
G1 X61.161 Y182.623 E0.88718
G1 X60.803 Y182.431 E0.89934
G1 X60.403 Y182.313 E0.91182
G1 X59.993 Y182.272 E0.92416
G1 X59.582 Y182.314 E0.93653
G1 X59.188 Y182.436 E0.94887
G1 X58.827 Y182.63 E0.96114
G1 X58.509 Y182.892 E0.97347
G1 X58.252 Y183.207 E0.98564
G1 X58.057 Y183.57 E0.99798
G1 X57.938 Y183.965 E1.01033
G1 X57.897 Y184.375 E1.02266
G1 X57.938 Y184.785 E1.035
G1 X58.057 Y185.181 E1.04737
G1 X58.252 Y185.544 E1.05971
G1 X58.513 Y185.862 E1.07202
G1 X58.832 Y186.123 E1.08436
G1 X59.195 Y186.318 E1.09669
G1 X59.59 Y186.437 E1.10904
G0 F6000 X59.668 Y186.043
;TYPE:WALL-OUTER
G1 F1200 X60 Y186.076 E1.11903
G1 X60.325 Y186.044 E1.12881
G1 X60.651 Y185.947 E1.13899
G1 X60.945 Y185.789 E1.14898
G1 X61.203 Y185.578 E1.15896
G1 X61.416 Y185.315 E1.16909
G1 X61.572 Y185.026 E1.17892
G1 X61.668 Y184.701 E1.18906
G1 X61.701 Y184.369 E1.19905
G1 X61.667 Y184.037 E1.20904
G1 X61.568 Y183.718 E1.21904
G1 X61.411 Y183.426 E1.22896
G1 X61.199 Y183.168 E1.23896
G1 X60.939 Y182.958 E1.24896
G1 X60.65 Y182.803 E1.25878
G1 X60.326 Y182.707 E1.26889
G1 X59.994 Y182.674 E1.27888
G1 X59.662 Y182.708 E1.28887
G1 X59.343 Y182.807 E1.29887
G1 X59.051 Y182.964 E1.30879
G1 X58.794 Y183.176 E1.31877
G1 X58.586 Y183.43 E1.32859
G1 X58.428 Y183.724 E1.33858
G1 X58.332 Y184.043 E1.34856
G1 X58.299 Y184.375 E1.35854
G1 X58.332 Y184.707 E1.36853
G1 X58.428 Y185.027 E1.37853
G1 X58.586 Y185.32 E1.3885
G1 X58.797 Y185.578 E1.39847
G1 X59.055 Y185.789 E1.40845
G1 X59.349 Y185.947 E1.41844
G1 X59.668 Y186.043 E1.42841
G0 F6000 X59.583 Y186.474
G1 F2400 E-5.57159
G0 F6000 X58.627 Y185.748
G0 X58.206 Y185.119
G0 X58.058 Y184.375
G0 X58.206 Y183.632
G0 X58.624 Y183.006
G0 X59.993 Y182.081
G0 X59.996 Y183.543
G0 X60 Y35.207
G0 X60 Y36.669
G0 X59.59 Y36.437
;TYPE:WALL-INNER
G1 F2400 E1.42841
G1 F1200 X60 Y36.478 E1.44075
G1 X60.41 Y36.437 E1.45308
G1 X60.805 Y36.318 E1.46543
G1 X61.168 Y36.123 E1.47776
G1 X61.488 Y35.862 E1.49013
G1 X61.75 Y35.538 E1.5026
G1 X61.944 Y35.179 E1.51481
G1 X62.062 Y34.778 E1.52733
G1 X62.103 Y34.368 E1.53966
G1 X62.061 Y33.957 E1.55203
G1 X61.939 Y33.563 E1.56437
G1 X61.745 Y33.202 E1.57664
G1 X61.482 Y32.882 E1.58904
G1 X61.161 Y32.623 E1.60139
G1 X60.803 Y32.431 E1.61355
G1 X60.403 Y32.313 E1.62603
G1 X59.993 Y32.272 E1.63837
G1 X59.582 Y32.314 E1.65073
G1 X59.188 Y32.436 E1.66308
G1 X58.827 Y32.63 E1.67535
G1 X58.509 Y32.892 E1.68768
G1 X58.252 Y33.207 E1.69985
G1 X58.057 Y33.57 E1.71218
G1 X57.938 Y33.965 E1.72453
G1 X57.897 Y34.375 E1.73687
G1 X57.938 Y34.785 E1.7492
G1 X58.057 Y35.181 E1.76158
G1 X58.252 Y35.544 E1.77391
G1 X58.513 Y35.862 E1.78623
G1 X58.832 Y36.123 E1.79857
G1 X59.195 Y36.318 E1.8109
G1 X59.59 Y36.437 E1.82325
G0 F6000 X59.668 Y36.043
;TYPE:WALL-OUTER
G1 F1200 X60 Y36.076 E1.83324
G1 X60.332 Y36.043 E1.84322
G1 X60.651 Y35.947 E1.8532
G1 X60.945 Y35.789 E1.86319
G1 X61.203 Y35.578 E1.87316
G1 X61.416 Y35.315 E1.88329
G1 X61.572 Y35.026 E1.89313
G1 X61.668 Y34.701 E1.90327
G1 X61.701 Y34.369 E1.91326
G1 X61.667 Y34.037 E1.92325
G1 X61.568 Y33.718 E1.93325
G1 X61.411 Y33.426 E1.94317
G1 X61.199 Y33.168 E1.95317
G1 X60.939 Y32.958 E1.96317
G1 X60.65 Y32.803 E1.97299
G1 X60.326 Y32.707 E1.9831
G1 X59.994 Y32.674 E1.99309
G1 X59.662 Y32.708 E2.00308
G1 X59.343 Y32.807 E2.01308
G1 X59.051 Y32.964 E2.023
G1 X58.794 Y33.176 E2.03297
G1 X58.586 Y33.43 E2.0428
G1 X58.428 Y33.724 E2.05279
G1 X58.332 Y34.043 E2.06276
G1 X58.299 Y34.375 E2.07275
G1 X58.332 Y34.707 E2.08274
G1 X58.428 Y35.027 E2.09274
G1 X58.586 Y35.32 E2.1027
G1 X58.797 Y35.578 E2.11268
G1 X59.055 Y35.789 E2.12266
G1 X59.349 Y35.947 E2.13265
G1 X59.668 Y36.043 E2.14262
G0 F6000 X59.583 Y36.474
G1 F2400 E-4.85738
G0 F6000 X60.522 Y36.228
G0 X61.91 Y35.644
G0 X60.692 Y34.836
G0 X69.307 Y34.836
G0 X68.093 Y35.65
G0 X69.59 Y36.437
;TYPE:WALL-INNER
G1 F2400 E2.14262
G1 F1200 X70 Y36.478 E2.15495
G1 X70.41 Y36.437 E2.16729
G1 X70.805 Y36.318 E2.17964
G1 X71.168 Y36.123 E2.19197
G1 X71.488 Y35.862 E2.20433
G1 X71.75 Y35.538 E2.21681
G1 X71.944 Y35.179 E2.22902
G1 X72.062 Y34.778 E2.24153
G1 X72.103 Y34.368 E2.25387
G1 X72.061 Y33.957 E2.26624
G1 X71.939 Y33.563 E2.27858
G1 X71.745 Y33.202 E2.29085
G1 X71.482 Y32.882 E2.30325
G1 X71.161 Y32.623 E2.3156
G1 X70.803 Y32.431 E2.32776
G1 X70.403 Y32.313 E2.34024
G1 X69.993 Y32.272 E2.35257
G1 X69.582 Y32.314 E2.36494
G1 X69.188 Y32.436 E2.37729
G1 X68.827 Y32.63 E2.38955
G1 X68.509 Y32.892 E2.40189
G1 X68.252 Y33.207 E2.41406
G1 X68.057 Y33.57 E2.42639
G1 X67.938 Y33.965 E2.43874
G1 X67.897 Y34.375 E2.45108
G1 X67.938 Y34.785 E2.46341
G1 X68.057 Y35.181 E2.47579
G1 X68.252 Y35.544 E2.48812
G1 X68.513 Y35.862 E2.50044
G1 X68.832 Y36.123 E2.51277
G1 X69.195 Y36.318 E2.52511
G1 X69.59 Y36.437 E2.53746
G0 F6000 X69.668 Y36.043
;TYPE:WALL-OUTER
G1 F1200 X70 Y36.076 E2.54745
G1 X70.332 Y36.043 E2.55743
G1 X70.651 Y35.947 E2.5674
G1 X70.945 Y35.789 E2.5774
G1 X71.203 Y35.578 E2.58737
G1 X71.416 Y35.315 E2.5975
G1 X71.572 Y35.026 E2.60733
G1 X71.668 Y34.701 E2.61748
G1 X71.701 Y34.369 E2.62747
G1 X71.667 Y34.037 E2.63746
G1 X71.568 Y33.718 E2.64745
G1 X71.411 Y33.426 E2.65738
G1 X71.199 Y33.168 E2.66737
G1 X70.939 Y32.958 E2.67738
G1 X70.65 Y32.803 E2.68719
G1 X70.326 Y32.707 E2.69731
G1 X69.994 Y32.674 E2.7073
G1 X69.662 Y32.708 E2.71729
G1 X69.343 Y32.807 E2.72729
G1 X69.051 Y32.964 E2.73721
G1 X68.794 Y33.176 E2.74718
G1 X68.586 Y33.43 E2.75701
G1 X68.428 Y33.724 E2.767
G1 X68.332 Y34.043 E2.77697
G1 X68.299 Y34.375 E2.78696
G1 X68.332 Y34.707 E2.79695
G1 X68.428 Y35.027 E2.80695
G1 X68.586 Y35.32 E2.81691
G1 X68.797 Y35.578 E2.82689
G1 X69.055 Y35.789 E2.83687
G1 X69.349 Y35.947 E2.84686
G1 X69.668 Y36.043 E2.85683
G0 F6000 X69.583 Y36.474
G1 F2400 E-4.14317
G0 F6000 X70.522 Y36.228
G0 X71.91 Y35.644
G0 X70.692 Y34.836
G0 X149.222 Y34.836
G0 X150.692 Y34.836
G0 X159.307 Y34.836
G0 X158.093 Y35.65
G0 X159.59 Y36.437
;TYPE:WALL-INNER
G1 F2400 E2.85683
G1 F1200 X160 Y36.478 E2.86916
G1 X160.41 Y36.437 E2.8815
G1 X160.805 Y36.318 E2.89385
G1 X161.168 Y36.123 E2.90618
G1 X161.488 Y35.862 E2.91854
G1 X161.75 Y35.538 E2.93102
G1 X161.944 Y35.179 E2.94323
G1 X162.062 Y34.778 E2.95574
G1 X162.103 Y34.368 E2.96808
G1 X162.061 Y33.957 E2.98044
G1 X161.939 Y33.563 E2.99279
G1 X161.745 Y33.202 E3.00506
G1 X161.482 Y32.882 E3.01746
G1 X161.161 Y32.623 E3.0298
G1 X160.803 Y32.431 E3.04196
G1 X160.403 Y32.313 E3.05445
G1 X159.993 Y32.272 E3.06678
G1 X159.582 Y32.314 E3.07915
G1 X159.188 Y32.436 E3.0915
G1 X158.827 Y32.63 E3.10376
G1 X158.509 Y32.892 E3.1161
G1 X158.252 Y33.207 E3.12827
G1 X158.057 Y33.57 E3.1406
G1 X157.938 Y33.965 E3.15295
G1 X157.897 Y34.375 E3.16528
G1 X157.938 Y34.785 E3.17762
G1 X158.057 Y35.181 E3.19
G1 X158.252 Y35.544 E3.20233
G1 X158.513 Y35.862 E3.21465
G1 X158.832 Y36.123 E3.22698
G1 X159.195 Y36.318 E3.23932
G1 X159.59 Y36.437 E3.25167
G0 F6000 X159.668 Y36.043
;TYPE:WALL-OUTER
G1 F1200 X160 Y36.076 E3.26165
G1 X160.332 Y36.043 E3.27164
G1 X160.651 Y35.947 E3.28161
G1 X160.945 Y35.789 E3.2916
G1 X161.203 Y35.578 E3.30158
G1 X161.416 Y35.315 E3.31171
G1 X161.572 Y35.026 E3.32154
G1 X161.668 Y34.701 E3.33169
G1 X161.701 Y34.369 E3.34167
G1 X161.667 Y34.037 E3.35166
G1 X161.568 Y33.718 E3.36166
G1 X161.411 Y33.426 E3.37159
G1 X161.199 Y33.168 E3.38158
G1 X160.939 Y32.958 E3.39159
G1 X160.65 Y32.803 E3.4014
G1 X160.326 Y32.707 E3.41152
G1 X159.994 Y32.674 E3.42151
G1 X159.662 Y32.708 E3.4315
G1 X159.343 Y32.807 E3.44149
G1 X159.051 Y32.964 E3.45142
G1 X158.794 Y33.176 E3.46139
G1 X158.586 Y33.43 E3.47122
G1 X158.428 Y33.724 E3.48121
G1 X158.332 Y34.043 E3.49118
G1 X158.299 Y34.375 E3.50117
G1 X158.332 Y34.707 E3.51116
G1 X158.428 Y35.027 E3.52116
G1 X158.586 Y35.32 E3.53112
G1 X158.797 Y35.578 E3.5411
G1 X159.055 Y35.789 E3.55107
G1 X159.349 Y35.947 E3.56107
G1 X159.668 Y36.043 E3.57104
G0 F6000 X159.583 Y36.474
G1 F2400 E-3.42896
G0 F6000 X158.093 Y35.65
G0 X159.307 Y34.836
G0 X150.692 Y34.836
G0 X151.91 Y35.644
G0 X150.532 Y36.215
G0 X149.59 Y36.437
;TYPE:WALL-INNER
G1 F2400 E3.57104
G1 F1200 X150 Y36.478 E3.58337
G1 X150.41 Y36.437 E3.59571
G1 X150.805 Y36.318 E3.60805
G1 X151.168 Y36.123 E3.62039
G1 X151.488 Y35.862 E3.63275
G1 X151.75 Y35.538 E3.64522
G1 X151.944 Y35.179 E3.65744
G1 X152.062 Y34.778 E3.66995
G1 X152.103 Y34.368 E3.68229
G1 X152.061 Y33.957 E3.69465
G1 X151.939 Y33.563 E3.707
G1 X151.745 Y33.202 E3.71927
G1 X151.482 Y32.882 E3.73167
G1 X151.161 Y32.623 E3.74401
G1 X150.803 Y32.431 E3.75617
G1 X150.403 Y32.313 E3.76866
G1 X149.993 Y32.272 E3.78099
G1 X149.582 Y32.314 E3.79336
G1 X149.188 Y32.436 E3.8057
G1 X148.827 Y32.63 E3.81797
G1 X148.509 Y32.892 E3.83031
G1 X148.252 Y33.207 E3.84247
G1 X148.057 Y33.57 E3.85481
G1 X147.938 Y33.965 E3.86716
G1 X147.897 Y34.375 E3.87949
G1 X147.938 Y34.785 E3.89183
G1 X148.057 Y35.181 E3.9042
G1 X148.252 Y35.544 E3.91654
G1 X148.513 Y35.862 E3.92885
G1 X148.832 Y36.123 E3.94119
G1 X149.195 Y36.318 E3.95353
G1 X149.59 Y36.437 E3.96588
G0 F6000 X149.668 Y36.043
;TYPE:WALL-OUTER
G1 F1200 X150 Y36.076 E3.97586
G1 X150.332 Y36.043 E3.98585
G1 X150.651 Y35.947 E3.99582
G1 X150.945 Y35.789 E4.00581
G1 X151.203 Y35.578 E4.01579
G1 X151.416 Y35.315 E4.02592
G1 X151.572 Y35.026 E4.03575
G1 X151.668 Y34.701 E4.04589
G1 X151.701 Y34.369 E4.05588
G1 X151.667 Y34.037 E4.06587
G1 X151.568 Y33.718 E4.07587
G1 X151.411 Y33.426 E4.08579
G1 X151.199 Y33.168 E4.09579
G1 X150.939 Y32.958 E4.10579
G1 X150.65 Y32.803 E4.11561
G1 X150.326 Y32.707 E4.12573
G1 X149.994 Y32.674 E4.13571
G1 X149.662 Y32.708 E4.1457
G1 X149.343 Y32.807 E4.1557
G1 X149.051 Y32.964 E4.16563
G1 X148.794 Y33.176 E4.1756
G1 X148.586 Y33.43 E4.18543
G1 X148.428 Y33.724 E4.19542
G1 X148.332 Y34.043 E4.20539
G1 X148.299 Y34.375 E4.21538
G1 X148.332 Y34.707 E4.22536
G1 X148.428 Y35.027 E4.23536
G1 X148.586 Y35.32 E4.24533
G1 X148.797 Y35.578 E4.25531
G1 X149.055 Y35.789 E4.26528
G1 X149.349 Y35.947 E4.27527
G1 X149.668 Y36.043 E4.28525
G0 F6000 X149.583 Y36.474
G1 F2400 E-2.71475
G0 F6000 X148.093 Y35.65
G0 X147.593 Y36.754
G0 X144.4 Y36.9
;TYPE:WALL-INNER
G1 F2400 E4.28525
G1 F1200 X144.4 Y58.1 E4.91985
G1 X147.024 Y58.1 E4.9984
G1 X147.563 Y58.057 E5.01458
G1 X148.113 Y57.926 E5.03151
G1 X148.635 Y57.709 E5.04843
G1 X149.117 Y57.413 E5.06536
G1 X149.547 Y57.047 E5.08226
G1 X149.913 Y56.617 E5.09917
G1 X150.209 Y56.135 E5.1161
G1 X150.426 Y55.613 E5.13302
G1 X150.557 Y55.063 E5.14994
G1 X150.6 Y54.524 E5.16613
G1 X150.6 Y40.476 E5.58664
G1 X150.557 Y39.937 E5.60283
G1 X150.426 Y39.387 E5.61975
G1 X150.209 Y38.865 E5.63668
G1 X149.913 Y38.383 E5.65361
G1 X149.547 Y37.953 E5.67051
G1 X149.117 Y37.587 E5.68741
G1 X148.635 Y37.291 E5.70435
G1 X148.113 Y37.074 E5.72127
G1 X147.563 Y36.943 E5.73819
G1 X147.024 Y36.9 E5.75438
G1 X144.4 Y36.9 E5.83293
G0 F6000 X144.8 Y37.3
;TYPE:WALL-OUTER
G1 F1200 X144.8 Y57.7 E6.44358
G1 X147.008 Y57.7 E6.50968
G1 X147.5 Y57.661 E6.52445
G1 X147.989 Y57.544 E6.5395
G1 X148.453 Y57.352 E6.55453
G1 X148.881 Y57.089 E6.56957
G1 X149.263 Y56.763 E6.5846
G1 X149.589 Y56.381 E6.59963
G1 X149.852 Y55.953 E6.61467
G1 X150.044 Y55.489 E6.6297
G1 X150.161 Y55 E6.64475
G1 X150.2 Y54.508 E6.65953
G1 X150.2 Y40.492 E7.07909
G1 X150.161 Y40 E7.09386
G1 X150.044 Y39.511 E7.10891
G1 X149.852 Y39.047 E7.12394
G1 X149.589 Y38.619 E7.13898
G1 X149.263 Y38.237 E7.15401
G1 X148.881 Y37.911 E7.16904
G1 X148.453 Y37.648 E7.18408
G1 X147.989 Y37.456 E7.19911
G1 X147.5 Y37.339 E7.21416
G1 X147.008 Y37.3 E7.22894
G1 X144.8 Y37.3 E7.29503
G1 F2400 E0.29503
G0 F6000 X144.5 Y37.3
G0 X144.4 Y58.29
G0 X144.4 Y61.71
G0 X144.4 Y61.9
;TYPE:WALL-INNER
G1 F2400 E7.29503
G1 F1200 X144.4 Y83.1 E7.92964
G1 X147.024 Y83.1 E8.00818
G1 X147.563 Y83.057 E8.02437
G1 X148.113 Y82.926 E8.04129
G1 X148.635 Y82.709 E8.05822
G1 X149.117 Y82.413 E8.07515
G1 X149.547 Y82.047 E8.09205
G1 X149.913 Y81.617 E8.10895
G1 X150.209 Y81.135 E8.12588
G1 X150.426 Y80.613 E8.14281
G1 X150.557 Y80.063 E8.15973
G1 X150.6 Y79.524 E8.17592
G1 X150.6 Y65.476 E8.59643
G1 X150.557 Y64.937 E8.61262
G1 X150.426 Y64.387 E8.62954
G1 X150.209 Y63.865 E8.64646
G1 X149.913 Y63.383 E8.66339
G1 X149.547 Y62.953 E8.6803
G1 X149.117 Y62.587 E8.6972
G1 X148.635 Y62.291 E8.71413
G1 X148.113 Y62.074 E8.73105
G1 X147.563 Y61.943 E8.74798
G1 X147.024 Y61.9 E8.76416
G1 X144.4 Y61.9 E8.84271
G0 F6000 X144.8 Y62.3
;TYPE:WALL-OUTER
G1 F1200 X144.8 Y82.7 E9.45337
G1 X147.008 Y82.7 E9.51946
G1 X147.5 Y82.661 E9.53424
G1 X147.989 Y82.544 E9.54929
G1 X148.453 Y82.352 E9.56432
G1 X148.881 Y82.089 E9.57936
G1 X149.263 Y81.763 E9.59439
G1 X149.589 Y81.381 E9.60942
G1 X149.852 Y80.953 E9.62446
G1 X150.044 Y80.489 E9.63949
G1 X150.161 Y80 E9.65454
G1 X150.2 Y79.508 E9.66932
G1 X150.2 Y65.492 E10.08887
G1 X150.161 Y65 E10.10365
G1 X150.044 Y64.511 E10.1187
G1 X149.852 Y64.047 E10.13373
G1 X149.589 Y63.619 E10.14877
G1 X149.263 Y63.237 E10.1638
G1 X148.881 Y62.911 E10.17883
G1 X148.453 Y62.648 E10.19387
