;FLAVOR:Marlin
;TIME:2944
;Filament used: 2.50173m
;Layer height: 0.2
;MINX:50.335
;MINY:101.835
;MINZ:0.2
;MAXX:169.665
;MAXY:118.165
;MAXZ:15
;Generated with Cura_SteamEngine 4.13.1
M140 S60
M105
M190 S60
M104 S195
M105
M109 S195
M82 ;absolute extrusion mode
G28 ;Home
G92 E0 ;Reset Extruder
G1 Z2.0 F3000 ;Move bed down
G1 X10.1 Y20 Z0.28 F5000.0 ;Move to start position
G1 X10.1 Y200.0 Z0.28 F1500.0 E15 ;Draw the first line
G1 X10.4 Y200.0 Z0.28 F5000.0 ;Move to side a little
G1 X10.4 Y20 Z0.28 F1500.0 E30 ;Draw the second line
G92 E0 ;Reset Extruder
G1 Z2.0 F3000 ;Move Bed up
G92 E0
G92 E0
G1 F2400 E-7
;LAYER_COUNT:75
;LAYER:0
M107
;MESH:Link.stl
G0 F6000 X59.59 Y113.937 Z0.2
;TYPE:WALL-INNER
G1 F2400 E0
G1 F1200 X60 Y113.978 E0.01233
G1 X60.41 Y113.937 E0.02467
G1 X60.805 Y113.818 E0.03702
G1 X61.168 Y113.623 E0.04935
G1 X61.487 Y113.362 E0.06169
G1 X61.748 Y113.043 E0.07403
G1 X61.943 Y112.68 E0.08636
G1 X62.062 Y112.285 E0.09871
G1 X62.103 Y111.874 E0.11108
G1 X62.062 Y111.465 E0.12338
G1 X61.943 Y111.07 E0.13573
G1 X61.748 Y110.707 E0.14806
G1 X61.487 Y110.388 E0.1604
G1 X61.168 Y110.127 E0.17274
G1 X60.804 Y109.931 E0.18511
G1 X60.401 Y109.812 E0.19769
G1 X59.998 Y109.772 E0.20982
G1 X59.58 Y109.815 E0.22239
G1 X59.186 Y109.936 E0.23473
G1 X58.831 Y110.127 E0.2468
G1 X58.507 Y110.395 E0.25939
G1 X58.251 Y110.709 E0.27151
G1 X58.054 Y111.08 E0.28409
G1 X57.937 Y111.474 E0.29639
G1 X57.897 Y111.877 E0.30851
G1 X57.94 Y112.295 E0.32109
G1 X58.061 Y112.689 E0.33343
G1 X58.252 Y113.044 E0.3455
G1 X58.52 Y113.368 E0.35808
G1 X58.834 Y113.624 E0.37021
G1 X59.203 Y113.821 E0.38273
G1 X59.59 Y113.937 E0.39482
G0 F6000 X59.668 Y113.543
;TYPE:WALL-OUTER
G1 F1200 X60 Y113.576 E0.40481
G1 X60.332 Y113.543 E0.4148
G1 X60.651 Y113.447 E0.42477
G1 X60.945 Y113.289 E0.43476
G1 X61.203 Y113.078 E0.44474
G1 X61.414 Y112.82 E0.45472
G1 X61.572 Y112.526 E0.46471
G1 X61.668 Y112.207 E0.47468
G1 X61.701 Y111.874 E0.4847
G1 X61.668 Y111.543 E0.49465
G1 X61.572 Y111.224 E0.50462
G1 X61.414 Y110.93 E0.51462
G1 X61.203 Y110.672 E0.52459
G1 X60.945 Y110.461 E0.53457
G1 X60.651 Y110.303 E0.54456
G1 X60.324 Y110.206 E0.55477
G1 X59.999 Y110.174 E0.56455
G1 X59.66 Y110.209 E0.57475
G1 X59.341 Y110.307 E0.58474
G1 X59.055 Y110.461 E0.59446
G1 X58.792 Y110.678 E0.60467
G1 X58.586 Y110.931 E0.61443
G1 X58.426 Y111.232 E0.62464
G1 X58.331 Y111.551 E0.6346
G1 X58.299 Y111.876 E0.64438
G1 X58.334 Y112.215 E0.65458
G1 X58.432 Y112.534 E0.66457
G1 X58.586 Y112.82 E0.67429
G1 X58.803 Y113.083 E0.6845
G1 X59.056 Y113.289 E0.69426
G1 X59.356 Y113.449 E0.70444
G1 X59.668 Y113.543 E0.7142
G0 F6000 X59.583 Y113.974
G1 F2400 E-6.2858
G0 F6000 X61.622 Y113.497
G0 X60.589 Y112.464
G0 X69.416 Y112.468
G0 X68.385 Y113.504
G0 X69.59 Y113.937
;TYPE:WALL-INNER
G1 F2400 E0.7142
G1 F1200 X70 Y113.978 E0.72653
G1 X70.41 Y113.937 E0.73886
G1 X70.805 Y113.818 E0.75121
G1 X71.168 Y113.623 E0.76355
G1 X71.487 Y113.362 E0.77589
G1 X71.748 Y113.043 E0.78822
G1 X71.943 Y112.68 E0.80056
G1 X72.062 Y112.285 E0.81291
G1 X72.103 Y111.875 E0.82524
G1 X72.062 Y111.465 E0.83758
G1 X71.943 Y111.07 E0.84992
G1 X71.748 Y110.707 E0.86226
G1 X71.487 Y110.388 E0.8746
G1 X71.168 Y110.127 E0.88693
G1 X70.804 Y109.931 E0.89931
G1 X70.401 Y109.812 E0.91189
G1 X69.998 Y109.772 E0.92401
G1 X69.58 Y109.815 E0.93659
G1 X69.186 Y109.936 E0.94893
G1 X68.831 Y110.127 E0.96099
G1 X68.507 Y110.395 E0.97358
G1 X68.251 Y110.709 E0.98571
G1 X68.054 Y111.079 E0.99826
G1 X67.935 Y111.479 E1.01075
G1 X67.9 Y111.909 E1.02366
G1 X67.938 Y112.286 E1.035
G1 X68.061 Y112.688 E1.04759
G1 X68.252 Y113.044 E1.05968
G1 X68.52 Y113.368 E1.07227
G1 X68.834 Y113.624 E1.0844
G1 X69.203 Y113.821 E1.09692
G1 X69.59 Y113.937 E1.10901
G0 F6000 X69.668 Y113.543
;TYPE:WALL-OUTER
G1 F1200 X70 Y113.576 E1.119
G1 X70.332 Y113.543 E1.12898
G1 X70.651 Y113.447 E1.13896
G1 X70.945 Y113.289 E1.14895
G1 X71.203 Y113.078 E1.15892
G1 X71.414 Y112.82 E1.1689
G1 X71.572 Y112.526 E1.17889
G1 X71.668 Y112.207 E1.18886
G1 X71.701 Y111.875 E1.19885
G1 X71.668 Y111.543 E1.20884
G1 X71.572 Y111.224 E1.21881
G1 X71.414 Y110.93 E1.2288
G1 X71.203 Y110.672 E1.23878
G1 X70.945 Y110.461 E1.24876
G1 X70.651 Y110.303 E1.25875
G1 X70.324 Y110.206 E1.26896
G1 X69.999 Y110.174 E1.27873
G1 X69.66 Y110.209 E1.28893
G1 X69.341 Y110.307 E1.29892
G1 X69.055 Y110.461 E1.30865
G1 X68.792 Y110.678 E1.31885
G1 X68.586 Y110.931 E1.32862
G1 X68.426 Y111.232 E1.33882
G1 X68.33 Y111.553 E1.34885
G1 X68.302 Y111.905 E1.35942
G1 X68.332 Y112.207 E1.36851
G1 X68.432 Y112.533 E1.37872
G1 X68.586 Y112.82 E1.38846
G1 X68.803 Y113.083 E1.39867
G1 X69.056 Y113.289 E1.40844
G1 X69.356 Y113.449 E1.41862
G1 X69.668 Y113.543 E1.42837
G0 F6000 X69.583 Y113.974
G1 F2400 E-5.57163
G0 F6000 X71.622 Y113.497
G0 X70.589 Y112.464
G0 X149.416 Y112.468
G0 X148.385 Y113.504
G0 X149.59 Y113.937
;TYPE:WALL-INNER
G1 F2400 E1.42837
G1 F1200 X150 Y113.978 E1.4407
G1 X150.41 Y113.937 E1.45304
G1 X150.805 Y113.818 E1.46539
G1 X151.168 Y113.623 E1.47772
G1 X151.487 Y113.362 E1.49006
G1 X151.748 Y113.043 E1.5024
G1 X151.943 Y112.68 E1.51473
G1 X152.062 Y112.285 E1.52708
G1 X152.103 Y111.874 E1.53944
G1 X152.062 Y111.465 E1.55175
G1 X151.943 Y111.07 E1.5641
G1 X151.748 Y110.707 E1.57643
G1 X151.487 Y110.388 E1.58877
G1 X151.168 Y110.127 E1.60111
G1 X150.804 Y109.931 E1.61348
G1 X150.401 Y109.812 E1.62606
G1 X149.998 Y109.772 E1.63818
G1 X149.58 Y109.815 E1.65076
G1 X149.186 Y109.936 E1.6631
G1 X148.831 Y110.127 E1.67517
G1 X148.507 Y110.395 E1.68775
G1 X148.251 Y110.709 E1.69988
G1 X148.054 Y111.08 E1.71246
G1 X147.937 Y111.474 E1.72476
G1 X147.897 Y111.877 E1.73688
G1 X147.94 Y112.295 E1.74946
G1 X148.061 Y112.689 E1.7618
G1 X148.252 Y113.044 E1.77386
G1 X148.52 Y113.368 E1.78645
G1 X148.834 Y113.624 E1.79858
G1 X149.203 Y113.821 E1.8111
G1 X149.59 Y113.937 E1.82319
G0 F6000 X149.668 Y113.543
;TYPE:WALL-OUTER
G1 F1200 X150 Y113.576 E1.83318
G1 X150.332 Y113.543 E1.84317
G1 X150.651 Y113.447 E1.85314
G1 X150.945 Y113.289 E1.86313
G1 X151.203 Y113.078 E1.87311
G1 X151.414 Y112.82 E1.88308
G1 X151.572 Y112.526 E1.89308
G1 X151.668 Y112.207 E1.90305
G1 X151.701 Y111.874 E1.91306
G1 X151.668 Y111.543 E1.92302
G1 X151.572 Y111.224 E1.93299
G1 X151.414 Y110.93 E1.94298
G1 X151.203 Y110.672 E1.95296
G1 X150.945 Y110.461 E1.96294
G1 X150.651 Y110.303 E1.97293
G1 X150.324 Y110.206 E1.98314
G1 X149.999 Y110.174 E1.99292
G1 X149.66 Y110.209 E2.00312
G1 X149.341 Y110.307 E2.01311
G1 X149.055 Y110.461 E2.02283
G1 X148.792 Y110.678 E2.03304
G1 X148.586 Y110.931 E2.0428
G1 X148.426 Y111.232 E2.05301
G1 X148.331 Y111.551 E2.06297
G1 X148.299 Y111.876 E2.07275
G1 X148.334 Y112.215 E2.08295
G1 X148.432 Y112.534 E2.09294
G1 X148.586 Y112.82 E2.10266
G1 X148.803 Y113.083 E2.11287
G1 X149.056 Y113.289 E2.12263
G1 X149.356 Y113.449 E2.13281
G1 X149.668 Y113.543 E2.14256
G0 F6000 X149.583 Y113.974
G1 F2400 E-4.85744
G0 F6000 X151.622 Y113.497
G0 X150.589 Y112.464
G0 X159.416 Y112.468
G0 X158.385 Y113.504
G0 X159.59 Y113.937
;TYPE:WALL-INNER
G1 F2400 E2.14256
G1 F1200 X160 Y113.978 E2.1549
G1 X160.41 Y113.937 E2.16723
G1 X160.805 Y113.818 E2.17958
G1 X161.168 Y113.623 E2.19192
G1 X161.487 Y113.362 E2.20425
G1 X161.748 Y113.043 E2.21659
G1 X161.943 Y112.68 E2.22893
G1 X162.062 Y112.285 E2.24128
G1 X162.103 Y111.875 E2.25361
G1 X162.062 Y111.465 E2.26594
G1 X161.943 Y111.07 E2.27829
G1 X161.748 Y110.707 E2.29063
G1 X161.487 Y110.388 E2.30297
G1 X161.168 Y110.127 E2.3153
G1 X160.804 Y109.931 E2.32768
G1 X160.401 Y109.812 E2.34026
G1 X159.998 Y109.772 E2.35238
G1 X159.58 Y109.815 E2.36496
G1 X159.186 Y109.936 E2.3773
G1 X158.831 Y110.127 E2.38936
G1 X158.507 Y110.395 E2.40195
G1 X158.251 Y110.709 E2.41408
G1 X158.054 Y111.079 E2.42662
G1 X157.935 Y111.479 E2.43912
G1 X157.9 Y111.909 E2.45203
G1 X157.938 Y112.286 E2.46337
G1 X158.061 Y112.688 E2.47596
G1 X158.252 Y113.044 E2.48805
G1 X158.52 Y113.368 E2.50064
G1 X158.834 Y113.624 E2.51277
G1 X159.203 Y113.821 E2.52529
G1 X159.59 Y113.937 E2.53738
G0 F6000 X159.668 Y113.543
;TYPE:WALL-OUTER
G1 F1200 X160 Y113.576 E2.54737
G1 X160.332 Y113.543 E2.55735
G1 X160.651 Y113.447 E2.56733
G1 X160.945 Y113.289 E2.57732
G1 X161.203 Y113.078 E2.58729
G1 X161.414 Y112.82 E2.59727
G1 X161.572 Y112.526 E2.60726
G1 X161.668 Y112.207 E2.61723
G1 X161.701 Y111.875 E2.62722
G1 X161.668 Y111.543 E2.63721
G1 X161.572 Y111.224 E2.64718
G1 X161.414 Y110.93 E2.65717
G1 X161.203 Y110.672 E2.66715
G1 X160.945 Y110.461 E2.67712
G1 X160.651 Y110.303 E2.68712
G1 X160.324 Y110.206 E2.69733
G1 X159.999 Y110.174 E2.7071
G1 X159.66 Y110.209 E2.7173
G1 X159.341 Y110.307 E2.72729
G1 X159.055 Y110.461 E2.73702
G1 X158.792 Y110.678 E2.74722
G1 X158.586 Y110.931 E2.75699
G1 X158.426 Y111.232 E2.76719
G1 X158.33 Y111.553 E2.77722
G1 X158.302 Y111.905 E2.78779
G1 X158.332 Y112.207 E2.79688
G1 X158.432 Y112.533 E2.80708
G1 X158.586 Y112.82 E2.81683
G1 X158.803 Y113.083 E2.82704
G1 X159.056 Y113.289 E2.83681
G1 X159.356 Y113.449 E2.84698
G1 X159.668 Y113.543 E2.85674
G0 F6000 X159.583 Y113.974
G1 F2400 E-4.14326
G0 F6000 X161.622 Y113.497
G0 X160.589 Y112.464
G0 X161.622 Y118.165
G0 X161.622 Y116.69
G0 X168.4 Y116.9
;TYPE:WALL-INNER
G1 F2400 E2.85674
G1 F1200 X51.6 Y116.9 E6.35304
G1 X51.6 Y103.1 E6.76613
G1 X168.4 Y103.1 E10.26244
G1 X168.4 Y116.9 E10.67553
G0 F6000 X168.8 Y117.3
;TYPE:WALL-OUTER
G1 F1200 X51.2 Y117.3 E14.19578
G1 X51.2 Y102.7 E14.63282
G1 X168.8 Y102.7 E18.15307
G1 X168.8 Y117.3 E18.59011
G0 F6000 X168.53 Y117.03
G0 X168.29 Y116.51
G0 X168.01 Y116.51
;TYPE:SKIN
G1 F1200 X51.99 Y116.51 E22.06307
G1 X51.99 Y103.49 E22.45281
G1 X168.01 Y103.49 E25.92577
G1 X168.01 Y116.51 E26.31551
G1 F2400 E19.31551
G0 F6000 X168.29 Y116.51
G0 X161.84 Y116.69
G0 X161.84 Y118.165
G0 X160.464 Y112.566
G0 X161.274 Y113.782
G0 X161.84 Y113.104
G1 F2400 E26.31551
G0 F6000 X162.074 Y113.261
G1 F1200 X162.305 Y112.83 E26.33015
G1 X162.446 Y112.361 E26.34481
G1 X162.495 Y111.875 E26.35943
G1 X162.446 Y111.389 E26.37405
G1 X162.305 Y110.92 E26.38871
G1 X162.074 Y110.489 E26.40335
G1 X161.764 Y110.111 E26.41798
G1 X161.386 Y109.801 E26.43262
G1 X160.954 Y109.568 E26.44731
G1 X160.477 Y109.428 E26.46219
G1 X159.998 Y109.38 E26.4766
G1 X159.502 Y109.431 E26.49153
G1 X159.035 Y109.575 E26.50615
G1 X158.613 Y109.801 E26.52048
G1 X158.228 Y110.119 E26.53543
G1 X157.925 Y110.492 E26.54982
G1 X157.691 Y110.93 E26.56468
G1 X157.549 Y111.407 E26.57958
G1 X157.508 Y111.913 E26.59478
G1 X157.554 Y112.364 E26.60835
G1 X157.699 Y112.838 E26.62318
G1 X157.927 Y113.262 E26.6376
G1 X158.244 Y113.647 E26.65252
G1 X158.617 Y113.95 E26.66691
G1 X159.053 Y114.184 E26.68172
G1 X159.514 Y114.321 E26.69612
G1 X160 Y114.37 E26.71074
G1 X160.486 Y114.321 E26.72536
G1 X160.955 Y114.18 E26.74002
G1 X161.386 Y113.949 E26.75466
G1 X161.764 Y113.639 E26.76929
G1 X162.074 Y113.261 E26.78393
G1 F2400 E19.78393
G0 F6000 X161.84 Y113.104
G0 X160.743 Y113.669
G0 X160 Y113.817
G0 X159.264 Y113.671
G0 X158.633 Y113.254
G0 X157.709 Y111.911
G0 X159.169 Y111.895
G0 X150.832 Y111.874
G0 X152.294 Y111.874
G0 X152.171 Y112.307
G1 F2400 E26.78393
G0 F6000 X152.446 Y112.361
G1 F1200 X152.495 Y111.874 E26.79858
G1 X152.446 Y111.389 E26.81317
G1 X152.305 Y110.92 E26.82783
G1 X152.074 Y110.489 E26.84247
G1 X151.764 Y110.111 E26.8571
G1 X151.386 Y109.801 E26.87173
G1 X150.954 Y109.568 E26.88643
G1 X150.477 Y109.428 E26.90131
G1 X149.998 Y109.38 E26.91572
G1 X149.502 Y109.431 E26.93064
G1 X149.035 Y109.575 E26.94527
G1 X148.613 Y109.801 E26.9596
G1 X148.228 Y110.119 E26.97455
G1 X147.925 Y110.493 E26.98896
G1 X147.691 Y110.932 E27.00385
G1 X147.553 Y111.398 E27.0184
G1 X147.505 Y111.877 E27.03281
G1 X147.556 Y112.373 E27.04773
G1 X147.7 Y112.84 E27.06236
G1 X147.926 Y113.262 E27.07669
G1 X148.244 Y113.647 E27.09164
G1 X148.617 Y113.95 E27.10602
G1 X149.053 Y114.184 E27.12084
G1 X149.514 Y114.321 E27.13523
G1 X150 Y114.37 E27.14985
G1 X150.486 Y114.321 E27.16448
G1 X150.955 Y114.18 E27.17914
G1 X151.386 Y113.949 E27.19377
G1 X151.764 Y113.639 E27.20841
G1 X152.074 Y113.261 E27.22304
G1 X152.305 Y112.83 E27.23768
G1 X152.446 Y112.361 E27.25234
G1 F2400 E20.25234
G0 F6000 X152.171 Y112.307
G0 X151.373 Y113.248
G0 X150.743 Y113.669
G0 X150 Y113.817
G0 X149.264 Y113.671
G0 X148.633 Y113.254
G0 X147.706 Y111.877
G0 X149.168 Y111.872
G0 X70.832 Y111.874
G0 X72.294 Y111.875
G1 F2400 E27.25234
G0 F6000 X72.495 Y111.875
G1 F1200 X72.446 Y111.389 E27.26696
G1 X72.305 Y110.92 E27.28162
G1 X72.074 Y110.489 E27.29626
G1 X71.764 Y110.111 E27.31089
G1 X71.386 Y109.801 E27.32552
G1 X70.954 Y109.568 E27.34022
G1 X70.477 Y109.428 E27.3551
G1 X69.998 Y109.38 E27.36951
G1 X69.502 Y109.431 E27.38443
G1 X69.035 Y109.575 E27.39906
G1 X68.613 Y109.801 E27.41339
G1 X68.228 Y110.119 E27.42834
G1 X67.925 Y110.492 E27.44272
G1 X67.691 Y110.93 E27.45759
G1 X67.549 Y111.407 E27.47249
G1 X67.508 Y111.913 E27.48768
G1 X67.554 Y112.364 E27.50125
G1 X67.699 Y112.838 E27.51609
G1 X67.927 Y113.262 E27.5305
G1 X68.244 Y113.647 E27.54543
G1 X68.617 Y113.95 E27.55982
G1 X69.053 Y114.184 E27.57463
G1 X69.514 Y114.321 E27.58902
G1 X70 Y114.37 E27.60365
G1 X70.486 Y114.321 E27.61827
G1 X70.955 Y114.18 E27.63293
G1 X71.386 Y113.949 E27.64757
G1 X71.764 Y113.639 E27.6622
G1 X72.074 Y113.261 E27.67683
G1 X72.305 Y112.83 E27.69147
G1 X72.446 Y112.361 E27.70613
G1 X72.495 Y111.875 E27.72075
G1 F2400 E20.72075
G0 F6000 X72.214 Y111.874
G0 X71.614 Y112.954
G0 X71.079 Y113.489
G0 X70.378 Y113.779
G0 X69.622 Y113.779
G0 X68.923 Y113.489
G0 X68.489 Y113.057
G0 X67.709 Y111.911
G0 X69.169 Y111.895
G0 X60.832 Y111.874
G0 X62.294 Y111.874
G1 F2400 E27.72075
G0 F6000 X62.495 Y111.874
G1 F1200 X62.446 Y111.389 E27.73534
G1 X62.305 Y110.92 E27.75
G1 X62.074 Y110.489 E27.76464
G1 X61.764 Y110.111 E27.77928
G1 X61.386 Y109.801 E27.79391
G1 X60.954 Y109.568 E27.8086
G1 X60.477 Y109.428 E27.82348
G1 X59.998 Y109.38 E27.83789
G1 X59.502 Y109.431 E27.85282
G1 X59.035 Y109.575 E27.86745
G1 X58.613 Y109.801 E27.88178
G1 X58.228 Y110.119 E27.89672
G1 X57.925 Y110.493 E27.91113
G1 X57.691 Y110.932 E27.92602
G1 X57.553 Y111.398 E27.94057
G1 X57.505 Y111.877 E27.95498
G1 X57.556 Y112.373 E27.96991
G1 X57.7 Y112.84 E27.98454
G1 X57.926 Y113.262 E27.99887
G1 X58.244 Y113.647 E28.01381
G1 X58.617 Y113.95 E28.0282
G1 X59.053 Y114.184 E28.04301
G1 X59.514 Y114.321 E28.05741
G1 X60 Y114.37 E28.07203
G1 X60.486 Y114.321 E28.08665
G1 X60.955 Y114.18 E28.10131
G1 X61.386 Y113.949 E28.11595
G1 X61.764 Y113.639 E28.13058
G1 X62.074 Y113.261 E28.14522
G1 X62.305 Y112.83 E28.15985
G1 X62.446 Y112.361 E28.17451
G1 X62.495 Y111.874 E28.18917
G1 F2400 E21.18917
G0 F6000 X62.214 Y111.873
G0 X61.614 Y112.954
G0 X61.079 Y113.489
G0 X60.378 Y113.779
G0 X59.766 Y113.779
G0 X58.385 Y113.504
G0 X59.416 Y112.468
G0 X58.385 Y118.165
G0 X58.385 Y116.69
G0 X52.466 Y116.79
G1 F2400 E28.18917
G0 F6000 X52.466 Y116.389
G1 F1200 X52.11 Y116.032 E28.20426
G0 F6000 X52.11 Y115.467
G1 F1200 X53.032 Y116.389 E28.24329
G0 F6000 X53.597 Y116.389
G1 F1200 X52.11 Y114.901 E28.30626
G0 F6000 X52.11 Y114.335
G1 F1200 X54.163 Y116.389 E28.39319
G0 F6000 X54.729 Y116.389
G1 F1200 X52.11 Y113.769 E28.50408
G0 F6000 X52.11 Y113.204
G1 F1200 X55.295 Y116.389 E28.63891
G0 F6000 X55.86 Y116.389
G1 F1200 X52.11 Y112.638 E28.79768
G0 F6000 X52.11 Y112.072
G1 F1200 X56.426 Y116.389 E28.98042
G0 F6000 X56.992 Y116.389
G1 F1200 X52.11 Y111.507 E29.18709
G0 F6000 X52.11 Y110.941
G1 F1200 X57.557 Y116.389 E29.4177
G0 F6000 X58.123 Y116.389
G1 F1200 X52.11 Y110.375 E29.67227
G0 F6000 X52.11 Y109.81
G1 F1200 X58.689 Y116.389 E29.95078
G0 F6000 X59.254 Y116.389
G1 F1200 X52.11 Y109.244 E30.25323
G0 F6000 X52.11 Y108.678
G1 F1200 X59.82 Y116.389 E30.57964
G0 F6000 X60.386 Y116.389
G1 F1200 X52.11 Y108.113 E30.92999
G0 F6000 X52.11 Y107.547
G1 F1200 X57.752 Y113.19 E31.16885
G0 F6000 X57.429 Y112.3
G1 F1200 X52.11 Y106.981 E31.39402
G0 F6000 X52.11 Y106.416
G1 F1200 X57.402 Y111.708 E31.61805
G0 F6000 X57.48 Y111.22
G1 F1200 X52.11 Y105.85 E31.84538
G0 F6000 X52.11 Y105.284
G1 F1200 X57.625 Y110.8 E32.07887
G0 F6000 X57.823 Y110.432
G1 F1200 X52.11 Y104.718 E32.32074
