;FLAVOR:Marlin
;TIME:3563
;Filament used: 3.40066m
;Layer height: 0.2
;MINX:69.335
;MINY:92.46
;MINZ:0.2
;MAXX:150.661
;MAXY:127.54
;MAXZ:20
;Generated with Cura_SteamEngine 4.13.1
M140 S60
M105
M190 S60
M104 S195
M105
M109 S195
M82 ;absolute extrusion mode
G28 ;Home
G92 E0 ;Reset Extruder
G1 Z2.0 F3000 ;Move bed down
G1 X10.1 Y20 Z0.28 F5000.0 ;Move to start position
G1 X10.1 Y200.0 Z0.28 F1500.0 E15 ;Draw the first line
G1 X10.4 Y200.0 Z0.28 F5000.0 ;Move to side a little
G1 X10.4 Y20 Z0.28 F1500.0 E30 ;Draw the second line
G92 E0 ;Reset Extruder
G1 Z2.0 F3000 ;Move Bed up
G92 E0
G92 E0
G1 F2400 E-7
;LAYER_COUNT:100
;LAYER:0
M107
;MESH:ServoHolder.stl
G0 F6000 X76.4 Y100.775 Z0.2
;TYPE:WALL-INNER
G1 F2400 E0
G1 F1200 X76.4 Y122.975 E0.66454
G1 X118.6 Y122.975 E1.92776
G1 X118.6 Y100.775 E2.59229
G1 X76.4 Y100.775 E3.85551
G0 F6000 X76.8 Y101.175
;TYPE:WALL-OUTER
G1 F1200 X76.8 Y122.575 E4.49611
G1 X118.2 Y122.575 E5.73538
G1 X118.2 Y101.175 E6.37597
G1 X76.8 Y101.175 E7.61524
G1 F2400 E0.61524
G0 F6000 X76.5 Y101.175
G0 X95.423 Y100.605
G0 X95.423 Y102.04
G0 X125.665 Y100.585
G0 X124.19 Y100.585
G0 X124.4 Y96.275
;TYPE:WALL-INNER
G1 F2400 E7.61524
G1 F1200 X124.4 Y126.275 E8.51326
G1 X70.6 Y126.275 E10.12372
G1 X70.6 Y93.725 E11.09808
G1 X149.4 Y93.725 E13.45688
G1 X149.4 Y96.275 E13.53322
G1 X124.4 Y96.275 E14.28157
G0 F6000 X124.8 Y96.675
;TYPE:WALL-OUTER
G1 F1200 X124.8 Y126.675 E15.17959
G1 X70.2 Y126.675 E16.814
G1 X70.2 Y93.325 E17.8123
G1 X149.8 Y93.325 E20.19506
G1 X149.8 Y96.675 E20.29533
G1 X124.8 Y96.675 E21.04369
G0 F6000 X124.8 Y96.375
G0 X124.26 Y96.135
G0 X124.01 Y95.885
;TYPE:SKIN
G1 F1200 X124.01 Y125.885 E21.94171
G1 X70.99 Y125.885 E23.52882
G1 X70.99 Y94.115 E24.47983
G1 X149.01 Y94.115 E26.81529
G1 X149.01 Y95.885 E26.86827
G1 X124.01 Y95.885 E27.61662
G1 F2400 E20.61662
G0 F6000 X124.29 Y96.135
G0 X124.19 Y100.665
G0 X125.665 Y100.665
G0 X117.347 Y102.028
G0 X118.79 Y100.665
G1 F2400 E27.61662
G0 F6000 X118.99 Y100.385
G1 F1200 X76.01 Y100.385 E28.90319
G1 X76.01 Y123.365 E29.59108
G1 X118.99 Y123.365 E30.87765
G1 X118.99 Y100.385 E31.56553
G1 F2400 E24.56553
G0 F6000 X118.74 Y100.665
G0 X118.77 Y102.702
G0 X117.335 Y102.702
G0 X125.665 Y100.579
G0 X124.19 Y100.579
G0 X124.218 Y96.093
G0 X143.124 Y96.055
G0 X149.29 Y94.584
G1 F2400 E31.56553
G0 F6000 X148.889 Y94.584
G1 F1200 X148.541 Y94.235 E31.58028
G0 F6000 X147.975 Y94.235
G1 F1200 X148.889 Y95.149 E31.61898
G0 F6000 X148.889 Y95.715
G1 F1200 X147.409 Y94.235 E31.68163
G0 F6000 X146.844 Y94.235
G1 F1200 X148.373 Y95.764 E31.74636
G0 F6000 X147.807 Y95.764
G1 F1200 X146.278 Y94.235 E31.81109
G0 F6000 X145.712 Y94.235
G1 F1200 X147.242 Y95.764 E31.87583
G0 F6000 X146.676 Y95.764
G1 F1200 X145.147 Y94.235 E31.94056
G0 F6000 X144.581 Y94.235
G1 F1200 X146.11 Y95.764 E32.00529
G0 F6000 X145.545 Y95.764
G1 F1200 X144.015 Y94.235 E32.07004
G0 F6000 X143.45 Y94.235
G1 F1200 X144.979 Y95.764 E32.13477
G0 F6000 X144.413 Y95.764
G1 F1200 X142.884 Y94.235 E32.19949
G0 F6000 X142.318 Y94.235
G1 F1200 X143.848 Y95.764 E32.26424
G0 F6000 X143.282 Y95.764
G1 F1200 X141.752 Y94.235 E32.32899
G0 F6000 X141.187 Y94.235
G1 F1200 X142.716 Y95.764 E32.39372
G0 F6000 X142.151 Y95.764
G1 F1200 X140.621 Y94.235 E32.45847
G0 F6000 X140.055 Y94.235
G1 F1200 X141.585 Y95.764 E32.52321
G0 F6000 X141.019 Y95.764
G1 F1200 X139.49 Y94.235 E32.58794
G0 F6000 X138.924 Y94.235
G1 F1200 X140.454 Y95.764 E32.65269
G0 F6000 X139.888 Y95.764
G1 F1200 X138.358 Y94.235 E32.71744
G0 F6000 X137.793 Y94.235
G1 F1200 X139.322 Y95.764 E32.78217
G0 F6000 X138.756 Y95.764
G1 F1200 X137.227 Y94.235 E32.84689
G0 F6000 X136.661 Y94.235
G1 F1200 X138.191 Y95.764 E32.91164
G0 F6000 X137.625 Y95.764
G1 F1200 X136.096 Y94.235 E32.97637
G0 F6000 X135.53 Y94.235
G1 F1200 X137.059 Y95.764 E33.0411
G0 F6000 X136.494 Y95.764
G1 F1200 X134.964 Y94.235 E33.10585
G0 F6000 X134.399 Y94.235
G1 F1200 X135.928 Y95.764 E33.17057
G0 F6000 X135.362 Y95.764
G1 F1200 X133.833 Y94.235 E33.2353
G0 F6000 X133.267 Y94.235
G1 F1200 X134.797 Y95.764 E33.30005
G0 F6000 X134.231 Y95.764
G1 F1200 X132.702 Y94.235 E33.36478
G0 F6000 X132.136 Y94.235
G1 F1200 X133.665 Y95.764 E33.42951
G0 F6000 X133.1 Y95.764
G1 F1200 X131.57 Y94.235 E33.49425
G0 F6000 X131.004 Y94.235
G1 F1200 X132.534 Y95.764 E33.559
G0 F6000 X131.968 Y95.764
G1 F1200 X130.439 Y94.235 E33.62373
G0 F6000 X129.873 Y94.235
G1 F1200 X131.403 Y95.764 E33.68848
G0 F6000 X130.837 Y95.764
G1 F1200 X129.307 Y94.235 E33.75323
G0 F6000 X128.742 Y94.235
G1 F1200 X130.271 Y95.764 E33.81796
G0 F6000 X129.706 Y95.764
G1 F1200 X128.176 Y94.235 E33.8827
G0 F6000 X127.61 Y94.235
G1 F1200 X129.14 Y95.764 E33.94745
G0 F6000 X128.574 Y95.764
G1 F1200 X127.045 Y94.235 E34.01218
G0 F6000 X126.479 Y94.235
G1 F1200 X128.008 Y95.764 E34.07691
G0 F6000 X127.443 Y95.764
G1 F1200 X125.913 Y94.235 E34.14166
G0 F6000 X125.348 Y94.235
G1 F1200 X126.877 Y95.764 E34.20638
G0 F6000 X126.311 Y95.764
G1 F1200 X124.782 Y94.235 E34.27111
G0 F6000 X124.216 Y94.235
G1 F1200 X125.746 Y95.764 E34.33586
G0 F6000 X125.18 Y95.764
G1 F1200 X123.651 Y94.235 E34.40059
G0 F6000 X123.085 Y94.235
G1 F1200 X124.614 Y95.764 E34.46532
G0 F6000 X124.049 Y95.764
G1 F1200 X122.519 Y94.235 E34.53006
G0 F6000 X121.953 Y94.235
G1 F1200 X123.89 Y96.171 E34.61204
G0 F6000 X123.89 Y96.737
G1 F1200 X121.388 Y94.235 E34.71796
G0 F6000 X120.822 Y94.235
G1 F1200 X123.89 Y97.302 E34.84782
G0 F6000 X123.89 Y97.868
G1 F1200 X120.256 Y94.235 E35.00164
G0 F6000 X119.691 Y94.235
G1 F1200 X123.89 Y98.434 E35.17939
G0 F6000 X123.89 Y98.999
G1 F1200 X119.125 Y94.235 E35.38109
G0 F6000 X118.559 Y94.235
G1 F1200 X123.89 Y99.565 E35.60675
G0 F6000 X123.89 Y100.131
G1 F1200 X117.994 Y94.235 E35.85634
G0 F6000 X117.428 Y94.235
G1 F1200 X123.89 Y100.696 E36.12988
G0 F6000 X123.89 Y101.262
G1 F1200 X116.862 Y94.235 E36.42738
G0 F6000 X116.297 Y94.235
G1 F1200 X123.89 Y101.828 E36.74881
G0 F6000 X123.89 Y102.394
G1 F1200 X115.731 Y94.235 E37.09421
G0 F6000 X115.165 Y94.235
G1 F1200 X123.89 Y102.959 E37.46355
G0 F6000 X123.89 Y103.525
G1 F1200 X114.6 Y94.235 E37.85682
G0 F6000 X114.034 Y94.235
G1 F1200 X123.89 Y104.091 E38.27406
G0 F6000 X123.89 Y104.656
G1 F1200 X113.468 Y94.235 E38.71523
G0 F6000 X112.903 Y94.235
G1 F1200 X118.931 Y100.264 E38.97044
G0 F6000 X119.109 Y100.441
G1 F1200 X123.89 Y105.222 E39.17284
G0 F6000 X123.89 Y105.788
G1 F1200 X119.109 Y101.007 E39.37523
G0 F6000 X119.109 Y101.573
G1 F1200 X123.89 Y106.353 E39.57761
G0 F6000 X123.89 Y106.919
G1 F1200 X119.109 Y102.138 E39.78
G0 F6000 X119.109 Y102.704
G1 F1200 X123.89 Y107.485 E39.9824
G0 F6000 X123.89 Y108.05
G1 F1200 X119.109 Y103.27 E40.18477
G0 F6000 X119.109 Y103.835
G1 F1200 X123.89 Y108.616 E40.38716
G0 F6000 X123.89 Y109.182
G1 F1200 X119.109 Y104.401 E40.58956
G0 F6000 X119.109 Y104.967
G1 F1200 X123.89 Y109.747 E40.79193
G0 F6000 X123.89 Y110.313
G1 F1200 X119.109 Y105.532 E40.99433
G0 F6000 X119.109 Y106.098
G1 F1200 X123.89 Y110.879 E41.19672
G0 F6000 X123.89 Y111.444
G1 F1200 X119.109 Y106.664 E41.3991
G0 F6000 X119.109 Y107.229
G1 F1200 X123.89 Y112.01 E41.60149
G0 F6000 X123.89 Y112.576
G1 F1200 X119.109 Y107.795 E41.80389
G0 F6000 X119.109 Y108.361
G1 F1200 X123.89 Y113.142 E42.00628
G0 F6000 X123.89 Y113.707
G1 F1200 X119.109 Y108.926 E42.20868
G0 F6000 X119.109 Y109.492
G1 F1200 X123.89 Y114.273 E42.41107
G0 F6000 X123.89 Y114.839
G1 F1200 X119.109 Y110.058 E42.61347
G0 F6000 X119.109 Y110.624
G1 F1200 X123.89 Y115.404 E42.81584
G0 F6000 X123.89 Y115.97
G1 F1200 X119.109 Y111.189 E43.01824
G0 F6000 X119.109 Y111.755
G1 F1200 X123.89 Y116.536 E43.22063
G0 F6000 X123.89 Y117.101
G1 F1200 X119.109 Y112.321 E43.42301
G0 F6000 X119.109 Y112.886
G1 F1200 X123.89 Y117.667 E43.6254
G0 F6000 X123.89 Y118.233
G1 F1200 X119.109 Y113.452 E43.8278
G0 F6000 X119.109 Y114.018
G1 F1200 X123.89 Y118.798 E44.03017
G0 F6000 X123.89 Y119.364
G1 F1200 X119.109 Y114.583 E44.23257
G0 F6000 X119.109 Y115.149
G1 F1200 X123.89 Y119.93 E44.43496
G0 F6000 X123.89 Y120.495
G1 F1200 X119.109 Y115.715 E44.63734
G0 F6000 X119.109 Y116.28
G1 F1200 X123.89 Y121.061 E44.83973
G0 F6000 X123.89 Y121.627
G1 F1200 X119.109 Y116.846 E45.04213
G0 F6000 X119.109 Y117.412
G1 F1200 X123.89 Y122.193 E45.24452
G0 F6000 X123.89 Y122.758
G1 F1200 X119.109 Y117.977 E45.44692
G0 F6000 X119.109 Y118.543
G1 F1200 X123.89 Y123.324 E45.64931
G0 F6000 X123.89 Y123.89
G1 F1200 X119.109 Y119.109 E45.85171
G0 F6000 X119.109 Y119.674
G1 F1200 X123.89 Y124.455 E46.0541
G0 F6000 X123.89 Y125.021
G1 F1200 X119.109 Y120.24 E46.2565
G0 F6000 X119.109 Y120.806
G1 F1200 X123.89 Y125.587 E46.45889
G0 F6000 X123.501 Y125.763
G1 F1200 X119.109 Y121.372 E46.6448
G0 F6000 X119.109 Y121.937
G1 F1200 X122.935 Y125.763 E46.80677
G0 F6000 X122.369 Y125.763
G1 F1200 X119.109 Y122.503 E46.94477
G0 F6000 X119.109 Y123.069
G1 F1200 X121.804 Y125.763 E47.05884
G0 F6000 X121.238 Y125.763
G1 F1200 X118.958 Y123.484 E47.15534
G0 F6000 X118.393 Y123.484
G1 F1200 X120.672 Y125.763 E47.25182
G0 F6000 X120.107 Y125.763
G1 F1200 X117.827 Y123.484 E47.34832
G0 F6000 X117.261 Y123.484
G1 F1200 X119.541 Y125.763 E47.44481
G0 F6000 X118.975 Y125.763
G1 F1200 X116.695 Y123.484 E47.54131
G0 F6000 X116.13 Y123.484
G1 F1200 X118.409 Y125.763 E47.63779
G0 F6000 X117.844 Y125.763
G1 F1200 X115.564 Y123.484 E47.73429
G0 F6000 X114.998 Y123.484
G1 F1200 X117.278 Y125.763 E47.83079
G0 F6000 X116.712 Y125.763
G1 F1200 X114.433 Y123.484 E47.92727
G0 F6000 X113.867 Y123.484
G1 F1200 X116.147 Y125.763 E48.02376
G0 F6000 X115.581 Y125.763
G1 F1200 X113.301 Y123.484 E48.12026
G0 F6000 X112.736 Y123.484
G1 F1200 X115.015 Y125.763 E48.21674
G0 F6000 X114.45 Y125.763
G1 F1200 X112.17 Y123.484 E48.31324
G0 F6000 X111.604 Y123.484
G1 F1200 X113.884 Y125.763 E48.40974
G0 F6000 X113.318 Y125.763
G1 F1200 X111.039 Y123.484 E48.50621
G0 F6000 X110.473 Y123.484
G1 F1200 X112.753 Y125.763 E48.60271
G0 F6000 X112.187 Y125.763
G1 F1200 X109.907 Y123.484 E48.69921
G0 F6000 X109.342 Y123.484
G1 F1200 X111.621 Y125.763 E48.79569
G0 F6000 X111.056 Y125.763
G1 F1200 X108.776 Y123.484 E48.89219
G0 F6000 X108.21 Y123.484
G1 F1200 X110.49 Y125.763 E48.98869
G0 F6000 X109.924 Y125.763
G1 F1200 X107.644 Y123.484 E49.08519
G0 F6000 X107.079 Y123.484
G1 F1200 X109.359 Y125.763 E49.18168
G0 F6000 X108.793 Y125.763
G1 F1200 X106.513 Y123.484 E49.27818
G0 F6000 X105.947 Y123.484
G1 F1200 X108.227 Y125.763 E49.37468
G0 F6000 X107.661 Y125.763
G1 F1200 X105.382 Y123.484 E49.47116
G0 F6000 X104.816 Y123.484
G1 F1200 X107.096 Y125.763 E49.56766
G0 F6000 X106.53 Y125.763
G1 F1200 X104.25 Y123.484 E49.66416
G0 F6000 X103.685 Y123.484
G1 F1200 X105.964 Y125.763 E49.76063
G0 F6000 X105.399 Y125.763
G1 F1200 X103.119 Y123.484 E49.85713
G0 F6000 X102.553 Y123.484
G1 F1200 X104.833 Y125.763 E49.95363
G0 F6000 X104.267 Y125.763
G1 F1200 X101.988 Y123.484 E50.05011
G0 F6000 X101.422 Y123.484
G1 F1200 X103.702 Y125.763 E50.14661
G0 F6000 X103.136 Y125.763
G1 F1200 X100.856 Y123.484 E50.24311
G0 F6000 X100.291 Y123.484
G1 F1200 X102.57 Y125.763 E50.33958
G0 F6000 X102.005 Y125.763
G1 F1200 X99.725 Y123.484 E50.43608
G0 F6000 X99.159 Y123.484
G1 F1200 X101.439 Y125.763 E50.53258
G0 F6000 X100.873 Y125.763
G1 F1200 X98.594 Y123.484 E50.62906
G0 F6000 X98.028 Y123.484
G1 F1200 X100.308 Y125.763 E50.72556
G0 F6000 X99.742 Y125.763
G1 F1200 X97.462 Y123.484 E50.82205
G0 F6000 X96.896 Y123.484
G1 F1200 X99.176 Y125.763 E50.91855
G0 F6000 X98.61 Y125.763
G1 F1200 X96.331 Y123.484 E51.01503
G0 F6000 X95.765 Y123.484
G1 F1200 X98.045 Y125.763 E51.11153
G0 F6000 X97.479 Y125.763
G1 F1200 X95.199 Y123.484 E51.20803
G0 F6000 X94.634 Y123.484
G1 F1200 X96.913 Y125.763 E51.30451
G0 F6000 X96.348 Y125.763
G1 F1200 X94.068 Y123.484 E51.401
G0 F6000 X93.502 Y123.484
G1 F1200 X95.782 Y125.763 E51.4975
G0 F6000 X95.216 Y125.763
G1 F1200 X92.937 Y123.484 E51.59398
G0 F6000 X92.371 Y123.484
G1 F1200 X94.651 Y125.763 E51.69048
G0 F6000 X94.085 Y125.763
G1 F1200 X91.805 Y123.484 E51.78698
G0 F6000 X91.24 Y123.484
G1 F1200 X93.519 Y125.763 E51.88345
G0 F6000 X92.954 Y125.763
G1 F1200 X90.674 Y123.484 E51.97995
G0 F6000 X90.108 Y123.484
G1 F1200 X92.388 Y125.763 E52.07645
G0 F6000 X91.822 Y125.763
G1 F1200 X89.543 Y123.484 E52.17293
G0 F6000 X88.977 Y123.484
G1 F1200 X91.257 Y125.763 E52.26943
G0 F6000 X90.691 Y125.763
G1 F1200 X88.411 Y123.484 E52.36593
G0 F6000 X87.845 Y123.484
G1 F1200 X90.125 Y125.763 E52.46243
G0 F6000 X89.56 Y125.763
G1 F1200 X87.28 Y123.484 E52.55892
G0 F6000 X86.714 Y123.484
G1 F1200 X88.994 Y125.763 E52.65542
G0 F6000 X88.428 Y125.763
G1 F1200 X86.148 Y123.484 E52.75192
G0 F6000 X85.583 Y123.484
G1 F1200 X87.862 Y125.763 E52.8484
G0 F6000 X87.297 Y125.763
G1 F1200 X85.017 Y123.484 E52.9449
G0 F6000 X84.451 Y123.484
G1 F1200 X86.731 Y125.763 E53.0414
G0 F6000 X86.165 Y125.763
G1 F1200 X83.886 Y123.484 E53.13787
G0 F6000 X83.32 Y123.484
G1 F1200 X85.6 Y125.763 E53.23437
G0 F6000 X85.034 Y125.763
G1 F1200 X82.754 Y123.484 E53.33087
G0 F6000 X82.189 Y123.484
G1 F1200 X84.468 Y125.763 E53.42735
G0 F6000 X83.903 Y125.763
G1 F1200 X81.623 Y123.484 E53.52385
G0 F6000 X81.057 Y123.484
G1 F1200 X83.337 Y125.763 E53.62035
G0 F6000 X82.771 Y125.763
G1 F1200 X80.492 Y123.484 E53.71682
G0 F6000 X79.926 Y123.484
G1 F1200 X82.206 Y125.763 E53.81332
G0 F6000 X81.64 Y125.763
G1 F1200 X79.36 Y123.484 E53.90982
G0 F6000 X78.795 Y123.484
G1 F1200 X81.074 Y125.763 E54.0063
G0 F6000 X80.509 Y125.763
G1 F1200 X78.229 Y123.484 E54.1028
G0 F6000 X77.663 Y123.484
G1 F1200 X79.943 Y125.763 E54.19929
G0 F6000 X79.377 Y125.763
G1 F1200 X77.097 Y123.484 E54.29579
G0 F6000 X76.532 Y123.484
G1 F1200 X78.812 Y125.763 E54.39229
G0 F6000 X78.246 Y125.763
G1 F1200 X75.966 Y123.484 E54.48879
G1 X75.89 Y123.407
G1 X71.11 Y118.627 E54.69114
G0 F6000 X71.11 Y118.062
G1 F1200 X75.89 Y122.842 E54.8935
G0 F6000 X75.89 Y122.276
G1 F1200 X71.11 Y117.496 E55.09585
G0 F6000 X71.11 Y116.93
G1 F1200 X75.89 Y121.71 E55.2982
G0 F6000 X75.89 Y121.145
G1 F1200 X71.11 Y116.365 E55.50056
G0 F6000 X71.11 Y115.799
G1 F1200 X75.89 Y120.579 E55.70291
G0 F6000 X75.89 Y120.013
G1 F1200 X71.11 Y115.233 E55.90526
G0 F6000 X71.11 Y114.667
G1 F1200 X75.89 Y119.448 E56.10764
G0 F6000 X75.89 Y118.882
G1 F1200 X71.11 Y114.102 E56.30999
G0 F6000 X71.11 Y113.536
G1 F1200 X75.89 Y118.316 E56.51234
G0 F6000 X75.89 Y117.75
G1 F1200 X71.11 Y112.97 E56.71469
G0 F6000 X71.11 Y112.405
G1 F1200 X75.89 Y117.185 E56.91705
G0 F6000 X75.89 Y116.619
G1 F1200 X71.11 Y111.839 E57.1194
G0 F6000 X71.11 Y111.273
G1 F1200 X75.89 Y116.053 E57.32175
G0 F6000 X75.89 Y115.488
G1 F1200 X71.11 Y110.708 E57.52411
G0 F6000 X71.11 Y110.142
G1 F1200 X75.89 Y114.922 E57.72646
G0 F6000 X75.89 Y114.356
G1 F1200 X71.11 Y109.576 E57.92881
G0 F6000 X71.11 Y109.011
G1 F1200 X75.89 Y113.791 E58.13116
G0 F6000 X75.89 Y113.225
G1 F1200 X71.11 Y108.445 E58.33352
G0 F6000 X71.11 Y107.879
G1 F1200 X75.89 Y112.659 E58.53587
G0 F6000 X75.89 Y112.094
G1 F1200 X71.11 Y107.314 E58.73822
G0 F6000 X71.11 Y106.748
G1 F1200 X75.89 Y111.528 E58.94058
G0 F6000 X75.89 Y110.962
G1 F1200 X71.11 Y106.182 E59.14293
G0 F6000 X71.11 Y105.617
G1 F1200 X75.89 Y110.397 E59.34528
G0 F6000 X75.89 Y109.831
G1 F1200 X71.11 Y105.051 E59.54763
G0 F6000 X71.11 Y104.485
G1 F1200 X75.89 Y109.265 E59.74999
G0 F6000 X75.89 Y108.699
G1 F1200 X71.11 Y103.919 E59.95234
G0 F6000 X71.11 Y103.354
G1 F1200 X75.89 Y108.134 E60.15469
G0 F6000 X75.89 Y107.568
G1 F1200 X71.11 Y102.788 E60.35705
G0 F6000 X71.11 Y102.222
G1 F1200 X75.89 Y107.002 E60.5594
G0 F6000 X75.89 Y106.437
G1 F1200 X71.11 Y101.657 E60.76175
G0 F6000 X71.11 Y101.091
G1 F1200 X75.89 Y105.871 E60.9641
G0 F6000 X75.89 Y105.305
G1 F1200 X71.11 Y100.525 E61.16646
G0 F6000 X71.11 Y99.96
G1 F1200 X75.89 Y104.74 E61.36881
G0 F6000 X75.89 Y104.174
G1 F1200 X71.11 Y99.394 E61.57116
G0 F6000 X71.11 Y98.828
G1 F1200 X75.89 Y103.608 E61.77352
G0 F6000 X75.89 Y103.043
G1 F1200 X71.11 Y98.263 E61.97587
G0 F6000 X71.11 Y97.697
G1 F1200 X75.89 Y102.477 E62.17822
G0 F6000 X75.89 Y101.911
G1 F1200 X71.11 Y97.131 E62.38057
G0 F6000 X71.11 Y96.566
