;FLAVOR:Marlin
;TIME:9868
;Filament used: 8.9516m
;Layer height: 0.2
;MINX:57.335
;MINY:64.076
;MINZ:0.2
;MAXX:162.661
;MAXY:155.922
;MAXZ:20
;Generated with Cura_SteamEngine 4.13.1
M140 S60
M105
M190 S60
M104 S195
M105
M109 S195
M82 ;absolute extrusion mode
G28 ;Home
G92 E0 ;Reset Extruder
G1 Z2.0 F3000 ;Move bed down
G1 X10.1 Y20 Z0.28 F5000.0 ;Move to start position
G1 X10.1 Y200.0 Z0.28 F1500.0 E15 ;Draw the first line
G1 X10.4 Y200.0 Z0.28 F5000.0 ;Move to side a little
G1 X10.4 Y20 Z0.28 F1500.0 E30 ;Draw the second line
G92 E0 ;Reset Extruder
G1 Z2.0 F3000 ;Move Bed up
G92 E0
G92 E0
G1 F2400 E-7
;LAYER_COUNT:100
;LAYER:0
M107
G0 F6000 X65.527 Y68.389 Z0.2
;TYPE:SKIRT
G1 F2400 E0
G1 F1200 X65.813 Y68.138 E0.01139
G1 X66.038 Y67.991 E0.01944
G1 X66.361 Y67.849 E0.03
G1 X66.619 Y67.783 E0.03797
G1 X66.152 Y68.164 E0.05601
G1 X65.974 Y68.329 E0.06328
G1 X65.589 Y68.714 E0.07957
G1 X65.39 Y68.932 E0.08841
G1 X65.042 Y69.361 E0.10495
G1 X65.044 Y69.348 E0.10534
G1 X65.123 Y69.07 E0.11399
G1 X65.271 Y68.745 E0.12468
G1 X65.527 Y68.389 E0.13781
G0 F6000 X65.233 Y68.117
G1 F1200 X65.366 Y67.984 E0.14344
G1 X65.576 Y67.815 E0.15151
G1 X65.83 Y67.649 E0.16059
G1 X66.235 Y67.469 E0.17386
G1 X66.576 Y67.382 E0.18439
G1 X66.777 Y67.352 E0.19047
G1 X67.032 Y67.34 E0.19811
G1 X68.034 Y67.34 E0.22811
G1 X67.665 Y67.547 E0.24077
G1 X67.153 Y67.881 E0.25907
G1 X66.947 Y68.032 E0.26672
G1 X66.451 Y68.435 E0.28585
G1 X66.257 Y68.612 E0.29371
G1 X65.872 Y68.997 E0.31001
G1 X65.695 Y69.191 E0.31787
G1 X65.292 Y69.687 E0.337
G1 X65.141 Y69.893 E0.34465
G1 X64.807 Y70.405 E0.36294
G1 X64.676 Y70.629 E0.37071
G1 X64.6 Y70.774 E0.37561
G1 X64.6 Y69.704 E0.40764
G1 X64.61 Y69.549 E0.41229
G1 X64.653 Y69.261 E0.42101
G1 X64.743 Y68.941 E0.43096
G1 X64.927 Y68.541 E0.44414
G1 X65.075 Y68.313 E0.45227
G1 X65.233 Y68.117 E0.45981
G0 F6000 X64.93 Y67.856
G1 F1200 X65.103 Y67.683 E0.46713
G1 X65.345 Y67.488 E0.47644
G1 X65.628 Y67.303 E0.48656
G1 X65.857 Y67.185 E0.49427
G1 X66.119 Y67.086 E0.50265
G1 X66.485 Y66.992 E0.51397
G1 X66.74 Y66.954 E0.52168
G1 X67.035 Y66.94 E0.53052
G1 X70.239 Y66.94 E0.62643
G1 X70.13 Y66.965 E0.62978
G1 X69.611 Y67.106 E0.64588
G1 X69.407 Y67.173 E0.65231
G1 X68.861 Y67.382 E0.66981
G1 X68.615 Y67.493 E0.67789
G1 X68.034 Y67.792 E0.69745
G1 X67.883 Y67.882 E0.70271
G1 X67.373 Y68.215 E0.72094
G1 X67.199 Y68.343 E0.72741
G1 X66.71 Y68.74 E0.74626
G1 X66.539 Y68.894 E0.75315
G1 X66.154 Y69.279 E0.76945
G1 X65.967 Y69.49 E0.77789
G1 X65.603 Y69.939 E0.79519
G1 X65.446 Y70.157 E0.80323
G1 X65.142 Y70.623 E0.81989
G1 X65.001 Y70.87 E0.8284
G1 X64.729 Y71.403 E0.84631
G1 X64.642 Y71.601 E0.85279
G1 X64.433 Y72.147 E0.87029
G1 X64.348 Y72.412 E0.87862
G1 X64.215 Y72.911 E0.89408
G1 X64.2 Y72.978 E0.89613
G1 X64.2 Y69.695 E0.9944
G1 X64.213 Y69.49 E1.00055
G1 X64.26 Y69.179 E1.00997
G1 X64.362 Y68.819 E1.02117
G1 X64.45 Y68.594 E1.0284
G1 X64.583 Y68.334 E1.03714
G1 X64.745 Y68.085 E1.04604
G1 X64.93 Y67.856 E1.05485
G0 F6000 X64.631 Y67.59
G1 F1200 X64.836 Y67.384 E1.06355
G1 X65.108 Y67.165 E1.074
G1 X65.427 Y66.956 E1.08542
G1 X65.692 Y66.82 E1.09433
G1 X65.993 Y66.705 E1.10398
G1 X66.415 Y66.597 E1.11702
G1 X66.716 Y66.554 E1.12612
G1 X67.017 Y66.54 E1.13514
G1 X157.081 Y66.54 E3.83113
G1 X157.347 Y66.559 E3.83911
G1 X157.546 Y66.59 E3.84514
G1 X158.037 Y66.719 E3.86033
G1 X158.274 Y66.809 E3.86792
G1 X158.622 Y66.989 E3.87965
G1 X158.899 Y67.17 E3.88956
G1 X159.142 Y67.364 E3.89886
G1 X159.343 Y67.565 E3.90737
G1 X159.612 Y67.901 E3.92026
G1 X159.762 Y68.129 E3.92843
G1 X159.924 Y68.449 E3.93916
G1 X160.043 Y68.755 E3.94899
G1 X160.133 Y69.078 E3.95903
G1 X160.181 Y69.379 E3.96815
G1 X160.2 Y69.646 E3.97616
G1 X160.2 Y153.46 E6.48506
G1 X158.8 Y153.46 E6.52697
G1 X158.8 Y121.5 E7.48366
G1 X159.073 Y121.227 E7.49522
G1 X159.311 Y120.932 E7.50657
G1 X159.482 Y120.594 E7.51791
G1 X159.579 Y120.228 E7.52924
G1 X159.6 Y119.954 E7.53747
G1 X159.6 Y74.721 E8.89148
G1 X159.598 Y74.628 E8.89426
G1 X159.569 Y74.069 E8.91102
G1 X159.544 Y73.83 E8.91821
G1 X159.451 Y73.241 E8.93606
G1 X159.39 Y72.983 E8.944
G1 X159.251 Y72.466 E8.96002
G1 X159.193 Y72.29 E8.96557
G1 X158.984 Y71.744 E8.98307
G1 X158.882 Y71.52 E8.99044
G1 X158.597 Y70.965 E9.00911
G1 X158.523 Y70.842 E9.01341
G1 X158.191 Y70.333 E9.0316
G1 X158.086 Y70.19 E9.03691
G1 X157.695 Y69.709 E9.05547
G1 X157.563 Y69.562 E9.06138
G1 X157.178 Y69.177 E9.07768
G1 X156.999 Y69.018 E9.08485
G1 X156.55 Y68.654 E9.10215
G1 X156.355 Y68.515 E9.10932
G1 X155.898 Y68.217 E9.12565
G1 X155.688 Y68.097 E9.13289
G1 X155.158 Y67.827 E9.15069
G1 X154.996 Y67.756 E9.15599
G1 X154.45 Y67.547 E9.17349
G1 X154.223 Y67.474 E9.18063
G1 X153.723 Y67.341 E9.19611
G1 X153.499 Y67.289 E9.203
G1 X152.91 Y67.196 E9.22085
G1 X152.671 Y67.171 E9.22804
G1 X152.112 Y67.142 E9.2448
G1 X152.019 Y67.14 E9.24758
G1 X71.981 Y67.14 E11.64345
G1 X71.888 Y67.142 E11.64623
G1 X71.329 Y67.171 E11.66299
G1 X71.09 Y67.196 E11.67018
G1 X70.501 Y67.289 E11.68803
G1 X70.277 Y67.34 E11.69491
G1 X69.726 Y67.489 E11.71199
G1 X69.55 Y67.547 E11.71754
G1 X69.004 Y67.756 E11.73504
G1 X68.78 Y67.858 E11.74241
G1 X68.225 Y68.143 E11.76108
G1 X68.102 Y68.217 E11.76538
G1 X67.593 Y68.549 E11.78357
G1 X67.45 Y68.654 E11.78888
G1 X66.969 Y69.045 E11.80744
G1 X66.822 Y69.177 E11.81335
G1 X66.437 Y69.562 E11.82965
G1 X66.278 Y69.741 E11.83682
G1 X65.914 Y70.19 E11.85412
G1 X65.775 Y70.385 E11.86129
G1 X65.477 Y70.842 E11.87762
G1 X65.357 Y71.052 E11.88486
G1 X65.087 Y71.582 E11.90266
G1 X65.016 Y71.744 E11.90796
G1 X64.807 Y72.29 E11.92546
G1 X64.735 Y72.516 E11.93256
G1 X64.603 Y73.005 E11.94772
G1 X64.549 Y73.241 E11.95497
G1 X64.456 Y73.83 E11.97282
G1 X64.431 Y74.069 E11.98001
G1 X64.402 Y74.628 E11.99677
G1 X64.4 Y74.721 E11.99955
G1 X64.4 Y119.954 E13.35356
G1 X64.44 Y120.331 E13.36491
G1 X64.558 Y120.691 E13.37625
G1 X64.748 Y121.018 E13.38757
G1 X64.927 Y121.227 E13.39581
G1 X65.2 Y121.5 E13.40737
G1 X65.2 Y153.459 E14.36403
G1 X62.101 Y153.458 E14.4568
G1 X61.88 Y153.43 E14.46346
G1 X61.965 Y153.419 E14.46603
G1 X62.334 Y153.332 E14.47738
G1 X62.676 Y153.17 E14.48871
G1 X63.089 Y152.823 E14.50485
G1 X63.352 Y152.524 E14.51677
G1 X63.57 Y152.215 E14.52809
G1 X63.72 Y151.866 E14.53946
G1 X63.8 Y151.335 E14.55554
G1 X63.8 Y148.209 E14.64911
G1 X63.76 Y147.832 E14.66046
G1 X63.642 Y147.472 E14.6718
G1 X63.354 Y147.022 E14.68779
G1 X63.091 Y146.722 E14.69974
G1 X62.812 Y146.465 E14.71109
G1 X62.486 Y146.272 E14.72243
G1 X61.967 Y146.124 E14.73859
G1 X61.869 Y146.111 E14.74155
G1 X61.965 Y146.099 E14.74444
G1 X62.334 Y146.012 E14.75579
G1 X62.676 Y145.85 E14.76712
G1 X63.089 Y145.503 E14.78327
G1 X63.352 Y145.204 E14.79519
G1 X63.57 Y144.895 E14.80651
G1 X63.72 Y144.546 E14.81788
G1 X63.8 Y144.015 E14.83395
G1 X63.8 Y140.889 E14.92753
G1 X63.76 Y140.512 E14.93887
G1 X63.642 Y140.152 E14.95022
G1 X63.354 Y139.702 E14.96621
G1 X63.091 Y139.402 E14.97815
G1 X62.812 Y139.145 E14.98951
G1 X62.486 Y138.952 E15.00085
G1 X61.967 Y138.804 E15.017
G1 X61.869 Y138.791 E15.01996
G1 X61.965 Y138.779 E15.02286
G1 X62.334 Y138.692 E15.0342
G1 X62.676 Y138.53 E15.04553
G1 X63.089 Y138.183 E15.06168
G1 X63.352 Y137.884 E15.0736
G1 X63.57 Y137.575 E15.08492
G1 X63.72 Y137.226 E15.09629
G1 X63.8 Y136.695 E15.11237
G1 X63.8 Y133.569 E15.20594
G1 X63.76 Y133.192 E15.21729
G1 X63.642 Y132.832 E15.22863
G1 X63.354 Y132.382 E15.24462
G1 X63.091 Y132.082 E15.25656
G1 X62.812 Y131.825 E15.26792
G1 X62.486 Y131.632 E15.27926
G1 X61.967 Y131.484 E15.29541
G1 X61.869 Y131.471 E15.29837
G1 X61.965 Y131.459 E15.30127
G1 X62.334 Y131.372 E15.31262
G1 X62.676 Y131.21 E15.32395
G1 X63.089 Y130.863 E15.34009
G1 X63.352 Y130.564 E15.35201
G1 X63.57 Y130.255 E15.36333
G1 X63.72 Y129.906 E15.3747
G1 X63.8 Y129.375 E15.39078
G1 X63.8 Y126.249 E15.48435
G1 X63.76 Y125.872 E15.4957
G1 X63.642 Y125.512 E15.50704
G1 X63.354 Y125.062 E15.52303
G1 X63.091 Y124.762 E15.53498
G1 X62.812 Y124.505 E15.54633
G1 X62.486 Y124.312 E15.55767
G1 X61.967 Y124.164 E15.57383
G1 X61.869 Y124.151 E15.57679
G1 X61.965 Y124.139 E15.57968
G1 X62.334 Y124.052 E15.59103
G1 X62.676 Y123.89 E15.60236
G1 X63.089 Y123.543 E15.61851
G1 X63.352 Y123.244 E15.63043
G1 X63.57 Y122.935 E15.64175
G1 X63.72 Y122.586 E15.65312
G1 X63.8 Y122.055 E15.66919
G1 X63.8 Y118.929 E15.76277
G1 X63.76 Y118.552 E15.77411
G1 X63.642 Y118.192 E15.78545
G1 X63.354 Y117.742 E15.80145
G1 X63.091 Y117.442 E15.81339
G1 X62.812 Y117.185 E15.82474
G1 X62.486 Y116.992 E15.83609
G1 X61.967 Y116.844 E15.85224
G1 X61.869 Y116.831 E15.8552
G1 X61.965 Y116.819 E15.8581
G1 X62.334 Y116.732 E15.86944
G1 X62.676 Y116.57 E15.88077
G1 X63.089 Y116.223 E15.89692
G1 X63.352 Y115.924 E15.90884
G1 X63.57 Y115.615 E15.92016
G1 X63.72 Y115.266 E15.93153
G1 X63.8 Y114.735 E15.9476
G1 X63.8 Y111.609 E16.04118
G1 X63.76 Y111.232 E16.05253
G1 X63.642 Y110.872 E16.06387
G1 X63.354 Y110.422 E16.07986
G1 X63.091 Y110.122 E16.0918
G1 X62.812 Y109.865 E16.10316
G1 X62.486 Y109.672 E16.1145
G1 X61.967 Y109.524 E16.13065
G1 X61.869 Y109.511 E16.13361
G1 X61.965 Y109.499 E16.13651
G1 X62.334 Y109.412 E16.14786
G1 X62.676 Y109.25 E16.15919
G1 X63.089 Y108.903 E16.17533
G1 X63.352 Y108.604 E16.18725
G1 X63.57 Y108.295 E16.19857
G1 X63.72 Y107.946 E16.20994
G1 X63.8 Y107.415 E16.22602
G1 X63.8 Y104.289 E16.31959
G1 X63.76 Y103.912 E16.33094
G1 X63.642 Y103.552 E16.34228
G1 X63.354 Y103.102 E16.35827
G1 X63.091 Y102.802 E16.37022
G1 X62.812 Y102.545 E16.38157
G1 X62.486 Y102.352 E16.39291
G1 X61.967 Y102.204 E16.40907
G1 X61.869 Y102.191 E16.41203
G1 X61.965 Y102.179 E16.41492
G1 X62.334 Y102.092 E16.42627
G1 X62.676 Y101.93 E16.4376
G1 X63.089 Y101.583 E16.45375
G1 X63.352 Y101.284 E16.46567
G1 X63.57 Y100.975 E16.47699
G1 X63.72 Y100.626 E16.48836
G1 X63.8 Y100.095 E16.50443
G1 X63.8 Y96.969 E16.598
G1 X63.76 Y96.592 E16.60935
G1 X63.642 Y96.232 E16.62069
G1 X63.354 Y95.782 E16.63669
G1 X63.091 Y95.482 E16.64863
G1 X62.812 Y95.225 E16.65998
G1 X62.486 Y95.032 E16.67132
G1 X61.967 Y94.884 E16.68748
G1 X61.869 Y94.871 E16.69044
G1 X61.965 Y94.859 E16.69333
G1 X62.334 Y94.772 E16.70468
G1 X62.676 Y94.61 E16.71601
G1 X63.089 Y94.263 E16.73216
G1 X63.352 Y93.964 E16.74408
G1 X63.57 Y93.655 E16.7554
G1 X63.72 Y93.306 E16.76677
G1 X63.8 Y92.775 E16.78284
G1 X63.8 Y89.649 E16.87642
G1 X63.76 Y89.272 E16.88777
G1 X63.642 Y88.912 E16.89911
G1 X63.354 Y88.462 E16.9151
G1 X63.091 Y88.162 E16.92704
G1 X62.812 Y87.905 E16.9384
G1 X62.486 Y87.712 E16.94974
G1 X61.967 Y87.564 E16.96589
G1 X61.869 Y87.551 E16.96885
G1 X61.965 Y87.539 E16.97175
G1 X62.334 Y87.452 E16.9831
G1 X62.676 Y87.29 E16.99442
G1 X63.089 Y86.943 E17.01057
G1 X63.352 Y86.644 E17.02249
G1 X63.57 Y86.335 E17.03381
G1 X63.72 Y85.986 E17.04518
G1 X63.8 Y85.455 E17.06126
G1 X63.8 Y82.329 E17.15483
G1 X63.76 Y81.952 E17.16618
G1 X63.642 Y81.592 E17.17752
G1 X63.354 Y81.142 E17.19351
G1 X63.091 Y80.842 E17.20546
G1 X62.812 Y80.585 E17.21681
G1 X62.486 Y80.392 E17.22815
G1 X62.207 Y80.312 E17.23684
G1 X62.517 Y80.198 E17.24673
G1 X62.838 Y79.996 E17.25808
G1 X63.018 Y79.833 E17.26535
G1 X63.295 Y79.546 E17.27729
G1 X63.528 Y79.247 E17.28864
G1 X63.693 Y78.906 E17.29997
G1 X63.784 Y78.538 E17.31132
G1 X63.8 Y78.296 E17.31858
G1 X63.8 Y69.687 E17.57629
G1 X63.814 Y69.458 E17.58315
G1 X63.87 Y69.09 E17.5943
G1 X63.984 Y68.687 E17.60683
G1 X64.084 Y68.432 E17.61503
G1 X64.234 Y68.139 E17.62488
G1 X64.425 Y67.844 E17.6354
G1 X64.631 Y67.59 E17.64519
G0 F6000 X64.336 Y67.318
G1 F1200 X64.565 Y67.089 E17.65489
G1 X64.873 Y66.841 E17.66673
G1 X65.224 Y66.612 E17.67927
G1 X65.527 Y66.456 E17.68947
G1 X65.883 Y66.32 E17.70088
G1 X66.326 Y66.207 E17.71457
G1 X66.667 Y66.156 E17.72489
G1 X67.02 Y66.14 E17.73546
G1 X157.085 Y66.14 E20.43148
G1 X157.384 Y66.161 E20.44045
G1 X157.633 Y66.199 E20.44799
G1 X158.155 Y66.337 E20.46416
G1 X158.439 Y66.444 E20.47324
G1 X158.827 Y66.645 E20.48632
G1 X159.129 Y66.842 E20.49711
G1 X159.417 Y67.072 E20.50815
G1 X159.634 Y67.289 E20.51733
G1 X159.933 Y67.662 E20.53164
G1 X160.114 Y67.939 E20.54155
G1 X160.289 Y68.281 E20.55305
G1 X160.425 Y68.635 E20.5644
G1 X160.523 Y68.986 E20.57531
G1 X160.577 Y69.324 E20.58555
G1 X160.6 Y69.625 E20.59459
G1 X160.6 Y153.86 E23.11609
G1 X158.4 Y153.86 E23.18195
G1 X158.4 Y121.334 E24.15558
G1 X158.79 Y120.944 E24.17209
G1 X158.996 Y120.681 E24.18209
G1 X159.135 Y120.377 E24.1921
G1 X159.2 Y119.954 E24.20491
G1 X159.2 Y74.721 E25.55892
G1 X159.198 Y74.648 E25.56111
G1 X159.169 Y74.089 E25.57786
G1 X159.149 Y73.893 E25.58376
G1 X159.056 Y73.304 E25.60161
G1 X159.007 Y73.097 E25.60798
G1 X158.868 Y72.581 E25.62397
G1 X158.819 Y72.433 E25.62864
G1 X158.61 Y71.887 E25.64614
G1 X158.526 Y71.702 E25.65222
G1 X158.27 Y71.202 E25.66904
G1 X158.188 Y71.06 E25.67395
G1 X157.857 Y70.554 E25.69205
G1 X157.776 Y70.442 E25.69618
G1 X157.391 Y69.968 E25.71446
G1 X157.28 Y69.845 E25.71942
G1 X156.895 Y69.46 E25.73572
G1 X156.747 Y69.328 E25.74166
G1 X156.298 Y68.964 E25.75896
G1 X156.137 Y68.85 E25.76486
G1 X155.68 Y68.552 E25.7812
G1 X155.506 Y68.453 E25.78719
G1 X154.979 Y68.185 E25.80489
G1 X154.853 Y68.13 E25.809
G1 X154.307 Y67.921 E25.8265
G1 X154.119 Y67.861 E25.83241
G1 X153.63 Y67.729 E25.84757
G1 X153.436 Y67.684 E25.85353
G1 X152.847 Y67.591 E25.87138
G1 X152.651 Y67.571 E25.87728
G1 X152.092 Y67.542 E25.89404
G1 X152.019 Y67.54 E25.89622
G1 X71.981 Y67.54 E28.29209
G1 X71.908 Y67.542 E28.29427
G1 X71.349 Y67.571 E28.31103
G1 X71.153 Y67.591 E28.31693
G1 X70.564 Y67.684 E28.33478
G1 X70.346 Y67.736 E28.34149
G1 X69.841 Y67.872 E28.35714
G1 X69.693 Y67.921 E28.36181
G1 X69.147 Y68.13 E28.37931
G1 X68.962 Y68.214 E28.38539
G1 X68.462 Y68.47 E28.40221
G1 X68.32 Y68.552 E28.40711
G1 X67.814 Y68.883 E28.42521
G1 X67.702 Y68.964 E28.42935
G1 X67.228 Y69.349 E28.44763
G1 X67.105 Y69.46 E28.45259
G1 X66.72 Y69.845 E28.46889
G1 X66.588 Y69.993 E28.47482
G1 X66.224 Y70.442 E28.49213
G1 X66.11 Y70.603 E28.49803
G1 X65.812 Y71.06 E28.51436
G1 X65.713 Y71.234 E28.52036
G1 X65.445 Y71.761 E28.53805
G1 X65.39 Y71.887 E28.54217
G1 X65.181 Y72.433 E28.55967
G1 X65.121 Y72.62 E28.56555
G1 X64.986 Y73.12 E28.58105
G1 X64.944 Y73.304 E28.5867
G1 X64.851 Y73.893 E28.60455
G1 X64.831 Y74.089 E28.61045
G1 X64.802 Y74.648 E28.6272
G1 X64.8 Y74.721 E28.62939
G1 X64.8 Y119.954 E29.9834
G1 X64.84 Y120.286 E29.99341
G1 X64.957 Y120.598 E30.00338
G1 X65.21 Y120.944 E30.01622
G1 X65.6 Y121.334 E30.03273
G1 X65.6 Y153.859 E31.00633
G1 X62.081 Y153.858 E31.11167
G1 X59.4 Y153.515 E31.19258
G1 X59.4 Y153.345 E31.19767
G1 X61.915 Y153.023 E31.27357
G1 X62.238 Y152.941 E31.28354
G1 X62.534 Y152.785 E31.29356
G1 X62.788 Y152.559 E31.30373
G1 X63.051 Y152.26 E31.31565
G1 X63.24 Y151.984 E31.32567
G1 X63.359 Y151.672 E31.33566
G1 X63.4 Y151.335 E31.34583
G1 X63.4 Y148.209 E31.4394
G1 X63.36 Y147.877 E31.44941
G1 X63.243 Y147.565 E31.45938
G1 X63.053 Y147.286 E31.46949
G1 X62.79 Y146.986 E31.48143
G1 X62.541 Y146.763 E31.49144
G1 X62.247 Y146.605 E31.50143
G1 X61.916 Y146.52 E31.51166
G1 X59.4 Y146.196 E31.58759
G1 X59.4 Y146.025 E31.59271
G1 X61.915 Y145.703 E31.66861
G1 X62.238 Y145.621 E31.67859
G1 X62.534 Y145.465 E31.6886
G1 X62.788 Y145.239 E31.69878
G1 X63.051 Y144.94 E31.7107
G1 X63.24 Y144.664 E31.72071
G1 X63.359 Y144.352 E31.73071
G1 X63.4 Y144.015 E31.74087
G1 X63.4 Y140.889 E31.83444
G1 X63.36 Y140.557 E31.84445
G1 X63.243 Y140.245 E31.85443
G1 X63.053 Y139.966 E31.86453
G1 X62.79 Y139.666 E31.87648
G1 X62.541 Y139.443 E31.88648
G1 X62.247 Y139.285 E31.89647
G1 X61.916 Y139.2 E31.9067
G1 X59.4 Y138.876 E31.98264
G1 X59.4 Y138.705 E31.98776
G1 X61.915 Y138.383 E32.06366
G1 X62.238 Y138.301 E32.07363
G1 X62.534 Y138.145 E32.08365
G1 X62.788 Y137.919 E32.09382
G1 X63.051 Y137.62 E32.10574
G1 X63.24 Y137.344 E32.11576
G1 X63.359 Y137.032 E32.12575
G1 X63.4 Y136.695 E32.13592
G1 X63.4 Y133.569 E32.22949
G1 X63.36 Y133.237 E32.2395
G1 X63.243 Y132.925 E32.24947
G1 X63.053 Y132.646 E32.25958
G1 X62.79 Y132.346 E32.27152
G1 X62.541 Y132.123 E32.28153
G1 X62.247 Y131.965 E32.29152
G1 X61.916 Y131.88 E32.30175
G1 X59.4 Y131.556 E32.37768
